( pcb2gcode 2.0.0 )
( Software-independent Gcode )

G94 ( Millimeters per minute feed rate. )
G21 ( Units == Millimeters. )

G90 ( Absolute coordinates. )
G00 S15000 ( RPM spindle speed. )
G64 P0.01000 ( set maximum deviation from commanded toolpath )
G01 F40.00000 ( Feedrate. )


G00 Z10.00000 (Retract to tool change height)
T0
M5      (Spindle stop.)
G04 P1.00000 (Wait for spindle to stop)
(MSG, Change tool bit to mill diameter 0.50000mm)
M6      (Tool change.)
M0      (Temporary machine stop.)
M3 ( Spindle on clockwise. )
G04 P1.00000 (Wait for spindle to get up to speed)
G04 P0 ( dwell for no time -- G64 should not smooth over this point )
G00 Z2.00000 ( retract )

G00 X-3.94498 Y17.42701 ( rapid move to begin. )
G01 F20.00000
G01 Z-0.13500
G04 P0 ( dwell for no time -- G64 should not smooth over this point )
G01 F40.00000
G01 X-3.94498 Y17.42701
G01 X-3.94498 Y19.13500
G01 X-3.97477 Y19.30325
G01 X-4.01663 Y19.39175
G01 X-4.09144 Y19.48857
G01 X-5.00230 Y20.39944
G01 X-4.96494 Y20.53216
G01 X-4.94635 Y20.70889
G01 X-4.96494 Y20.93787
G01 X-5.03070 Y21.15799
G01 X-5.15506 Y21.38158
G01 X-5.32928 Y21.56893
G01 X-5.51831 Y21.69951
G01 X-5.70507 Y21.78118
G01 X-5.95615 Y21.83035
G01 X-6.18582 Y21.82489
G01 X-6.40934 Y21.77180
G01 X-6.57167 Y21.69951
G01 X-6.76070 Y21.56893
G01 X-6.93491 Y21.38158
G01 X-7.03801 Y21.20574
G01 X-7.11419 Y20.98900
G01 X-7.14500 Y20.73500
G01 X-7.11419 Y20.48103
G01 X-7.03801 Y20.26429
G01 X-6.93491 Y20.08844
G01 X-6.78104 Y19.91755
G01 X-6.57167 Y19.77051
G01 X-6.35963 Y19.68207
G01 X-6.18582 Y19.64514
G01 X-5.95615 Y19.63968
G01 X-5.70576 Y19.68867
G01 X-4.94498 Y18.92792
G01 X-4.94498 Y17.63412
G01 X-5.48409 Y17.09500
G01 X-6.55689 Y17.09500
G01 X-10.12043 Y20.65857
G01 X-10.26046 Y20.75646
G01 X-10.35264 Y20.78943
G01 X-10.47400 Y20.80500
G01 X-13.23498 Y20.80500
G01 X-13.40323 Y20.77521
G01 X-13.53249 Y20.70612
G01 X-14.96213 Y19.28329
G01 X-15.06230 Y19.11616
G01 X-15.09210 Y18.94791
G01 X-15.08608 Y13.79684
G01 X-15.04353 Y13.65660
G01 X-14.96213 Y13.53473
G01 X-13.83498 Y12.40591
G01 X-13.83498 Y8.74412
G01 X-14.73647 Y7.84262
G01 X-14.84615 Y7.86035
G01 X-15.07582 Y7.85489
G01 X-15.27490 Y7.81118
G01 X-15.46167 Y7.72951
G01 X-15.68953 Y7.56396
G01 X-15.82491 Y7.41158
G01 X-15.91110 Y7.26500
G01 X-18.85188 Y7.26500
G01 X-29.84262 Y18.25576
G01 X-29.84864 Y33.11593
G01 X-29.89118 Y33.25616
G01 X-29.98907 Y33.39621
G01 X-33.26676 Y36.67391
G01 X-33.23885 Y36.77754
G01 X-33.21998 Y36.97002
G01 X-33.23885 Y37.16248
G01 X-33.26676 Y37.26613
G01 X-31.24787 Y39.28503
G01 X-27.28369 Y39.28500
G01 X-27.21445 Y39.16783
G01 X-27.06756 Y39.00471
G01 X-26.88999 Y38.87568
G01 X-26.71389 Y38.79577
G01 X-26.44862 Y38.73938
G01 X-26.22939 Y38.74487
G01 X-26.01608 Y38.79577
G01 X-25.83998 Y38.87568
G01 X-25.64389 Y39.02320
G01 X-25.50127 Y39.18978
G01 X-25.39640 Y39.38236
G01 X-25.34471 Y39.54144
G01 X-25.31499 Y39.78500
G01 X-25.33384 Y39.97748
G01 X-25.39640 Y40.18767
G01 X-25.53198 Y40.42251
G01 X-25.66241 Y40.56531
G01 X-25.81804 Y40.68010
G01 X-26.01608 Y40.77425
G01 X-26.22939 Y40.82516
G01 X-26.44862 Y40.83064
G01 X-26.68946 Y40.78363
G01 X-26.91194 Y40.68010
G01 X-27.08608 Y40.54682
G01 X-27.21445 Y40.40219
G01 X-27.28369 Y40.28502
G01 X-31.45498 Y40.28502
G01 X-31.57634 Y40.26945
G01 X-31.66852 Y40.23646
G01 X-31.80855 Y40.13857
G01 X-33.97156 Y37.97555
G01 X-34.18637 Y38.01564
G01 X-34.35360 Y38.01564
G01 X-34.56917 Y37.97540
G01 X-34.79498 Y37.87934
G01 X-34.97258 Y37.75031
G01 X-35.13371 Y37.56524
G01 X-35.21733 Y37.42041
G01 X-35.29028 Y37.21361
G01 X-35.32000 Y36.97002
G01 X-35.30113 Y36.77754
G01 X-35.27321 Y36.67391
G01 X-39.28209 Y32.66502
G01 X-39.35888 Y32.66502
G01 X-39.44506 Y32.81158
G01 X-39.58044 Y32.96396
G01 X-39.80831 Y33.12951
G01 X-40.02034 Y33.21796
G01 X-40.19416 Y33.25489
G01 X-40.42382 Y33.26035
G01 X-40.69934 Y33.20180
G01 X-40.86167 Y33.12951
G01 X-41.05070 Y32.99893
G01 X-41.22491 Y32.81158
G01 X-41.34927 Y32.58799
G01 X-41.40419 Y32.41900
G01 X-41.43363 Y32.19114
G01 X-41.40419 Y31.91103
G01 X-41.32801 Y31.69429
G01 X-41.23916 Y31.54039
G01 X-41.07104 Y31.34755
G01 X-40.86167 Y31.20051
G01 X-40.67490 Y31.11885
G01 X-40.47582 Y31.07514
G01 X-40.19416 Y31.07514
G01 X-39.99507 Y31.11885
G01 X-39.80831 Y31.20051
G01 X-39.58044 Y31.36607
G01 X-39.44506 Y31.51844
G01 X-39.35888 Y31.66500
G01 X-39.07498 Y31.66500
G01 X-38.95365 Y31.68057
G01 X-38.81824 Y31.73665
G01 X-38.72144 Y31.81146
G01 X-34.56844 Y35.96446
G01 X-34.35360 Y35.92440
G01 X-34.18637 Y35.92440
G01 X-33.97156 Y35.96446
G01 X-30.84264 Y32.83553
G01 X-30.84264 Y18.04865
G01 X-30.82707 Y17.92731
G01 X-30.79407 Y17.83513
G01 X-30.69618 Y17.69510
G01 X-19.41254 Y6.41146
G01 X-19.31574 Y6.33665
G01 X-19.22724 Y6.29480
G01 X-19.05899 Y6.26500
G01 X-15.91110 Y6.26500
G01 X-15.82491 Y6.11844
G01 X-15.67104 Y5.94755
G01 X-15.50693 Y5.82665
G01 X-15.29934 Y5.72822
G01 X-15.02382 Y5.66968
G01 X-14.79416 Y5.67514
G01 X-14.59507 Y5.71885
G01 X-14.40831 Y5.80051
G01 X-14.19893 Y5.94755
G01 X-14.04506 Y6.11844
G01 X-13.92070 Y6.34204
G01 X-13.85494 Y6.56216
G01 X-13.83498 Y6.76500
G01 X-13.86579 Y7.01900
G01 X-13.93767 Y7.22723
G01 X-12.98144 Y8.18346
G01 X-12.88354 Y8.32349
G01 X-12.85055 Y8.41567
G01 X-12.83498 Y8.53701
G01 X-12.83498 Y12.61302
G01 X-12.85055 Y12.73436
G01 X-12.90663 Y12.86976
G01 X-12.98144 Y12.96656
G01 X-14.09210 Y14.07723
G01 X-14.09210 Y18.74080
G01 X-13.02787 Y19.80500
G01 X-10.68108 Y19.80500
G01 X-7.11754 Y16.24146
G01 X-7.02074 Y16.16666
G01 X-6.88533 Y16.11057
G01 X-6.76400 Y16.09500
G01 X-5.27698 Y16.09500
G01 X-5.15564 Y16.11057
G01 X-5.06347 Y16.14357
G01 X-4.92344 Y16.24146
G01 X-4.07495 Y17.09162
G01 X-3.97477 Y17.25878
G01 X-3.94498 Y17.42701
G04 P0 ( dwell for no time -- G64 should not smooth over this point )
G00 Z2.00000 ( retract )

G00 X-4.94566 Y18.18212 ( rapid move to begin. )
G01 F20.00000
G01 Z-0.13500
G04 P0 ( dwell for no time -- G64 should not smooth over this point )
G01 F40.00000
G01 X-4.94566 Y18.18212
G01 X-4.96494 Y18.39787
G01 X-5.03070 Y18.61799
G01 X-5.15506 Y18.84158
G01 X-5.30893 Y19.01247
G01 X-5.51831 Y19.15951
G01 X-5.73034 Y19.24796
G01 X-5.90416 Y19.28489
G01 X-6.13382 Y19.29035
G01 X-6.38422 Y19.24135
G01 X-10.17471 Y23.02336
G01 X-10.30397 Y23.09245
G01 X-10.44771 Y23.12103
G01 X-12.09510 Y23.12224
G01 X-18.02676 Y29.05391
G01 X-17.99885 Y29.15754
G01 X-17.97998 Y29.35002
G01 X-17.99885 Y29.54248
G01 X-18.06138 Y29.75266
G01 X-18.19700 Y29.98753
G01 X-18.32740 Y30.13031
G01 X-18.50500 Y30.25934
G01 X-18.70553 Y30.34862
G01 X-18.89438 Y30.39017
G01 X-19.11360 Y30.39564
G01 X-19.35445 Y30.34862
G01 X-19.55498 Y30.25934
G01 X-19.73258 Y30.13031
G01 X-19.87947 Y29.96719
G01 X-19.94868 Y29.85002
G01 X-25.34075 Y29.85002
G01 X-25.39640 Y30.02767
G01 X-25.50127 Y30.22025
G01 X-25.68273 Y30.42177
G01 X-25.83998 Y30.53435
G01 X-26.04051 Y30.62363
G01 X-26.22939 Y30.66516
G01 X-26.44862 Y30.67064
G01 X-26.68946 Y30.62363
G01 X-26.91194 Y30.52010
G01 X-27.08608 Y30.38682
G01 X-27.21445 Y30.24219
G01 X-27.31232 Y30.07539
G01 X-27.38527 Y29.86859
G01 X-27.41499 Y29.62500
G01 X-27.38527 Y29.38144
G01 X-27.31232 Y29.17463
G01 X-27.21445 Y29.00783
G01 X-27.08608 Y28.86320
G01 X-26.91194 Y28.72993
G01 X-26.68946 Y28.62640
G01 X-26.50059 Y28.58487
G01 X-26.28136 Y28.57938
G01 X-26.04051 Y28.62640
G01 X-25.83998 Y28.71568
G01 X-25.65855 Y28.85002
G01 X-19.94868 Y28.85002
G01 X-19.87947 Y28.73282
G01 X-19.73258 Y28.56971
G01 X-19.55498 Y28.44067
G01 X-19.37888 Y28.36079
G01 X-19.11360 Y28.30440
G01 X-18.94637 Y28.30440
G01 X-18.73156 Y28.34446
G01 X-12.59970 Y22.22110
G01 X-12.47046 Y22.15202
G01 X-12.32672 Y22.12344
G01 X-10.67931 Y22.12222
G01 X-7.08767 Y18.53058
G01 X-7.12503 Y18.39787
G01 X-7.14500 Y18.19500
G01 X-7.11419 Y17.94103
G01 X-7.03801 Y17.72429
G01 X-6.94916 Y17.57039
G01 X-6.76070 Y17.36109
G01 X-6.57167 Y17.23051
G01 X-6.40934 Y17.15822
G01 X-6.18582 Y17.10514
G01 X-5.90416 Y17.10514
G01 X-5.70507 Y17.14885
G01 X-5.51831 Y17.23051
G01 X-5.30893 Y17.37755
G01 X-5.14081 Y17.57039
G01 X-5.05196 Y17.72429
G01 X-4.97579 Y17.94103
G01 X-4.94566 Y18.18212
G04 P0 ( dwell for no time -- G64 should not smooth over this point )
G00 Z2.00000 ( retract )

G00 X-4.94498 Y22.42501 ( rapid move to begin. )
G01 F20.00000
G01 Z-0.13500
G04 P0 ( dwell for no time -- G64 should not smooth over this point )
G01 F40.00000
G01 X-4.94498 Y22.42501
G01 X-4.94498 Y24.12501
G01 X-4.96403 Y24.22069
G01 X-5.01820 Y24.30179
G01 X-5.09931 Y24.35597
G01 X-5.19499 Y24.37502
G01 X-6.89499 Y24.37502
G01 X-6.99067 Y24.35597
G01 X-7.07177 Y24.30179
G01 X-7.12595 Y24.22069
G01 X-7.14500 Y24.12501
G01 X-7.14500 Y22.42501
G01 X-7.12595 Y22.32933
G01 X-7.07177 Y22.24823
G01 X-6.99067 Y22.19405
G01 X-6.89499 Y22.17500
G01 X-5.19499 Y22.17500
G01 X-5.09931 Y22.19405
G01 X-5.01820 Y22.24823
G01 X-4.96403 Y22.32933
G01 X-4.94498 Y22.42501
G04 P0 ( dwell for no time -- G64 should not smooth over this point )
G00 Z2.00000 ( retract )

G00 X-10.07499 Y27.08500 ( rapid move to begin. )
G01 F20.00000
G01 Z-0.13500
G04 P0 ( dwell for no time -- G64 should not smooth over this point )
G01 F40.00000
G01 X-10.07499 Y27.08500
G01 X-10.09384 Y27.27748
G01 X-10.15640 Y27.48767
G01 X-10.27552 Y27.70219
G01 X-10.42241 Y27.86531
G01 X-10.59998 Y27.99435
G01 X-10.82579 Y28.09038
G01 X-11.04136 Y28.13064
G01 X-11.20862 Y28.13064
G01 X-11.42342 Y28.09056
G01 X-18.01127 Y34.67841
G01 X-18.08264 Y34.88041
G01 X-18.16626 Y35.02524
G01 X-18.32740 Y35.21031
G01 X-18.50500 Y35.33934
G01 X-18.70553 Y35.42862
G01 X-18.89438 Y35.47017
G01 X-19.11360 Y35.47564
G01 X-19.35445 Y35.42862
G01 X-19.55498 Y35.33934
G01 X-19.73258 Y35.21031
G01 X-19.86298 Y35.06753
G01 X-19.97733 Y34.88041
G01 X-20.05028 Y34.67361
G01 X-20.07863 Y34.40388
G01 X-20.05028 Y34.18643
G01 X-19.97733 Y33.97963
G01 X-19.87947 Y33.81282
G01 X-19.75107 Y33.66822
G01 X-19.53166 Y33.50881
G01 X-19.35445 Y33.43139
G01 X-19.11360 Y33.38440
G01 X-18.89438 Y33.38986
G01 X-18.70553 Y33.43139
G01 X-18.50500 Y33.52067
G01 X-18.36662 Y33.61953
G01 X-12.12820 Y27.38111
G01 X-12.15614 Y27.27748
G01 X-12.17499 Y27.08500
G01 X-12.14527 Y26.84144
G01 X-12.09358 Y26.68236
G01 X-11.98870 Y26.48978
G01 X-11.82756 Y26.30471
G01 X-11.62668 Y26.16382
G01 X-11.44946 Y26.08640
G01 X-11.26059 Y26.04487
G01 X-11.04136 Y26.03938
G01 X-10.77608 Y26.09577
G01 X-10.59998 Y26.17568
G01 X-10.44273 Y26.28825
G01 X-10.27552 Y26.46783
G01 X-10.17766 Y26.63463
G01 X-10.10471 Y26.84144
G01 X-10.07499 Y27.08500
G04 P0 ( dwell for no time -- G64 should not smooth over this point )
G00 Z2.00000 ( retract )

G00 X-6.26499 Y29.62500 ( rapid move to begin. )
G01 F20.00000
G01 Z-0.13500
G04 P0 ( dwell for no time -- G64 should not smooth over this point )
G01 F40.00000
G01 X-6.26499 Y29.62500
G01 X-6.29471 Y29.38144
G01 X-6.34640 Y29.22236
G01 X-6.45127 Y29.02978
G01 X-6.61241 Y28.84471
G01 X-6.81500 Y28.70306
G01 X-6.81498 Y27.18155
G01 X-6.83055 Y27.06018
G01 X-6.88663 Y26.92480
G01 X-6.96143 Y26.82798
G01 X-9.49889 Y24.29052
G01 X-9.63892 Y24.19263
G01 X-9.82795 Y24.14528
G01 X-11.85733 Y24.15008
G01 X-11.99757 Y24.19263
G01 X-12.13760 Y24.29052
G01 X-18.73154 Y30.88446
G01 X-18.94637 Y30.84440
G01 X-19.11360 Y30.84440
G01 X-19.32917 Y30.88464
G01 X-19.55498 Y30.98067
G01 X-19.73258 Y31.10971
G01 X-19.87947 Y31.27282
G01 X-19.99859 Y31.48738
G01 X-20.05028 Y31.64643
G01 X-20.07863 Y31.86388
G01 X-20.06113 Y32.08248
G01 X-19.99859 Y32.29266
G01 X-19.86298 Y32.52753
G01 X-19.73258 Y32.67031
G01 X-19.57693 Y32.78509
G01 X-19.35445 Y32.88862
G01 X-19.11360 Y32.93564
G01 X-18.89438 Y32.93017
G01 X-18.70553 Y32.88862
G01 X-18.52831 Y32.81123
G01 X-18.32740 Y32.67031
G01 X-18.16626 Y32.48524
G01 X-18.08264 Y32.34041
G01 X-18.00970 Y32.13361
G01 X-17.97998 Y31.89002
G01 X-17.99885 Y31.69754
G01 X-18.02676 Y31.59391
G01 X-11.57694 Y25.14408
G01 X-10.05955 Y25.14408
G01 X-7.81500 Y27.38863
G01 X-7.81500 Y28.70306
G01 X-8.01756 Y28.84471
G01 X-8.17870 Y29.02978
G01 X-8.28358 Y29.22236
G01 X-8.33527 Y29.38144
G01 X-8.36361 Y29.59889
G01 X-8.34614 Y29.81748
G01 X-8.28358 Y30.02767
G01 X-8.16445 Y30.24219
G01 X-8.01756 Y30.40531
G01 X-7.81668 Y30.54621
G01 X-7.63946 Y30.62363
G01 X-7.45059 Y30.66516
G01 X-7.23136 Y30.67064
G01 X-6.96608 Y30.61425
G01 X-6.78998 Y30.53435
G01 X-6.63273 Y30.42177
G01 X-6.46552 Y30.24219
G01 X-6.36766 Y30.07539
G01 X-6.29471 Y29.86859
G01 X-6.26499 Y29.62500
G04 P0 ( dwell for no time -- G64 should not smooth over this point )
G00 Z2.00000 ( retract )

G00 X-6.26499 Y39.78500 ( rapid move to begin. )
G01 F20.00000
G01 Z-0.13500
G04 P0 ( dwell for no time -- G64 should not smooth over this point )
G01 F40.00000
G01 X-6.26499 Y39.78500
G01 X-6.28384 Y39.97748
G01 X-6.34640 Y40.18767
G01 X-6.48198 Y40.42251
G01 X-6.61241 Y40.56531
G01 X-6.78998 Y40.69435
G01 X-6.99051 Y40.78363
G01 X-7.17939 Y40.82516
G01 X-7.45059 Y40.82516
G01 X-7.63946 Y40.78363
G01 X-7.83999 Y40.69435
G01 X-8.03608 Y40.54682
G01 X-8.16445 Y40.40219
G01 X-8.23369 Y40.28500
G01 X-11.36145 Y40.28500
G01 X-11.46462 Y40.46097
G01 X-11.60699 Y40.62112
G01 X-11.81999 Y40.78093
G01 X-12.06490 Y40.88551
G01 X-12.24892 Y40.92462
G01 X-12.48906 Y40.93008
G01 X-12.77478 Y40.86935
G01 X-12.96998 Y40.78093
G01 X-13.18298 Y40.62112
G01 X-13.32535 Y40.46097
G01 X-13.45494 Y40.22833
G01 X-13.52395 Y39.99826
G01 X-13.54498 Y39.78500
G01 X-13.52395 Y39.57177
G01 X-13.45494 Y39.34169
G01 X-13.32535 Y39.10906
G01 X-13.18298 Y38.94891
G01 X-12.96998 Y38.78909
G01 X-12.75035 Y38.69130
G01 X-12.54105 Y38.64540
G01 X-12.30092 Y38.63994
G01 X-12.03963 Y38.69130
G01 X-11.79805 Y38.80334
G01 X-11.60699 Y38.94891
G01 X-11.46462 Y39.10906
G01 X-11.36145 Y39.28500
G01 X-8.23369 Y39.28500
G01 X-8.16445 Y39.16783
G01 X-8.03608 Y39.02320
G01 X-7.83999 Y38.87568
G01 X-7.63946 Y38.78640
G01 X-7.45059 Y38.74487
G01 X-7.17939 Y38.74487
G01 X-6.99051 Y38.78640
G01 X-6.78998 Y38.87568
G01 X-6.61241 Y39.00471
G01 X-6.48198 Y39.14751
G01 X-6.34640 Y39.38236
G01 X-6.28384 Y39.59254
G01 X-6.26499 Y39.78500
G04 P0 ( dwell for no time -- G64 should not smooth over this point )
G00 Z2.00000 ( retract )

G00 X-11.24499 Y36.34500 ( rapid move to begin. )
G01 F20.00000
G01 Z-0.13500
G04 P0 ( dwell for no time -- G64 should not smooth over this point )
G01 F40.00000
G01 X-11.24499 Y36.34500
G01 X-11.26401 Y36.24935
G01 X-11.31822 Y36.16824
G01 X-11.39932 Y36.11404
G01 X-11.49498 Y36.09501
G01 X-13.29500 Y36.09501
G01 X-13.39065 Y36.11404
G01 X-13.47176 Y36.16824
G01 X-13.52596 Y36.24935
G01 X-13.54498 Y36.34500
G01 X-13.54498 Y38.14502
G01 X-13.52596 Y38.24068
G01 X-13.47176 Y38.32178
G01 X-13.39065 Y38.37599
G01 X-13.29500 Y38.39501
G01 X-11.49498 Y38.39501
G01 X-11.39932 Y38.37599
G01 X-11.31822 Y38.32178
G01 X-11.26401 Y38.24068
G01 X-11.24499 Y38.14502
G01 X-11.24499 Y36.34500
G04 P0 ( dwell for no time -- G64 should not smooth over this point )
G00 Z2.00000 ( retract )

G00 X-17.97998 Y36.97002 ( rapid move to begin. )
G01 F20.00000
G01 Z-0.13500
G04 P0 ( dwell for no time -- G64 should not smooth over this point )
G01 F40.00000
G01 X-17.97998 Y36.97002
G01 X-17.99885 Y36.77754
G01 X-18.06138 Y36.56738
G01 X-18.18051 Y36.35282
G01 X-18.30891 Y36.20822
G01 X-18.52831 Y36.04881
G01 X-18.70553 Y35.97139
G01 X-18.94637 Y35.92440
G01 X-19.16560 Y35.92986
G01 X-19.35445 Y35.97139
G01 X-19.55498 Y36.06067
G01 X-19.73258 Y36.18971
G01 X-19.87947 Y36.35282
G01 X-19.97733 Y36.51963
G01 X-20.05028 Y36.72643
G01 X-20.08000 Y36.97002
G01 X-20.06113 Y37.16248
G01 X-19.99859 Y37.37266
G01 X-19.87947 Y37.58719
G01 X-19.75107 Y37.73182
G01 X-19.53166 Y37.89123
G01 X-19.35445 Y37.96862
G01 X-19.11360 Y38.01564
G01 X-18.89438 Y38.01017
G01 X-18.70553 Y37.96862
G01 X-18.50500 Y37.87934
G01 X-18.32740 Y37.75031
G01 X-18.18051 Y37.58719
G01 X-18.08264 Y37.42041
G01 X-18.00970 Y37.21361
G01 X-17.97998 Y36.97002
G04 P0 ( dwell for no time -- G64 should not smooth over this point )
G00 Z2.00000 ( retract )

G00 X-17.97998 Y39.51002 ( rapid move to begin. )
G01 F20.00000
G01 Z-0.13500
G04 P0 ( dwell for no time -- G64 should not smooth over this point )
G01 F40.00000
G01 X-17.97998 Y39.51002
G01 X-17.99885 Y39.31754
G01 X-18.06138 Y39.10738
G01 X-18.18051 Y38.89282
G01 X-18.30891 Y38.74822
G01 X-18.52831 Y38.58881
G01 X-18.70553 Y38.51139
G01 X-18.94637 Y38.46440
G01 X-19.16560 Y38.46986
G01 X-19.35445 Y38.51139
G01 X-19.55498 Y38.60067
G01 X-19.73258 Y38.72971
G01 X-19.87947 Y38.89282
G01 X-19.97733 Y39.05963
G01 X-20.05028 Y39.26643
G01 X-20.08000 Y39.51002
G01 X-20.06113 Y39.70248
G01 X-19.99859 Y39.91266
G01 X-19.87947 Y40.12719
G01 X-19.75107 Y40.27182
G01 X-19.53166 Y40.43123
G01 X-19.35445 Y40.50862
G01 X-19.11360 Y40.55564
G01 X-18.89438 Y40.55017
G01 X-18.70553 Y40.50862
G01 X-18.50500 Y40.41934
G01 X-18.32740 Y40.29031
G01 X-18.18051 Y40.12719
G01 X-18.08264 Y39.96041
G01 X-18.00970 Y39.75361
G01 X-17.97998 Y39.51002
G04 P0 ( dwell for no time -- G64 should not smooth over this point )
G00 Z2.00000 ( retract )

G00 X-17.97998 Y42.05002 ( rapid move to begin. )
G01 F20.00000
G01 Z-0.13500
G04 P0 ( dwell for no time -- G64 should not smooth over this point )
G01 F40.00000
G01 X-17.97998 Y42.05002
G01 X-17.99885 Y41.85754
G01 X-18.06138 Y41.64738
G01 X-18.18051 Y41.43282
G01 X-18.30891 Y41.28822
G01 X-18.52831 Y41.12881
G01 X-18.70553 Y41.05139
G01 X-18.94637 Y41.00440
G01 X-19.16560 Y41.00986
G01 X-19.35445 Y41.05139
G01 X-19.55498 Y41.14067
G01 X-19.73258 Y41.26971
G01 X-19.87947 Y41.43282
G01 X-19.97733 Y41.59963
G01 X-20.05028 Y41.80643
G01 X-20.08000 Y42.05002
G01 X-20.06113 Y42.24248
G01 X-19.99859 Y42.45266
G01 X-19.87947 Y42.66719
G01 X-19.75107 Y42.81182
G01 X-19.53166 Y42.97123
G01 X-19.35445 Y43.04862
G01 X-19.11360 Y43.09564
G01 X-18.89438 Y43.09017
G01 X-18.70553 Y43.04862
G01 X-18.50500 Y42.95934
G01 X-18.32740 Y42.83031
G01 X-18.18051 Y42.66719
G01 X-18.08264 Y42.50041
G01 X-18.00970 Y42.29361
G01 X-17.97998 Y42.05002
G04 P0 ( dwell for no time -- G64 should not smooth over this point )
G00 Z2.00000 ( retract )

G00 X-17.97998 Y43.79002 ( rapid move to begin. )
G01 F20.00000
G01 Z-0.13500
G04 P0 ( dwell for no time -- G64 should not smooth over this point )
G01 F40.00000
G01 X-17.97998 Y43.79002
G01 X-17.97998 Y45.39002
G01 X-17.99903 Y45.48567
G01 X-18.05321 Y45.56678
G01 X-18.13431 Y45.62098
G01 X-18.22999 Y45.64000
G01 X-19.82999 Y45.64000
G01 X-19.92567 Y45.62098
G01 X-20.00677 Y45.56678
G01 X-20.06095 Y45.48567
G01 X-20.08000 Y45.39002
G01 X-20.08000 Y43.79002
G01 X-20.06095 Y43.69434
G01 X-20.00677 Y43.61324
G01 X-19.92567 Y43.55903
G01 X-19.82999 Y43.54001
G01 X-18.22999 Y43.54001
G01 X-18.13431 Y43.55903
G01 X-18.05321 Y43.61324
G01 X-17.99903 Y43.69434
G01 X-17.97998 Y43.79002
G04 P0 ( dwell for no time -- G64 should not smooth over this point )
G00 Z2.00000 ( retract )

G00 X-33.21998 Y44.59002 ( rapid move to begin. )
G01 F20.00000
G01 Z-0.13500
G04 P0 ( dwell for no time -- G64 should not smooth over this point )
G01 F40.00000
G01 X-33.21998 Y44.59002
G01 X-33.24970 Y44.83361
G01 X-33.32264 Y45.04041
G01 X-33.42051 Y45.20719
G01 X-33.56740 Y45.37031
G01 X-33.74500 Y45.49934
G01 X-33.94553 Y45.58862
G01 X-34.13438 Y45.63017
G01 X-34.35360 Y45.63564
G01 X-34.59445 Y45.58862
G01 X-34.77166 Y45.51123
G01 X-34.99107 Y45.35182
G01 X-35.11947 Y45.20719
G01 X-35.23859 Y44.99266
G01 X-35.30113 Y44.78248
G01 X-35.32000 Y44.59002
G01 X-35.29028 Y44.34643
G01 X-35.21733 Y44.13963
G01 X-35.11947 Y43.97282
G01 X-34.97258 Y43.80971
G01 X-34.79498 Y43.68067
G01 X-34.59445 Y43.59139
G01 X-34.40560 Y43.54986
G01 X-34.18637 Y43.54440
G01 X-33.94553 Y43.59139
G01 X-33.76831 Y43.66881
G01 X-33.54891 Y43.82822
G01 X-33.42051 Y43.97282
G01 X-33.30138 Y44.18738
G01 X-33.23885 Y44.39754
G01 X-33.21998 Y44.59002
G04 P0 ( dwell for no time -- G64 should not smooth over this point )
G00 Z2.00000 ( retract )

G00 X-33.21998 Y42.05002 ( rapid move to begin. )
G01 F20.00000
G01 Z-0.13500
G04 P0 ( dwell for no time -- G64 should not smooth over this point )
G01 F40.00000
G01 X-33.21998 Y42.05002
G01 X-33.24970 Y42.29361
G01 X-33.32264 Y42.50041
G01 X-33.42051 Y42.66719
G01 X-33.56740 Y42.83031
G01 X-33.74500 Y42.95934
G01 X-33.94553 Y43.04862
G01 X-34.13438 Y43.09017
G01 X-34.35360 Y43.09564
G01 X-34.59445 Y43.04862
G01 X-34.77166 Y42.97123
G01 X-34.99107 Y42.81182
G01 X-35.11947 Y42.66719
G01 X-35.23859 Y42.45266
G01 X-35.30113 Y42.24248
G01 X-35.32000 Y42.05002
G01 X-35.29028 Y41.80643
G01 X-35.21733 Y41.59963
G01 X-35.11947 Y41.43282
G01 X-34.97258 Y41.26971
G01 X-34.79498 Y41.14067
G01 X-34.59445 Y41.05139
G01 X-34.40560 Y41.00986
G01 X-34.18637 Y41.00440
G01 X-33.94553 Y41.05139
G01 X-33.76831 Y41.12881
G01 X-33.54891 Y41.28822
G01 X-33.42051 Y41.43282
G01 X-33.30138 Y41.64738
G01 X-33.23885 Y41.85754
G01 X-33.21998 Y42.05002
G04 P0 ( dwell for no time -- G64 should not smooth over this point )
G00 Z2.00000 ( retract )

G00 X-33.21998 Y39.51002 ( rapid move to begin. )
G01 F20.00000
G01 Z-0.13500
G04 P0 ( dwell for no time -- G64 should not smooth over this point )
G01 F40.00000
G01 X-33.21998 Y39.51002
G01 X-33.24970 Y39.75361
G01 X-33.32264 Y39.96041
G01 X-33.42051 Y40.12719
G01 X-33.56740 Y40.29031
G01 X-33.74500 Y40.41934
G01 X-33.94553 Y40.50862
G01 X-34.13438 Y40.55017
G01 X-34.35360 Y40.55564
G01 X-34.59445 Y40.50862
G01 X-34.77166 Y40.43123
G01 X-34.99107 Y40.27182
G01 X-35.11947 Y40.12719
G01 X-35.23859 Y39.91266
G01 X-35.30113 Y39.70248
G01 X-35.32000 Y39.51002
G01 X-35.29028 Y39.26643
G01 X-35.21733 Y39.05963
G01 X-35.11947 Y38.89282
G01 X-34.97258 Y38.72971
G01 X-34.79498 Y38.60067
G01 X-34.59445 Y38.51139
G01 X-34.40560 Y38.46986
G01 X-34.18637 Y38.46440
G01 X-33.94553 Y38.51139
G01 X-33.76831 Y38.58881
G01 X-33.54891 Y38.74822
G01 X-33.42051 Y38.89282
G01 X-33.30138 Y39.10738
G01 X-33.23885 Y39.31754
G01 X-33.21998 Y39.51002
G04 P0 ( dwell for no time -- G64 should not smooth over this point )
G00 Z2.00000 ( retract )

G00 X-39.23498 Y33.85501 ( rapid move to begin. )
G01 F20.00000
G01 Z-0.13500
G04 P0 ( dwell for no time -- G64 should not smooth over this point )
G01 F40.00000
G01 X-39.23498 Y33.85501
G01 X-39.23498 Y35.55501
G01 X-39.25403 Y35.65069
G01 X-39.30821 Y35.73179
G01 X-39.38931 Y35.78597
G01 X-39.48499 Y35.80502
G01 X-41.18499 Y35.80502
G01 X-41.28067 Y35.78597
G01 X-41.36177 Y35.73179
G01 X-41.41595 Y35.65069
G01 X-41.43500 Y35.55501
G01 X-41.43500 Y33.85501
G01 X-41.41595 Y33.75933
G01 X-41.36177 Y33.67823
G01 X-41.28067 Y33.62405
G01 X-41.18499 Y33.60500
G01 X-39.48499 Y33.60500
G01 X-39.38931 Y33.62405
G01 X-39.30821 Y33.67823
G01 X-39.25403 Y33.75933
G01 X-39.23498 Y33.85501
G04 P0 ( dwell for no time -- G64 should not smooth over this point )
G00 Z2.00000 ( retract )

G00 X-33.21998 Y34.43002 ( rapid move to begin. )
G01 F20.00000
G01 Z-0.13500
G04 P0 ( dwell for no time -- G64 should not smooth over this point )
G01 F40.00000
G01 X-33.21998 Y34.43002
G01 X-33.24970 Y34.67361
G01 X-33.32264 Y34.88041
G01 X-33.42051 Y35.04719
G01 X-33.56740 Y35.21031
G01 X-33.74500 Y35.33934
G01 X-33.94553 Y35.42862
G01 X-34.13438 Y35.47017
G01 X-34.35360 Y35.47564
G01 X-34.59445 Y35.42862
G01 X-34.77166 Y35.35123
G01 X-34.99107 Y35.19182
G01 X-35.11947 Y35.04719
G01 X-35.23859 Y34.83266
G01 X-35.30113 Y34.62248
G01 X-35.32000 Y34.43002
G01 X-35.29028 Y34.18643
G01 X-35.21733 Y33.97963
G01 X-35.11947 Y33.81282
G01 X-34.97258 Y33.64971
G01 X-34.79498 Y33.52067
G01 X-34.59445 Y33.43139
G01 X-34.40560 Y33.38986
G01 X-34.18637 Y33.38440
G01 X-33.94553 Y33.43139
G01 X-33.76831 Y33.50881
G01 X-33.54891 Y33.66822
G01 X-33.42051 Y33.81282
G01 X-33.30138 Y34.02738
G01 X-33.23885 Y34.23754
G01 X-33.21998 Y34.43002
G04 P0 ( dwell for no time -- G64 should not smooth over this point )
G00 Z2.00000 ( retract )

G00 X-33.21998 Y31.89002 ( rapid move to begin. )
G01 F20.00000
G01 Z-0.13500
G04 P0 ( dwell for no time -- G64 should not smooth over this point )
G01 F40.00000
G01 X-33.21998 Y31.89002
G01 X-33.24970 Y32.13361
G01 X-33.32264 Y32.34041
G01 X-33.42051 Y32.50719
G01 X-33.56740 Y32.67031
G01 X-33.74500 Y32.79934
G01 X-33.94553 Y32.88862
G01 X-34.13438 Y32.93017
G01 X-34.35360 Y32.93564
G01 X-34.59445 Y32.88862
G01 X-34.77166 Y32.81123
G01 X-34.99107 Y32.65182
G01 X-35.11947 Y32.50719
G01 X-35.23859 Y32.29266
G01 X-35.30113 Y32.08248
G01 X-35.32000 Y31.89002
G01 X-35.29028 Y31.64643
G01 X-35.21733 Y31.43963
G01 X-35.11947 Y31.27282
G01 X-34.97258 Y31.10971
G01 X-34.79498 Y30.98067
G01 X-34.59445 Y30.89139
G01 X-34.40560 Y30.84986
G01 X-34.18637 Y30.84440
G01 X-33.94553 Y30.89139
G01 X-33.76831 Y30.96881
G01 X-33.54891 Y31.12822
G01 X-33.42051 Y31.27282
G01 X-33.30138 Y31.48738
G01 X-33.23885 Y31.69754
G01 X-33.21998 Y31.89002
G04 P0 ( dwell for no time -- G64 should not smooth over this point )
G00 Z2.00000 ( retract )

G00 X-33.21998 Y29.35002 ( rapid move to begin. )
G01 F20.00000
G01 Z-0.13500
G04 P0 ( dwell for no time -- G64 should not smooth over this point )
G01 F40.00000
G01 X-33.21998 Y29.35002
G01 X-33.23885 Y29.54248
G01 X-33.30138 Y29.75266
G01 X-33.43699 Y29.98753
G01 X-33.56740 Y30.13031
G01 X-33.74500 Y30.25934
G01 X-33.94553 Y30.34862
G01 X-34.13438 Y30.39017
G01 X-34.35360 Y30.39564
G01 X-34.59445 Y30.34862
G01 X-34.79498 Y30.25934
G01 X-34.97641 Y30.12500
G01 X-39.35888 Y30.12502
G01 X-39.44506 Y30.27158
G01 X-39.58044 Y30.42396
G01 X-39.76304 Y30.56338
G01 X-39.99507 Y30.67118
G01 X-40.24615 Y30.72035
G01 X-40.47582 Y30.71489
G01 X-40.67490 Y30.67118
G01 X-40.86167 Y30.58951
G01 X-41.07104 Y30.44247
G01 X-41.22491 Y30.27158
G01 X-41.32801 Y30.09574
G01 X-41.40419 Y29.87900
G01 X-41.43500 Y29.62500
G01 X-41.41503 Y29.42216
G01 X-41.34927 Y29.20204
G01 X-41.20843 Y28.95812
G01 X-41.07104 Y28.80755
G01 X-40.86167 Y28.66051
G01 X-40.67490 Y28.57885
G01 X-40.47582 Y28.53514
G01 X-40.19416 Y28.53514
G01 X-39.99507 Y28.57885
G01 X-39.80831 Y28.66051
G01 X-39.58044 Y28.82607
G01 X-39.44506 Y28.97844
G01 X-39.35888 Y29.12500
G01 X-35.29422 Y29.12503
G01 X-35.23859 Y28.94738
G01 X-35.13371 Y28.75480
G01 X-34.97258 Y28.56971
G01 X-34.79498 Y28.44067
G01 X-34.61888 Y28.36079
G01 X-34.35360 Y28.30440
G01 X-34.13438 Y28.30986
G01 X-33.94553 Y28.35139
G01 X-33.74500 Y28.44067
G01 X-33.56740 Y28.56971
G01 X-33.42051 Y28.73282
G01 X-33.32264 Y28.89963
G01 X-33.24970 Y29.10643
G01 X-33.21998 Y29.35002
G04 P0 ( dwell for no time -- G64 should not smooth over this point )
G00 Z2.00000 ( retract )

G00 X-33.21998 Y26.81002 ( rapid move to begin. )
G01 F20.00000
G01 Z-0.13500
G04 P0 ( dwell for no time -- G64 should not smooth over this point )
G01 F40.00000
G01 X-33.21998 Y26.81002
G01 X-33.23885 Y27.00248
G01 X-33.30138 Y27.21266
G01 X-33.43699 Y27.44753
G01 X-33.56740 Y27.59031
G01 X-33.74500 Y27.71934
G01 X-33.94553 Y27.80862
G01 X-34.13438 Y27.85017
G01 X-34.40560 Y27.85017
G01 X-34.59445 Y27.80862
G01 X-34.79498 Y27.71934
G01 X-34.99107 Y27.57182
G01 X-35.11947 Y27.42719
G01 X-35.18868 Y27.31002
G01 X-39.25964 Y27.31002
G01 X-39.34196 Y27.55574
G01 X-39.44506 Y27.73158
G01 X-39.59893 Y27.90247
G01 X-39.76304 Y28.02338
G01 X-39.97064 Y28.12180
G01 X-40.24615 Y28.18035
G01 X-40.47582 Y28.17489
G01 X-40.67490 Y28.13118
G01 X-40.86167 Y28.04951
G01 X-41.07104 Y27.90247
G01 X-41.22491 Y27.73158
G01 X-41.32801 Y27.55574
G01 X-41.40419 Y27.33900
G01 X-41.43500 Y27.08500
G01 X-41.41503 Y26.88216
G01 X-41.34927 Y26.66204
G01 X-41.20843 Y26.41812
G01 X-41.07104 Y26.26755
G01 X-40.86167 Y26.12051
G01 X-40.67490 Y26.03885
G01 X-40.47582 Y25.99514
G01 X-40.24615 Y25.98968
G01 X-39.99507 Y26.03885
G01 X-39.76304 Y26.14665
G01 X-39.55888 Y26.31002
G01 X-35.18868 Y26.31002
G01 X-35.11947 Y26.19282
G01 X-34.99107 Y26.04822
G01 X-34.81693 Y25.91495
G01 X-34.59445 Y25.81139
G01 X-34.35360 Y25.76440
G01 X-34.13438 Y25.76986
G01 X-33.94553 Y25.81139
G01 X-33.74500 Y25.90067
G01 X-33.56740 Y26.02971
G01 X-33.42051 Y26.19282
G01 X-33.32264 Y26.35963
G01 X-33.24970 Y26.56643
G01 X-33.21998 Y26.81002
G04 P0 ( dwell for no time -- G64 should not smooth over this point )
G00 Z2.00000 ( retract )

G00 X-33.21998 Y24.27002 ( rapid move to begin. )
G01 F20.00000
G01 Z-0.13500
G04 P0 ( dwell for no time -- G64 should not smooth over this point )
G01 F40.00000
G01 X-33.21998 Y24.27002
G01 X-33.23885 Y24.07754
G01 X-33.30138 Y23.86738
G01 X-33.42051 Y23.65282
G01 X-33.54891 Y23.50822
G01 X-33.76831 Y23.34881
G01 X-33.94553 Y23.27139
G01 X-34.18637 Y23.22440
G01 X-34.40560 Y23.22986
G01 X-34.59445 Y23.27139
G01 X-34.79498 Y23.36067
G01 X-34.97258 Y23.48971
G01 X-35.11947 Y23.65282
G01 X-35.21733 Y23.81963
G01 X-35.29028 Y24.02643
G01 X-35.32000 Y24.27002
G01 X-35.30113 Y24.46248
G01 X-35.23859 Y24.67266
G01 X-35.11947 Y24.88719
G01 X-34.99107 Y25.03182
G01 X-34.77166 Y25.19123
G01 X-34.59445 Y25.26862
G01 X-34.35360 Y25.31564
G01 X-34.13438 Y25.31017
G01 X-33.94553 Y25.26862
G01 X-33.74500 Y25.17934
G01 X-33.56740 Y25.05031
G01 X-33.42051 Y24.88719
G01 X-33.32264 Y24.72041
G01 X-33.24970 Y24.51361
G01 X-33.21998 Y24.27002
G04 P0 ( dwell for no time -- G64 should not smooth over this point )
G00 Z2.00000 ( retract )

G00 X-33.21998 Y21.73002 ( rapid move to begin. )
G01 F20.00000
G01 Z-0.13500
G04 P0 ( dwell for no time -- G64 should not smooth over this point )
G01 F40.00000
G01 X-33.21998 Y21.73002
G01 X-33.23885 Y21.53754
G01 X-33.30138 Y21.32738
G01 X-33.42051 Y21.11282
G01 X-33.54891 Y20.96822
G01 X-33.76831 Y20.80881
G01 X-33.94553 Y20.73139
G01 X-34.18637 Y20.68440
G01 X-34.40560 Y20.68986
G01 X-34.59445 Y20.73139
G01 X-34.79498 Y20.82067
G01 X-34.97258 Y20.94971
G01 X-35.11947 Y21.11282
G01 X-35.21733 Y21.27963
G01 X-35.29028 Y21.48643
G01 X-35.32000 Y21.73002
G01 X-35.30113 Y21.92248
G01 X-35.23859 Y22.13266
G01 X-35.11947 Y22.34719
G01 X-34.99107 Y22.49182
G01 X-34.77166 Y22.65123
G01 X-34.59445 Y22.72862
G01 X-34.35360 Y22.77564
G01 X-34.13438 Y22.77017
G01 X-33.94553 Y22.72862
G01 X-33.74500 Y22.63934
G01 X-33.56740 Y22.51031
G01 X-33.42051 Y22.34719
G01 X-33.32264 Y22.18041
G01 X-33.24970 Y21.97361
G01 X-33.21998 Y21.73002
G04 P0 ( dwell for no time -- G64 should not smooth over this point )
G00 Z2.00000 ( retract )

G00 X-33.21998 Y19.19002 ( rapid move to begin. )
G01 F20.00000
G01 Z-0.13500
G04 P0 ( dwell for no time -- G64 should not smooth over this point )
G01 F40.00000
G01 X-33.21998 Y19.19002
G01 X-33.23885 Y18.99754
G01 X-33.30138 Y18.78738
G01 X-33.42051 Y18.57282
G01 X-33.54891 Y18.42822
G01 X-33.76831 Y18.26881
G01 X-33.94553 Y18.19139
G01 X-34.18637 Y18.14440
G01 X-34.40560 Y18.14986
G01 X-34.59445 Y18.19139
G01 X-34.79498 Y18.28067
G01 X-34.97258 Y18.40971
G01 X-35.11947 Y18.57282
G01 X-35.21733 Y18.73963
G01 X-35.29028 Y18.94643
G01 X-35.32000 Y19.19002
G01 X-35.30113 Y19.38248
G01 X-35.23859 Y19.59266
G01 X-35.11947 Y19.80719
G01 X-34.99107 Y19.95182
G01 X-34.77166 Y20.11123
G01 X-34.59445 Y20.18862
G01 X-34.35360 Y20.23564
G01 X-34.13438 Y20.23017
G01 X-33.94553 Y20.18862
G01 X-33.74500 Y20.09934
G01 X-33.56740 Y19.97031
G01 X-33.42051 Y19.80719
G01 X-33.32264 Y19.64041
G01 X-33.24970 Y19.43361
G01 X-33.21998 Y19.19002
G04 P0 ( dwell for no time -- G64 should not smooth over this point )
G00 Z2.00000 ( retract )

G00 X-33.21998 Y14.11002 ( rapid move to begin. )
G01 F20.00000
G01 Z-0.13500
G04 P0 ( dwell for no time -- G64 should not smooth over this point )
G01 F40.00000
G01 X-33.21998 Y14.11002
G01 X-33.23885 Y13.91754
G01 X-33.30138 Y13.70738
G01 X-33.42051 Y13.49282
G01 X-33.54891 Y13.34822
G01 X-33.76831 Y13.18881
G01 X-33.94553 Y13.11139
G01 X-34.18637 Y13.06440
G01 X-34.40560 Y13.06986
G01 X-34.59445 Y13.11139
G01 X-34.79498 Y13.20067
G01 X-34.97258 Y13.32971
G01 X-35.11947 Y13.49282
G01 X-35.21733 Y13.65963
G01 X-35.29028 Y13.86643
G01 X-35.32000 Y14.11002
G01 X-35.30113 Y14.30248
G01 X-35.23859 Y14.51266
G01 X-35.11947 Y14.72719
G01 X-34.99107 Y14.87182
G01 X-34.77166 Y15.03123
G01 X-34.59445 Y15.10862
G01 X-34.35360 Y15.15564
G01 X-34.13438 Y15.15017
G01 X-33.94553 Y15.10862
G01 X-33.74500 Y15.01934
G01 X-33.56740 Y14.89031
G01 X-33.42051 Y14.72719
G01 X-33.32264 Y14.56041
G01 X-33.24970 Y14.35361
G01 X-33.21998 Y14.11002
G04 P0 ( dwell for no time -- G64 should not smooth over this point )
G00 Z2.00000 ( retract )

G00 X-33.21998 Y11.57002 ( rapid move to begin. )
G01 F20.00000
G01 Z-0.13500
G04 P0 ( dwell for no time -- G64 should not smooth over this point )
G01 F40.00000
G01 X-33.21998 Y11.57002
G01 X-33.23885 Y11.76248
G01 X-33.30138 Y11.97266
G01 X-33.43699 Y12.20753
G01 X-33.56740 Y12.35031
G01 X-33.74500 Y12.47934
G01 X-33.94553 Y12.56862
G01 X-34.13438 Y12.61017
G01 X-34.40560 Y12.61017
G01 X-34.59445 Y12.56862
G01 X-34.79498 Y12.47934
G01 X-34.99107 Y12.33182
G01 X-35.11947 Y12.18719
G01 X-35.18868 Y12.07002
G01 X-39.31074 Y12.07002
G01 X-39.36640 Y12.24767
G01 X-39.47127 Y12.44025
G01 X-39.63241 Y12.62531
G01 X-39.80998 Y12.75435
G01 X-39.98608 Y12.83425
G01 X-40.25136 Y12.89064
G01 X-40.47059 Y12.88516
G01 X-40.65946 Y12.84363
G01 X-40.85999 Y12.75435
G01 X-41.03756 Y12.62531
G01 X-41.18445 Y12.46219
G01 X-41.30358 Y12.24767
G01 X-41.36614 Y12.03748
G01 X-41.38499 Y11.84500
G01 X-41.36614 Y11.65254
G01 X-41.30358 Y11.44236
G01 X-41.16799 Y11.20751
G01 X-41.03756 Y11.06471
G01 X-40.85999 Y10.93568
G01 X-40.65946 Y10.84640
G01 X-40.47059 Y10.80487
G01 X-40.25136 Y10.79938
G01 X-40.01051 Y10.84640
G01 X-39.80998 Y10.93568
G01 X-39.62855 Y11.07002
G01 X-35.18868 Y11.07002
G01 X-35.11947 Y10.95282
G01 X-34.99107 Y10.80822
G01 X-34.81693 Y10.67495
G01 X-34.59445 Y10.57139
G01 X-34.35360 Y10.52440
G01 X-34.13438 Y10.52986
G01 X-33.94553 Y10.57139
G01 X-33.74500 Y10.66067
G01 X-33.56740 Y10.78971
G01 X-33.42051 Y10.95282
G01 X-33.32264 Y11.11963
G01 X-33.24970 Y11.32643
G01 X-33.21998 Y11.57002
G04 P0 ( dwell for no time -- G64 should not smooth over this point )
G00 Z2.00000 ( retract )

G00 X-33.21998 Y9.03002 ( rapid move to begin. )
G01 F20.00000
G01 Z-0.13500
G04 P0 ( dwell for no time -- G64 should not smooth over this point )
G01 F40.00000
G01 X-33.21998 Y9.03002
G01 X-33.23885 Y8.83754
G01 X-33.30138 Y8.62738
G01 X-33.42051 Y8.41282
G01 X-33.54891 Y8.26822
G01 X-33.76831 Y8.10881
G01 X-33.94553 Y8.03139
G01 X-34.18637 Y7.98440
G01 X-34.40560 Y7.98986
G01 X-34.59445 Y8.03139
G01 X-34.79498 Y8.12067
G01 X-34.97258 Y8.24971
G01 X-35.11947 Y8.41282
G01 X-35.21733 Y8.57963
G01 X-35.29028 Y8.78643
G01 X-35.32000 Y9.03002
G01 X-35.30113 Y9.22248
G01 X-35.23859 Y9.43266
G01 X-35.11947 Y9.64719
G01 X-34.99107 Y9.79182
G01 X-34.77166 Y9.95123
G01 X-34.59445 Y10.02862
G01 X-34.35360 Y10.07564
G01 X-34.13438 Y10.07017
G01 X-33.94553 Y10.02862
G01 X-33.74500 Y9.93934
G01 X-33.56740 Y9.81031
G01 X-33.42051 Y9.64719
G01 X-33.32264 Y9.48041
G01 X-33.24970 Y9.27361
G01 X-33.21998 Y9.03002
G04 P0 ( dwell for no time -- G64 should not smooth over this point )
G00 Z2.00000 ( retract )

G00 X-17.97998 Y26.81002 ( rapid move to begin. )
G01 F20.00000
G01 Z-0.13500
G04 P0 ( dwell for no time -- G64 should not smooth over this point )
G01 F40.00000
G01 X-17.97998 Y26.81002
G01 X-18.00970 Y27.05361
G01 X-18.08264 Y27.26041
G01 X-18.18051 Y27.42719
G01 X-18.32740 Y27.59031
G01 X-18.50500 Y27.71934
G01 X-18.70553 Y27.80862
G01 X-18.89438 Y27.85017
G01 X-19.11360 Y27.85564
G01 X-19.35445 Y27.80862
G01 X-19.53166 Y27.73123
G01 X-19.75107 Y27.57182
G01 X-19.87947 Y27.42719
G01 X-19.99859 Y27.21266
G01 X-20.06113 Y27.00248
G01 X-20.08000 Y26.81002
G01 X-20.05028 Y26.56643
G01 X-19.97733 Y26.35963
G01 X-19.87947 Y26.19282
G01 X-19.73258 Y26.02971
G01 X-19.55498 Y25.90067
G01 X-19.35445 Y25.81139
G01 X-19.16560 Y25.76986
G01 X-18.94637 Y25.76440
G01 X-18.70553 Y25.81139
G01 X-18.52831 Y25.88881
G01 X-18.30891 Y26.04822
G01 X-18.18051 Y26.19282
G01 X-18.06138 Y26.40738
G01 X-17.99885 Y26.61754
G01 X-17.97998 Y26.81002
G04 P0 ( dwell for no time -- G64 should not smooth over this point )
G00 Z2.00000 ( retract )

G00 X-17.97998 Y24.27002 ( rapid move to begin. )
G01 F20.00000
G01 Z-0.13500
G04 P0 ( dwell for no time -- G64 should not smooth over this point )
G01 F40.00000
G01 X-17.97998 Y24.27002
G01 X-18.00970 Y24.51361
G01 X-18.08264 Y24.72041
G01 X-18.18051 Y24.88719
G01 X-18.32740 Y25.05031
G01 X-18.50500 Y25.17934
G01 X-18.70553 Y25.26862
G01 X-18.89438 Y25.31017
G01 X-19.11360 Y25.31564
G01 X-19.35445 Y25.26862
G01 X-19.53166 Y25.19123
G01 X-19.75107 Y25.03182
G01 X-19.87947 Y24.88719
G01 X-19.99859 Y24.67266
G01 X-20.06113 Y24.46248
G01 X-20.08000 Y24.27002
G01 X-20.05028 Y24.02643
G01 X-19.97733 Y23.81963
G01 X-19.87947 Y23.65282
G01 X-19.73258 Y23.48971
G01 X-19.55498 Y23.36067
G01 X-19.35445 Y23.27139
G01 X-19.16560 Y23.22986
G01 X-18.94637 Y23.22440
G01 X-18.70553 Y23.27139
G01 X-18.52831 Y23.34881
G01 X-18.30891 Y23.50822
G01 X-18.18051 Y23.65282
G01 X-18.06138 Y23.86738
G01 X-17.99885 Y24.07754
G01 X-17.97998 Y24.27002
G04 P0 ( dwell for no time -- G64 should not smooth over this point )
G00 Z2.00000 ( retract )

G00 X-17.97998 Y21.73002 ( rapid move to begin. )
G01 F20.00000
G01 Z-0.13500
G04 P0 ( dwell for no time -- G64 should not smooth over this point )
G01 F40.00000
G01 X-17.97998 Y21.73002
G01 X-18.00970 Y21.97361
G01 X-18.08264 Y22.18041
G01 X-18.18051 Y22.34719
G01 X-18.32740 Y22.51031
G01 X-18.50500 Y22.63934
G01 X-18.70553 Y22.72862
G01 X-18.89438 Y22.77017
G01 X-19.11360 Y22.77564
G01 X-19.35445 Y22.72862
G01 X-19.53166 Y22.65123
G01 X-19.75107 Y22.49182
G01 X-19.87947 Y22.34719
G01 X-19.99859 Y22.13266
G01 X-20.06113 Y21.92248
G01 X-20.08000 Y21.73002
G01 X-20.05028 Y21.48643
G01 X-19.97733 Y21.27963
G01 X-19.87947 Y21.11282
G01 X-19.73258 Y20.94971
G01 X-19.55498 Y20.82067
G01 X-19.35445 Y20.73139
G01 X-19.16560 Y20.68986
G01 X-18.94637 Y20.68440
G01 X-18.70553 Y20.73139
G01 X-18.52831 Y20.80881
G01 X-18.30891 Y20.96822
G01 X-18.18051 Y21.11282
G01 X-18.06138 Y21.32738
G01 X-17.99885 Y21.53754
G01 X-17.97998 Y21.73002
G04 P0 ( dwell for no time -- G64 should not smooth over this point )
G00 Z2.00000 ( retract )

G00 X-17.97998 Y19.19002 ( rapid move to begin. )
G01 F20.00000
G01 Z-0.13500
G04 P0 ( dwell for no time -- G64 should not smooth over this point )
G01 F40.00000
G01 X-17.97998 Y19.19002
G01 X-18.00970 Y19.43361
G01 X-18.08264 Y19.64041
G01 X-18.18051 Y19.80719
G01 X-18.32740 Y19.97031
G01 X-18.50500 Y20.09934
G01 X-18.70553 Y20.18862
G01 X-18.89438 Y20.23017
G01 X-19.11360 Y20.23564
G01 X-19.35445 Y20.18862
G01 X-19.53166 Y20.11123
G01 X-19.75107 Y19.95182
G01 X-19.87947 Y19.80719
G01 X-19.99859 Y19.59266
G01 X-20.06113 Y19.38248
G01 X-20.08000 Y19.19002
G01 X-20.05028 Y18.94643
G01 X-19.97733 Y18.73963
G01 X-19.87947 Y18.57282
G01 X-19.73258 Y18.40971
G01 X-19.55498 Y18.28067
G01 X-19.35445 Y18.19139
G01 X-19.16560 Y18.14986
G01 X-18.94637 Y18.14440
G01 X-18.70553 Y18.19139
G01 X-18.52831 Y18.26881
G01 X-18.30891 Y18.42822
G01 X-18.18051 Y18.57282
G01 X-18.06138 Y18.78738
G01 X-17.99885 Y18.99754
G01 X-17.97998 Y19.19002
G04 P0 ( dwell for no time -- G64 should not smooth over this point )
G00 Z2.00000 ( retract )

G00 X-17.97998 Y16.65002 ( rapid move to begin. )
G01 F20.00000
G01 Z-0.13500
G04 P0 ( dwell for no time -- G64 should not smooth over this point )
G01 F40.00000
G01 X-17.97998 Y16.65002
G01 X-18.00970 Y16.89361
G01 X-18.08264 Y17.10041
G01 X-18.18051 Y17.26719
G01 X-18.32740 Y17.43031
G01 X-18.50500 Y17.55934
G01 X-18.70553 Y17.64862
G01 X-18.89438 Y17.69017
G01 X-19.11360 Y17.69564
G01 X-19.35445 Y17.64862
G01 X-19.53166 Y17.57123
G01 X-19.75107 Y17.41182
G01 X-19.87947 Y17.26719
G01 X-19.99859 Y17.05266
G01 X-20.06113 Y16.84248
G01 X-20.08000 Y16.65002
G01 X-20.05028 Y16.40643
G01 X-19.97733 Y16.19963
G01 X-19.87947 Y16.03282
G01 X-19.73258 Y15.86971
G01 X-19.55498 Y15.74067
G01 X-19.35445 Y15.65139
G01 X-19.16560 Y15.60986
G01 X-18.94637 Y15.60440
G01 X-18.70553 Y15.65139
G01 X-18.52831 Y15.72881
G01 X-18.30891 Y15.88822
G01 X-18.18051 Y16.03282
G01 X-18.06138 Y16.24738
G01 X-17.99885 Y16.45754
G01 X-17.97998 Y16.65002
G04 P0 ( dwell for no time -- G64 should not smooth over this point )
G00 Z2.00000 ( retract )

G00 X-17.97998 Y14.11002 ( rapid move to begin. )
G01 F20.00000
G01 Z-0.13500
G04 P0 ( dwell for no time -- G64 should not smooth over this point )
G01 F40.00000
G01 X-17.97998 Y14.11002
G01 X-18.00970 Y14.35361
G01 X-18.08264 Y14.56041
G01 X-18.18051 Y14.72719
G01 X-18.32740 Y14.89031
G01 X-18.50500 Y15.01934
G01 X-18.70553 Y15.10862
G01 X-18.89438 Y15.15017
G01 X-19.11360 Y15.15564
G01 X-19.35445 Y15.10862
G01 X-19.53166 Y15.03123
G01 X-19.75107 Y14.87182
G01 X-19.87947 Y14.72719
G01 X-19.99859 Y14.51266
G01 X-20.06113 Y14.30248
G01 X-20.08000 Y14.11002
G01 X-20.05028 Y13.86643
G01 X-19.97733 Y13.65963
G01 X-19.87947 Y13.49282
G01 X-19.73258 Y13.32971
G01 X-19.55498 Y13.20067
G01 X-19.35445 Y13.11139
G01 X-19.16560 Y13.06986
G01 X-18.94637 Y13.06440
G01 X-18.70553 Y13.11139
G01 X-18.52831 Y13.18881
G01 X-18.30891 Y13.34822
G01 X-18.18051 Y13.49282
G01 X-18.06138 Y13.70738
G01 X-17.99885 Y13.91754
G01 X-17.97998 Y14.11002
G04 P0 ( dwell for no time -- G64 should not smooth over this point )
G00 Z2.00000 ( retract )

G00 X-13.83566 Y11.83212 ( rapid move to begin. )
G01 F20.00000
G01 Z-0.13500
G04 P0 ( dwell for no time -- G64 should not smooth over this point )
G01 F40.00000
G01 X-13.83566 Y11.83212
G01 X-13.85494 Y11.64216
G01 X-13.92070 Y11.42204
G01 X-14.04506 Y11.19844
G01 X-14.19893 Y11.02755
G01 X-14.36304 Y10.90665
G01 X-14.62034 Y10.79207
G01 X-14.79416 Y10.75514
G01 X-15.02382 Y10.74968
G01 X-15.29934 Y10.80822
G01 X-15.50693 Y10.90665
G01 X-15.67104 Y11.02755
G01 X-15.82491 Y11.19844
G01 X-15.91110 Y11.34500
G01 X-18.00576 Y11.34500
G01 X-18.06138 Y11.16738
G01 X-18.16626 Y10.97480
G01 X-18.32740 Y10.78971
G01 X-18.50500 Y10.66067
G01 X-18.68109 Y10.58079
G01 X-18.94637 Y10.52440
G01 X-19.16560 Y10.52986
G01 X-19.35445 Y10.57139
G01 X-19.55498 Y10.66067
G01 X-19.73258 Y10.78971
G01 X-19.87947 Y10.95282
G01 X-19.97733 Y11.11963
G01 X-20.05028 Y11.32643
G01 X-20.08000 Y11.57002
G01 X-20.05028 Y11.81361
G01 X-19.97733 Y12.02041
G01 X-19.87947 Y12.18719
G01 X-19.71223 Y12.36679
G01 X-19.55498 Y12.47934
G01 X-19.35445 Y12.56862
G01 X-19.11360 Y12.61564
G01 X-18.89438 Y12.61017
G01 X-18.73080 Y12.57540
G01 X-18.50500 Y12.47934
G01 X-18.32209 Y12.34502
G01 X-15.91110 Y12.34502
G01 X-15.82491 Y12.49158
G01 X-15.68953 Y12.64396
G01 X-15.50693 Y12.78338
G01 X-15.27490 Y12.89118
G01 X-15.02382 Y12.94035
G01 X-14.79416 Y12.93489
G01 X-14.59507 Y12.89118
G01 X-14.40831 Y12.80951
G01 X-14.19893 Y12.66247
G01 X-14.04506 Y12.49158
G01 X-13.92070 Y12.26799
G01 X-13.85494 Y12.04787
G01 X-13.83566 Y11.83212
G04 P0 ( dwell for no time -- G64 should not smooth over this point )
G00 Z2.00000 ( retract )

G00 X-13.83566 Y9.29212 ( rapid move to begin. )
G01 F20.00000
G01 Z-0.13500
G04 P0 ( dwell for no time -- G64 should not smooth over this point )
G01 F40.00000
G01 X-13.83566 Y9.29212
G01 X-13.85494 Y9.10216
G01 X-13.92070 Y8.88204
G01 X-14.04506 Y8.65844
G01 X-14.19893 Y8.48755
G01 X-14.36304 Y8.36665
G01 X-14.62034 Y8.25207
G01 X-14.79416 Y8.21514
G01 X-15.02382 Y8.20968
G01 X-15.29934 Y8.26822
G01 X-15.50693 Y8.36665
G01 X-15.67104 Y8.48755
G01 X-15.82491 Y8.65844
G01 X-15.91110 Y8.80500
G01 X-18.00576 Y8.80500
G01 X-18.06138 Y8.62738
G01 X-18.16626 Y8.43480
G01 X-18.32740 Y8.24971
G01 X-18.50500 Y8.12067
G01 X-18.68109 Y8.04079
G01 X-18.94637 Y7.98440
G01 X-19.16560 Y7.98986
G01 X-19.35445 Y8.03139
G01 X-19.55498 Y8.12067
G01 X-19.73258 Y8.24971
G01 X-19.87947 Y8.41282
G01 X-19.97733 Y8.57963
G01 X-20.05028 Y8.78643
G01 X-20.08000 Y9.03002
G01 X-20.05028 Y9.27361
G01 X-19.97733 Y9.48041
G01 X-19.87947 Y9.64719
G01 X-19.71223 Y9.82679
G01 X-19.55498 Y9.93934
G01 X-19.35445 Y10.02862
G01 X-19.11360 Y10.07564
G01 X-18.89438 Y10.07017
G01 X-18.73080 Y10.03540
G01 X-18.50500 Y9.93934
G01 X-18.32209 Y9.80502
G01 X-15.91110 Y9.80502
G01 X-15.82491 Y9.95158
G01 X-15.68953 Y10.10396
G01 X-15.50693 Y10.24338
G01 X-15.27490 Y10.35118
G01 X-15.02382 Y10.40035
G01 X-14.79416 Y10.39489
G01 X-14.59507 Y10.35118
G01 X-14.40831 Y10.26951
G01 X-14.19893 Y10.12247
G01 X-14.04506 Y9.95158
G01 X-13.92070 Y9.72799
G01 X-13.85494 Y9.50787
G01 X-13.83566 Y9.29212
G04 P0 ( dwell for no time -- G64 should not smooth over this point )
G00 Z2.00000 ( retract )

G00 X-13.83498 Y3.37501 ( rapid move to begin. )
G01 F20.00000
G01 Z-0.13500
G04 P0 ( dwell for no time -- G64 should not smooth over this point )
G01 F40.00000
G01 X-13.83498 Y3.37501
G01 X-13.83498 Y5.07501
G01 X-13.85403 Y5.17069
G01 X-13.90821 Y5.25179
G01 X-13.98931 Y5.30597
G01 X-14.08499 Y5.32502
G01 X-15.78499 Y5.32502
G01 X-15.88067 Y5.30597
G01 X-15.96177 Y5.25179
G01 X-16.01595 Y5.17069
G01 X-16.03500 Y5.07501
G01 X-16.03500 Y3.37501
G01 X-16.01595 Y3.27933
G01 X-15.96177 Y3.19823
G01 X-15.88067 Y3.14405
G01 X-15.78499 Y3.12503
G01 X-14.08499 Y3.12503
G01 X-13.98931 Y3.14405
G01 X-13.90821 Y3.19823
G01 X-13.85403 Y3.27933
G01 X-13.83498 Y3.37501
G04 P0 ( dwell for no time -- G64 should not smooth over this point )
G00 Z2.00000 ( retract )

G00 X-4.94566 Y9.29212 ( rapid move to begin. )
G01 F20.00000
G01 Z-0.13500
G04 P0 ( dwell for no time -- G64 should not smooth over this point )
G01 F40.00000
G01 X-4.94566 Y9.29212
G01 X-4.97579 Y9.05103
G01 X-5.05196 Y8.83429
G01 X-5.15506 Y8.65844
G01 X-5.30893 Y8.48755
G01 X-5.51831 Y8.34051
G01 X-5.70507 Y8.25885
G01 X-5.90416 Y8.21514
G01 X-6.13382 Y8.20968
G01 X-6.40934 Y8.26822
G01 X-6.61693 Y8.36665
G01 X-6.79953 Y8.50607
G01 X-6.93491 Y8.65844
G01 X-7.05927 Y8.88204
G01 X-7.12503 Y9.10216
G01 X-7.14500 Y9.30500
G01 X-7.11419 Y9.55900
G01 X-7.03801 Y9.77574
G01 X-6.93491 Y9.95158
G01 X-6.78104 Y10.12247
G01 X-6.57167 Y10.26951
G01 X-6.38490 Y10.35118
G01 X-6.18582 Y10.39489
G01 X-5.95615 Y10.40035
G01 X-5.68064 Y10.34180
G01 X-5.47304 Y10.24338
G01 X-5.29044 Y10.10396
G01 X-5.15506 Y9.95158
G01 X-5.03070 Y9.72799
G01 X-4.96494 Y9.50787
G01 X-4.94566 Y9.29212
G04 P0 ( dwell for no time -- G64 should not smooth over this point )
G00 Z2.00000 ( retract )

G00 X-4.94566 Y6.75212 ( rapid move to begin. )
G01 F20.00000
G01 Z-0.13500
G04 P0 ( dwell for no time -- G64 should not smooth over this point )
G01 F40.00000
G01 X-4.94566 Y6.75212
G01 X-4.97579 Y6.51103
G01 X-5.05196 Y6.29429
G01 X-5.14081 Y6.14039
G01 X-5.30893 Y5.94755
G01 X-5.51831 Y5.80051
G01 X-5.70507 Y5.71885
G01 X-5.90416 Y5.67514
G01 X-6.18582 Y5.67514
G01 X-6.40934 Y5.72822
G01 X-6.57167 Y5.80051
G01 X-6.76070 Y5.93109
G01 X-6.94916 Y6.14039
G01 X-7.03801 Y6.29429
G01 X-7.11419 Y6.51103
G01 X-7.14500 Y6.76500
G01 X-7.12503 Y6.96787
G01 X-7.08767 Y7.10058
G01 X-11.47854 Y11.49146
G01 X-11.55335 Y11.58828
G01 X-11.60943 Y11.72366
G01 X-11.62500 Y11.84503
G01 X-11.62497 Y16.00306
G01 X-11.82756 Y16.14471
G01 X-11.98870 Y16.32978
G01 X-12.09358 Y16.52236
G01 X-12.14527 Y16.68144
G01 X-12.17499 Y16.92500
G01 X-12.14527 Y17.16859
G01 X-12.09358 Y17.32767
G01 X-11.98870 Y17.52025
G01 X-11.82756 Y17.70531
G01 X-11.64999 Y17.83435
G01 X-11.44946 Y17.92363
G01 X-11.20862 Y17.97064
G01 X-11.04136 Y17.97064
G01 X-10.82579 Y17.93038
G01 X-10.62330 Y17.84621
G01 X-10.42241 Y17.70531
G01 X-10.27552 Y17.54219
G01 X-10.15640 Y17.32767
G01 X-10.09384 Y17.11748
G01 X-10.07499 Y16.92500
G01 X-10.09384 Y16.73254
G01 X-10.17766 Y16.47463
G01 X-10.27552 Y16.30783
G01 X-10.40389 Y16.16320
G01 X-10.62498 Y16.00306
G01 X-10.62498 Y12.05211
G01 X-6.38422 Y7.81135
G01 X-6.13382 Y7.86035
G01 X-5.90416 Y7.85489
G01 X-5.73034 Y7.81796
G01 X-5.51831 Y7.72951
G01 X-5.30893 Y7.58247
G01 X-5.15506 Y7.41158
G01 X-5.03070 Y7.18799
G01 X-4.96494 Y6.96787
G01 X-4.94566 Y6.75212
G04 P0 ( dwell for no time -- G64 should not smooth over this point )
G00 Z2.00000 ( retract )

G00 X-4.94498 Y5.07501 ( rapid move to begin. )
G01 F20.00000
G01 Z-0.13500
G04 P0 ( dwell for no time -- G64 should not smooth over this point )
G01 F40.00000
G01 X-4.94498 Y5.07501
G01 X-4.96403 Y5.17069
G01 X-5.01820 Y5.25179
G01 X-5.09931 Y5.30597
G01 X-5.19499 Y5.32502
G01 X-6.89499 Y5.32502
G01 X-6.99067 Y5.30597
G01 X-7.07177 Y5.25179
G01 X-7.12595 Y5.17069
G01 X-7.14500 Y5.07501
G01 X-7.14500 Y3.37501
G01 X-7.12595 Y3.27933
G01 X-7.07177 Y3.19823
G01 X-6.99067 Y3.14405
G01 X-6.89499 Y3.12503
G01 X-5.19499 Y3.12503
G01 X-5.09931 Y3.14405
G01 X-5.01820 Y3.19823
G01 X-4.96403 Y3.27933
G01 X-4.94498 Y3.37501
G01 X-4.94498 Y10.03792
G01 X-5.70576 Y10.79867
G01 X-5.95615 Y10.74968
G01 X-6.18582 Y10.75514
G01 X-6.35963 Y10.79207
G01 X-6.57167 Y10.88051
G01 X-6.78104 Y11.02755
G01 X-6.93491 Y11.19844
G01 X-7.03801 Y11.37429
G01 X-7.11419 Y11.59103
G01 X-7.14363 Y11.81889
G01 X-7.11419 Y12.09900
G01 X-7.03801 Y12.31574
G01 X-6.93491 Y12.49158
G01 X-6.79953 Y12.64396
G01 X-6.61693 Y12.78338
G01 X-6.38490 Y12.89118
G01 X-6.13382 Y12.94035
G01 X-5.90416 Y12.93489
G01 X-5.73034 Y12.89796
G01 X-5.51831 Y12.80951
G01 X-5.29044 Y12.64396
G01 X-5.15506 Y12.49158
G01 X-5.03070 Y12.26799
G01 X-4.96494 Y12.04787
G01 X-4.94498 Y11.84500
G01 X-4.96494 Y11.64216
G01 X-5.00230 Y11.50944
G01 X-4.07495 Y10.58038
G01 X-3.99354 Y10.45854
G01 X-3.95100 Y10.31828
G01 X-3.94498 Y2.77502
G01 X-3.96055 Y2.65368
G01 X-4.01663 Y2.51830
G01 X-4.24142 Y2.27146
G01 X-4.33825 Y2.19666
G01 X-4.42674 Y2.15480
G01 X-4.59499 Y2.12500
G01 X-20.24500 Y2.12500
G01 X-20.36633 Y2.14057
G01 X-20.45851 Y2.17357
G01 X-20.59854 Y2.27146
G01 X-33.97156 Y15.64446
G01 X-34.18637 Y15.60440
G01 X-34.35360 Y15.60440
G01 X-34.56917 Y15.64464
G01 X-34.79498 Y15.74067
G01 X-34.97258 Y15.86971
G01 X-35.13371 Y16.05480
G01 X-35.21733 Y16.19963
G01 X-35.29028 Y16.40643
G01 X-35.32000 Y16.65002
G01 X-35.30113 Y16.84248
G01 X-35.27321 Y16.94613
G01 X-39.59324 Y21.26616
G01 X-39.65273 Y21.20825
G01 X-39.83330 Y21.08382
G01 X-40.01051 Y21.00640
G01 X-40.25136 Y20.95938
G01 X-40.47059 Y20.96487
G01 X-40.65946 Y21.00640
G01 X-40.85999 Y21.09568
G01 X-41.03756 Y21.22471
G01 X-41.18445 Y21.38783
G01 X-41.28232 Y21.55463
G01 X-41.36614 Y21.81254
G01 X-41.38499 Y22.00500
G01 X-41.36614 Y22.19748
G01 X-41.28232 Y22.45539
G01 X-41.18445 Y22.62219
G01 X-41.03756 Y22.78531
G01 X-40.85999 Y22.91435
G01 X-40.65946 Y23.00363
G01 X-40.41862 Y23.05064
G01 X-40.19939 Y23.04516
G01 X-40.01051 Y23.00363
G01 X-39.78804 Y22.90010
G01 X-39.63241 Y22.78531
G01 X-39.50198 Y22.64251
G01 X-39.37948 Y22.43937
G01 X-39.27143 Y22.35857
G01 X-34.56844 Y17.65555
G01 X-34.35360 Y17.69564
G01 X-34.18637 Y17.69564
G01 X-33.97080 Y17.65540
G01 X-33.74500 Y17.55934
G01 X-33.56740 Y17.43031
G01 X-33.40626 Y17.24524
G01 X-33.32264 Y17.10041
G01 X-33.24970 Y16.89361
G01 X-33.21998 Y16.65002
G01 X-33.23885 Y16.45754
G01 X-33.26676 Y16.35391
G01 X-20.03789 Y3.12500
G01 X-4.94498 Y3.12500
G01 X-4.94498 Y3.37501

G04 P0 ( dwell for no time -- G64 should not smooth over this point )
G00 Z10.000 ( retract )

M5 ( Spindle off. )
G04 P1.000000
M9 ( Coolant off. )
M2 ( Program end. )

