( pcb2gcode 2.0.0 )
( Software-independent Gcode )

G94 ( Millimeters per minute feed rate. )
G21 ( Units == Millimeters. )

G90 ( Absolute coordinates. )
G00 S15000 ( RPM spindle speed. )
G64 P0.01000 ( set maximum deviation from commanded toolpath )
G01 F40.00000 ( Feedrate. )


G00 Z10.00000 (Retract to tool change height)
T0
M5      (Spindle stop.)
G04 P1.00000 (Wait for spindle to stop)
(MSG, Change tool bit to mill diameter 0.50000mm)
M6      (Tool change.)
M0      (Temporary machine stop.)
M3 ( Spindle on clockwise. )
G04 P1.00000 (Wait for spindle to get up to speed)
G04 P0 ( dwell for no time -- G64 should not smooth over this point )
G00 Z2.00000 ( retract )

G00 X-1.10798 Y1.48500 ( rapid move to begin. )
G01 F20.00000
G01 Z-0.05000
G04 P0 ( dwell for no time -- G64 should not smooth over this point )
G01 F40.00000
G01 X-1.10798 Y1.48500
G01 X-1.10798 Y49.16502
G01 X-1.12944 Y49.28546
G01 X-1.20262 Y49.41234
G01 X-1.31854 Y49.50284
G01 X-1.48499 Y49.54200
G01 X-43.16499 Y49.54200
G01 X-43.28544 Y49.52054
G01 X-43.41231 Y49.44739
G01 X-43.50281 Y49.33146
G01 X-43.54198 Y49.16502
G01 X-43.54198 Y1.48500
G01 X-43.52052 Y1.36455
G01 X-43.44736 Y1.23768
G01 X-43.33144 Y1.14723
G01 X-43.16499 Y1.10804
G01 X-1.48499 Y1.10804
G01 X-1.33190 Y1.14164
G01 X-1.22789 Y1.20928
G01 X-1.14161 Y1.33191
G01 X-1.10798 Y1.48500
G04 P0 ( dwell for no time -- G64 should not smooth over this point )
G00 Z2.00000 ( retract )

G00 X-4.94498 Y3.37501 ( rapid move to begin. )
G01 F20.00000
G01 Z-0.05000
G04 P0 ( dwell for no time -- G64 should not smooth over this point )
G01 F40.00000
G01 X-4.94498 Y3.37501
G01 X-4.94498 Y3.12500
G01 X-20.03789 Y3.12500
G01 X-33.26676 Y16.35391
G01 X-33.23885 Y16.45754
G01 X-33.21998 Y16.65002
G01 X-33.24970 Y16.89361
G01 X-33.32264 Y17.10041
G01 X-33.40626 Y17.24524
G01 X-33.56740 Y17.43031
G01 X-33.74500 Y17.55934
G01 X-33.97080 Y17.65540
G01 X-34.18637 Y17.69564
G01 X-34.35360 Y17.69564
G01 X-34.56841 Y17.65555
G01 X-39.27143 Y22.35857
G01 X-39.38082 Y22.44008
G01 X-39.50198 Y22.64251
G01 X-39.63241 Y22.78531
G01 X-39.78804 Y22.90010
G01 X-40.01051 Y23.00363
G01 X-40.19939 Y23.04516
G01 X-40.41862 Y23.05064
G01 X-40.65946 Y23.00363
G01 X-40.85999 Y22.91435
G01 X-41.03756 Y22.78531
G01 X-41.18445 Y22.62219
G01 X-41.28232 Y22.45539
G01 X-41.36614 Y22.19748
G01 X-41.38499 Y22.00500
G01 X-41.36614 Y21.81254
G01 X-41.28232 Y21.55463
G01 X-41.18445 Y21.38783
G01 X-41.03756 Y21.22471
G01 X-40.85999 Y21.09568
G01 X-40.65946 Y21.00640
G01 X-40.47059 Y20.96487
G01 X-40.25136 Y20.95938
G01 X-40.01051 Y21.00640
G01 X-39.83330 Y21.08382
G01 X-39.65273 Y21.20825
G01 X-39.59324 Y21.26616
G01 X-35.27321 Y16.94611
G01 X-35.30113 Y16.84248
G01 X-35.32000 Y16.65002
G01 X-35.29028 Y16.40643
G01 X-35.21733 Y16.19963
G01 X-35.13371 Y16.05480
G01 X-34.97258 Y15.86971
G01 X-34.79498 Y15.74067
G01 X-34.56917 Y15.64464
G01 X-34.35360 Y15.60440
G01 X-34.18637 Y15.60440
G01 X-33.97156 Y15.64446
G01 X-20.59854 Y2.27146
G01 X-20.45851 Y2.17357
G01 X-20.36633 Y2.14057
G01 X-20.24500 Y2.12500
G01 X-4.59499 Y2.12500
G01 X-4.42674 Y2.15480
G01 X-4.33825 Y2.19666
G01 X-4.24142 Y2.27146
G01 X-4.01663 Y2.51830
G01 X-3.96055 Y2.65368
G01 X-3.94498 Y2.77502
G01 X-3.95100 Y10.31828
G01 X-3.99354 Y10.45854
G01 X-4.07495 Y10.58038
G01 X-5.00230 Y11.50944
G01 X-4.96494 Y11.64216
G01 X-4.94498 Y11.84500
G01 X-4.96494 Y12.04787
G01 X-5.03070 Y12.26799
G01 X-5.15506 Y12.49158
G01 X-5.29044 Y12.64396
G01 X-5.51831 Y12.80951
G01 X-5.73034 Y12.89796
G01 X-5.90416 Y12.93489
G01 X-6.13382 Y12.94035
G01 X-6.38490 Y12.89118
G01 X-6.61693 Y12.78338
G01 X-6.79953 Y12.64396
G01 X-6.93491 Y12.49158
G01 X-7.03801 Y12.31574
G01 X-7.11419 Y12.09900
G01 X-7.14363 Y11.81889
G01 X-7.11419 Y11.59103
G01 X-7.03801 Y11.37429
G01 X-6.93491 Y11.19844
G01 X-6.78104 Y11.02755
G01 X-6.57167 Y10.88051
G01 X-6.35963 Y10.79207
G01 X-6.18582 Y10.75514
G01 X-5.95615 Y10.74968
G01 X-5.70576 Y10.79867
G01 X-4.94498 Y10.03792
G01 X-4.94498 Y3.37501
G01 X-4.98712 Y3.23613
G01 X-5.05610 Y3.16714
G01 X-5.19499 Y3.12503
G01 X-6.95808 Y3.13420
G01 X-7.07177 Y3.19823
G01 X-7.12595 Y3.27933
G01 X-7.14500 Y3.37501
G01 X-7.14500 Y3.72104
G01 X-7.16036 Y3.45937
G01 X-7.20779 Y3.32134
G01 X-7.25803 Y3.25154
G01 X-7.33385 Y3.18959
G01 X-7.44711 Y3.14291
G01 X-7.53232 Y3.13300
G01 X-13.44765 Y3.13300
G01 X-13.61356 Y3.17197
G01 X-13.66647 Y3.20313
G01 X-13.75332 Y3.28952
G01 X-13.79980 Y3.37570
G01 X-13.81961 Y3.45937
G01 X-13.82581 Y3.72104
G01 X-13.83498 Y3.37501
G01 X-13.85403 Y3.27933
G01 X-13.94610 Y3.16714
G01 X-14.08499 Y3.12503
G01 X-15.78499 Y3.12503
G01 X-15.88067 Y3.14405
G01 X-15.96177 Y3.19823
G01 X-16.03017 Y3.32627
G01 X-16.03500 Y3.72104
G01 X-16.05036 Y3.45937
G01 X-16.09779 Y3.32134
G01 X-16.19385 Y3.21065
G01 X-16.34894 Y3.14022
G01 X-19.87825 Y3.13300
G01 X-20.02267 Y3.16171
G01 X-20.14500 Y3.24347
G01 X-33.10855 Y16.20699
G01 X-33.16717 Y16.28609
G01 X-33.20578 Y16.37623
G01 X-33.21891 Y16.47951
G01 X-33.21198 Y16.75421
G01 X-33.25264 Y16.95863
G01 X-33.33240 Y17.15116
G01 X-33.44820 Y17.32444
G01 X-33.59557 Y17.47181
G01 X-33.83509 Y17.63765
G01 X-33.89414 Y17.70054
G01 X-33.94047 Y17.78718
G01 X-33.96445 Y17.90775
G01 X-33.96110 Y17.96930
G01 X-33.90778 Y18.11910
G01 X-33.84621 Y18.19434
G01 X-33.59630 Y18.36747
G01 X-33.44820 Y18.51557
G01 X-33.33240 Y18.68888
G01 X-33.25264 Y18.88141
G01 X-33.21198 Y19.08580
G01 X-33.21198 Y19.29421
G01 X-33.25264 Y19.49863
G01 X-33.33240 Y19.69116
G01 X-33.44820 Y19.86447
G01 X-33.59630 Y20.01255
G01 X-33.81817 Y20.16350
G01 X-33.88541 Y20.23132
G01 X-33.95028 Y20.36264
G01 X-33.95996 Y20.50879
G01 X-33.93605 Y20.60429
G01 X-33.85505 Y20.72586
G01 X-33.59630 Y20.90747
G01 X-33.44817 Y21.05557
G01 X-33.33240 Y21.22885
G01 X-33.25264 Y21.42138
G01 X-33.21198 Y21.62580
G01 X-33.21198 Y21.83421
G01 X-33.25264 Y22.03863
G01 X-33.33240 Y22.23119
G01 X-33.44817 Y22.40444
G01 X-33.59630 Y22.55255
G01 X-33.81817 Y22.70350
G01 X-33.88541 Y22.77132
G01 X-33.95028 Y22.90264
G01 X-33.95996 Y23.04879
G01 X-33.93605 Y23.14429
G01 X-33.85505 Y23.26586
G01 X-33.59630 Y23.44747
G01 X-33.44820 Y23.59557
G01 X-33.33240 Y23.76888
G01 X-33.25264 Y23.96141
G01 X-33.21198 Y24.16580
G01 X-33.21198 Y24.37421
G01 X-33.25264 Y24.57863
G01 X-33.33240 Y24.77119
G01 X-33.44817 Y24.94444
G01 X-33.59630 Y25.09255
G01 X-33.85505 Y25.27418
G01 X-33.93605 Y25.39575
G01 X-33.96476 Y25.54002
G01 X-33.93605 Y25.68429
G01 X-33.85505 Y25.80586
G01 X-33.59630 Y25.98747
G01 X-33.44820 Y26.13557
G01 X-33.33240 Y26.30888
G01 X-33.25264 Y26.50141
G01 X-33.21198 Y26.70580
G01 X-33.21198 Y26.91421
G01 X-33.25264 Y27.11863
G01 X-33.33240 Y27.31116
G01 X-33.44820 Y27.48447
G01 X-33.59630 Y27.63255
G01 X-33.85505 Y27.81418
G01 X-33.93605 Y27.93575
G01 X-33.96476 Y28.08002
G01 X-33.93605 Y28.22429
G01 X-33.85505 Y28.34586
G01 X-33.59630 Y28.52747
G01 X-33.44817 Y28.67557
G01 X-33.33240 Y28.84885
G01 X-33.25264 Y29.04141
G01 X-33.21198 Y29.24580
G01 X-33.21198 Y29.45421
G01 X-33.25264 Y29.65863
G01 X-33.33240 Y29.85116
G01 X-33.44820 Y30.02444
G01 X-33.59630 Y30.17255
G01 X-33.85505 Y30.35418
G01 X-33.93605 Y30.47575
G01 X-33.96476 Y30.62002
G01 X-33.93605 Y30.76429
G01 X-33.85505 Y30.88586
G01 X-33.59630 Y31.06747
G01 X-33.44820 Y31.21557
G01 X-33.33240 Y31.38888
G01 X-33.25264 Y31.58141
G01 X-33.21198 Y31.78580
G01 X-33.21198 Y31.99421
G01 X-33.25264 Y32.19863
G01 X-33.33240 Y32.39119
G01 X-33.44817 Y32.56444
G01 X-33.59630 Y32.71255
G01 X-33.85505 Y32.89418
G01 X-33.93605 Y33.01575
G01 X-33.96476 Y33.16002
G01 X-33.93605 Y33.30429
G01 X-33.85505 Y33.42586
G01 X-33.59630 Y33.60747
G01 X-33.44820 Y33.75557
G01 X-33.33240 Y33.92885
G01 X-33.25224 Y34.12237
G01 X-33.18376 Y34.42954
G01 X-33.08427 Y34.56736
G01 X-32.96867 Y34.63703
G01 X-32.83585 Y34.66131
G01 X-32.69158 Y34.63261
G01 X-32.56928 Y34.55087
G01 X-30.96105 Y32.94265
G01 X-30.88429 Y32.83157
G01 X-30.85577 Y32.73754
G01 X-30.85326 Y18.05042
G01 X-30.81422 Y17.85329
G01 X-30.70248 Y17.68634
G01 X-19.42130 Y6.40518
G01 X-19.25432 Y6.29340
G01 X-19.05724 Y6.25438
G01 X-16.12964 Y6.25700
G01 X-16.03228 Y6.24255
G01 X-15.94216 Y6.20521
G01 X-15.86558 Y6.14908
G01 X-15.64744 Y5.90214
G01 X-15.59741 Y5.79950
G01 X-15.58021 Y5.69749
G01 X-15.60736 Y5.54572
G01 X-15.67505 Y5.43650
G01 X-15.75369 Y5.36932
G01 X-15.92900 Y5.29058
G01 X-16.02451 Y5.17420
G01 X-16.04597 Y5.05751
G01 X-16.04417 Y4.72901
G01 X-16.03500 Y5.07501
G01 X-16.01595 Y5.17069
G01 X-15.92387 Y5.28288
G01 X-15.78499 Y5.32502
G01 X-14.08499 Y5.32502
G01 X-13.98931 Y5.30597
G01 X-13.91026 Y5.25317
G01 X-13.83980 Y5.12378
G01 X-13.82581 Y4.72901
G01 X-13.82400 Y5.05751
G01 X-13.84547 Y5.17422
G01 X-13.94097 Y5.29058
G01 X-14.11628 Y5.36932
G01 X-14.19492 Y5.43650
G01 X-14.27153 Y5.57029
G01 X-14.28809 Y5.72357
G01 X-14.24183 Y5.87064
G01 X-14.07529 Y6.05728
G01 X-13.95309 Y6.24019
G01 X-13.86957 Y6.44181
G01 X-13.82698 Y6.65588
G01 X-13.82698 Y6.87546
G01 X-13.86998 Y7.12875
G01 X-13.85553 Y7.22482
G01 X-13.81905 Y7.31585
G01 X-13.77574 Y7.37437
G01 X-12.97516 Y8.17470
G01 X-12.91054 Y8.25344
G01 X-12.83434 Y8.43741
G01 X-12.82436 Y12.61124
G01 X-12.83434 Y12.71261
G01 X-12.91054 Y12.89659
G01 X-13.97366 Y13.97012
G01 X-14.02713 Y14.03760
G01 X-14.07684 Y14.16308
G01 X-14.08410 Y18.58118
G01 X-14.05540 Y18.72561
G01 X-13.97331 Y18.84826
G01 X-13.08768 Y19.72657
G01 X-13.00122 Y19.77272
G01 X-12.86841 Y19.79700
G01 X-10.84057 Y19.79700
G01 X-10.74319 Y19.78255
G01 X-10.65215 Y19.74610
G01 X-10.59333 Y19.70246
G01 X-7.12628 Y16.23516
G01 X-7.04759 Y16.17059
G01 X-6.86357 Y16.09437
G01 X-5.27876 Y16.08439
G01 X-5.08163 Y16.12343
G01 X-4.91467 Y16.23519
G01 X-3.90454 Y17.25586
G01 X-3.82202 Y17.29490
G01 X-3.69908 Y17.31413
G01 X-3.43025 Y17.26701
G01 X-3.22077 Y17.26701
G01 X-3.01641 Y17.30768
G01 X-2.82380 Y17.38743
G01 X-2.65057 Y17.50321
G01 X-2.50317 Y17.65058
G01 X-2.38737 Y17.82386
G01 X-2.30764 Y18.01641
G01 X-2.26695 Y18.22081
G01 X-2.26695 Y18.42921
G01 X-2.30764 Y18.63361
G01 X-2.38737 Y18.82616
G01 X-2.50317 Y18.99944
G01 X-2.65054 Y19.14681
G01 X-2.82385 Y19.26259
G01 X-3.01638 Y19.34234
G01 X-3.22077 Y19.38301
G01 X-3.42898 Y19.38301
G01 X-3.75730 Y19.32210
G01 X-3.92395 Y19.36129
G01 X-4.00447 Y19.41636
G01 X-4.84066 Y20.24910
G01 X-4.89964 Y20.32855
G01 X-4.94665 Y20.46728
G01 X-4.93698 Y20.84414
G01 X-4.97957 Y21.05821
G01 X-5.06311 Y21.25987
G01 X-5.18529 Y21.44272
G01 X-5.35183 Y21.62938
G01 X-5.38955 Y21.72573
G01 X-5.39976 Y21.80254
G01 X-5.37261 Y21.95430
G01 X-5.30492 Y22.06352
G01 X-5.22628 Y22.13070
G01 X-5.05095 Y22.20944
G01 X-4.95547 Y22.32580
G01 X-4.93400 Y22.44251
G01 X-4.93581 Y22.77101
G01 X-4.94498 Y22.42501
G01 X-4.96403 Y22.32933
G01 X-5.05610 Y22.21714
G01 X-5.19499 Y22.17500
G01 X-6.89499 Y22.17500
G01 X-6.99067 Y22.19405
G01 X-7.07177 Y22.24823
G01 X-7.13451 Y22.32580
G01 X-7.15595 Y22.44246
G01 X-7.15417 Y22.77101
G01 X-7.14017 Y22.37625
G01 X-7.03903 Y22.20944
G01 X-6.86369 Y22.13070
G01 X-6.75358 Y22.02281
G01 X-6.69595 Y21.87983
G01 X-6.70042 Y21.72573
G01 X-6.75744 Y21.59789
G01 X-6.90469 Y21.44275
G01 X-7.02689 Y21.25984
G01 X-7.11040 Y21.05819
G01 X-7.16611 Y20.80279
G01 X-7.23926 Y20.67592
G01 X-7.31218 Y20.60978
G01 X-7.44810 Y20.55349
G01 X-7.58310 Y20.55138
G01 X-7.67713 Y20.57991
G01 X-7.78823 Y20.65667
G01 X-10.18863 Y23.04668
G01 X-10.37263 Y23.12288
G01 X-10.47395 Y23.13286
G01 X-11.93564 Y23.13022
G01 X-12.07991 Y23.15892
G01 X-12.20221 Y23.24066
G01 X-17.86855 Y28.90699
G01 X-17.94531 Y29.01809
G01 X-17.97383 Y29.11212
G01 X-17.97475 Y29.22825
G01 X-17.94668 Y29.34222
G01 X-17.90225 Y29.42378
G01 X-17.80530 Y29.51776
G01 X-17.66941 Y29.57405
G01 X-17.57109 Y29.57887
G01 X-17.47541 Y29.55982
G01 X-17.34747 Y29.48736
G01 X-12.06764 Y24.21965
G01 X-11.88362 Y24.14343
G01 X-11.78230 Y24.13344
G01 X-9.75289 Y24.14343
G01 X-9.56884 Y24.21965
G01 X-9.49013 Y24.28424
G01 X-6.95516 Y26.81924
G01 X-6.84337 Y26.98622
G01 X-6.80436 Y27.18330
G01 X-6.79968 Y28.56427
G01 X-6.72884 Y28.71964
G01 X-6.49318 Y28.95058
G01 X-6.37741 Y29.12386
G01 X-6.29765 Y29.31639
G01 X-6.25699 Y29.52081
G01 X-6.25699 Y29.72922
G01 X-6.29765 Y29.93364
G01 X-6.37741 Y30.12617
G01 X-6.49318 Y30.29945
G01 X-6.64055 Y30.44682
G01 X-6.81381 Y30.56259
G01 X-7.00639 Y30.64237
G01 X-7.21081 Y30.68301
G01 X-7.41917 Y30.68301
G01 X-7.62356 Y30.64237
G01 X-7.81617 Y30.56259
G01 X-7.98942 Y30.44682
G01 X-8.13679 Y30.29945
G01 X-8.25259 Y30.12614
G01 X-8.33232 Y29.93364
G01 X-8.37299 Y29.72922
G01 X-8.37299 Y29.52081
G01 X-8.33232 Y29.31639
G01 X-8.25259 Y29.12388
G01 X-8.13679 Y28.95058
G01 X-7.90232 Y28.71919
G01 X-7.85665 Y28.64598
G01 X-7.82818 Y28.55226
G01 X-7.82300 Y27.54875
G01 X-7.84726 Y27.41528
G01 X-7.89359 Y27.32864
G01 X-10.00958 Y25.21561
G01 X-10.13351 Y25.16202
G01 X-10.21903 Y25.15206
G01 X-11.41748 Y25.15206
G01 X-11.56175 Y25.18076
G01 X-11.68537 Y25.26382
G01 X-11.94291 Y25.53184
G01 X-11.98443 Y25.62005
G01 X-12.00346 Y25.71574
G01 X-11.99866 Y25.81406
G01 X-11.96549 Y25.90674
G01 X-11.91128 Y25.98785
G01 X-11.83836 Y26.05399
G01 X-11.70247 Y26.11027
G01 X-11.55822 Y26.11081
G01 X-11.43645 Y26.06824
G01 X-11.22922 Y26.02701
G01 X-11.02076 Y26.02701
G01 X-10.81642 Y26.06765
G01 X-10.62383 Y26.14744
G01 X-10.45055 Y26.26321
G01 X-10.30318 Y26.41058
G01 X-10.18738 Y26.58388
G01 X-10.10765 Y26.77639
G01 X-10.06699 Y26.98081
G01 X-10.06699 Y27.18922
G01 X-10.10765 Y27.39361
G01 X-10.18738 Y27.58614
G01 X-10.30318 Y27.75945
G01 X-10.45055 Y27.90682
G01 X-10.62383 Y28.02259
G01 X-10.81639 Y28.10235
G01 X-11.02078 Y28.14301
G01 X-11.38695 Y28.14596
G01 X-11.50051 Y28.19300
G01 X-11.54981 Y28.22998
G01 X-17.92603 Y34.60447
G01 X-18.00774 Y34.72677
G01 X-18.09240 Y34.93116
G01 X-18.20820 Y35.10444
G01 X-18.35486 Y35.25110
G01 X-18.56910 Y35.39184
G01 X-18.64645 Y35.46062
G01 X-18.70131 Y35.54516
G01 X-18.73525 Y35.66565
G01 X-18.72128 Y35.81521
G01 X-18.64995 Y35.94739
G01 X-18.57754 Y36.01274
G01 X-18.40164 Y36.12090
G01 X-18.24721 Y36.26093
G01 X-18.10561 Y36.46601
G01 X-18.18051 Y36.35282
G01 X-18.30891 Y36.20822
G01 X-18.50500 Y36.06067
G01 X-18.70553 Y35.97139
G01 X-18.94637 Y35.92440
G01 X-19.16560 Y35.92986
G01 X-19.32917 Y35.96464
G01 X-19.55498 Y36.06067
G01 X-19.75107 Y36.20822
G01 X-19.87947 Y36.35282
G01 X-19.95437 Y36.46601
G01 X-19.81277 Y36.26093
G01 X-19.65833 Y36.12090
G01 X-19.48244 Y36.01274
G01 X-19.41002 Y35.94739
G01 X-19.34690 Y35.83931
G01 X-19.32417 Y35.74112
G01 X-19.34030 Y35.59179
G01 X-19.39760 Y35.48049
G01 X-19.46821 Y35.40861
G01 X-19.70512 Y35.25110
G01 X-19.85181 Y35.10444
G01 X-19.96758 Y34.93116
G01 X-20.04733 Y34.73863
G01 X-20.08800 Y34.53421
G01 X-20.08800 Y34.32580
G01 X-20.04733 Y34.12141
G01 X-19.96758 Y33.92885
G01 X-19.85181 Y33.75557
G01 X-19.70367 Y33.60747
G01 X-19.44492 Y33.42586
G01 X-19.36392 Y33.30429
G01 X-19.34002 Y33.20879
G01 X-19.34515 Y33.07450
G01 X-19.41338 Y32.93086
G01 X-19.48180 Y32.86350
G01 X-19.70367 Y32.71255
G01 X-19.85181 Y32.56444
G01 X-19.96758 Y32.39119
G01 X-20.04733 Y32.19863
G01 X-20.08800 Y31.99421
G01 X-20.08800 Y31.78580
G01 X-20.04733 Y31.58141
G01 X-19.96758 Y31.38885
G01 X-19.85181 Y31.21557
G01 X-19.70441 Y31.06820
G01 X-19.46489 Y30.90239
G01 X-19.39877 Y30.82947
G01 X-19.35671 Y30.74047
G01 X-19.33766 Y30.64478
G01 X-19.34248 Y30.54646
G01 X-19.39219 Y30.42093
G01 X-19.45376 Y30.34567
G01 X-19.70367 Y30.17255
G01 X-19.93535 Y29.93618
G01 X-20.04406 Y29.87948
G01 X-20.13999 Y29.85921
G01 X-25.06442 Y29.85802
G01 X-25.20869 Y29.88672
G01 X-25.33102 Y29.96843
G01 X-25.54318 Y30.29945
G01 X-25.69055 Y30.44682
G01 X-25.86381 Y30.56259
G01 X-26.05639 Y30.64235
G01 X-26.26081 Y30.68301
G01 X-26.46917 Y30.68301
G01 X-26.67361 Y30.64235
G01 X-26.86614 Y30.56259
G01 X-27.03942 Y30.44682
G01 X-27.18679 Y30.29945
G01 X-27.30256 Y30.12617
G01 X-27.38235 Y29.93358
G01 X-27.42299 Y29.72924
G01 X-27.42299 Y29.52078
G01 X-27.38235 Y29.31642
G01 X-27.30256 Y29.12386
G01 X-27.18679 Y28.95058
G01 X-27.03942 Y28.80321
G01 X-26.86612 Y28.68741
G01 X-26.67361 Y28.60768
G01 X-26.46919 Y28.56701
G01 X-26.26078 Y28.56701
G01 X-26.05636 Y28.60768
G01 X-25.86383 Y28.68744
G01 X-25.68436 Y28.80158
G01 X-25.60364 Y28.83209
G01 X-25.51811 Y28.84202
G01 X-20.16450 Y28.84202
G01 X-20.03169 Y28.81774
G01 X-19.93535 Y28.76386
G01 X-19.70441 Y28.52820
G01 X-19.46489 Y28.36239
G01 X-19.40583 Y28.29950
G01 X-19.35950 Y28.21284
G01 X-19.33552 Y28.09229
G01 X-19.33888 Y28.03072
G01 X-19.39219 Y27.88093
G01 X-19.45376 Y27.80567
G01 X-19.70367 Y27.63255
G01 X-19.85181 Y27.48444
G01 X-19.96758 Y27.31116
G01 X-20.04733 Y27.11863
G01 X-20.08800 Y26.91421
G01 X-20.08800 Y26.70580
G01 X-20.04733 Y26.50141
G01 X-19.96758 Y26.30885
G01 X-19.85181 Y26.13557
G01 X-19.70367 Y25.98747
G01 X-19.48180 Y25.83651
G01 X-19.41457 Y25.76870
G01 X-19.34970 Y25.63738
G01 X-19.34002 Y25.49125
G01 X-19.36392 Y25.39575
G01 X-19.44492 Y25.27418
G01 X-19.70367 Y25.09255
G01 X-19.85181 Y24.94444
G01 X-19.96758 Y24.77119
G01 X-20.04733 Y24.57863
G01 X-20.08800 Y24.37421
G01 X-20.08800 Y24.16580
G01 X-20.04733 Y23.96141
G01 X-19.96758 Y23.76885
G01 X-19.85181 Y23.59557
G01 X-19.70367 Y23.44747
G01 X-19.48180 Y23.29651
G01 X-19.41457 Y23.22870
G01 X-19.34970 Y23.09738
G01 X-19.34002 Y22.95125
G01 X-19.36392 Y22.85575
G01 X-19.44492 Y22.73418
G01 X-19.70367 Y22.55255
G01 X-19.85181 Y22.40444
G01 X-19.96758 Y22.23119
G01 X-20.04733 Y22.03863
G01 X-20.08800 Y21.83421
G01 X-20.08800 Y21.62580
G01 X-20.04733 Y21.42138
G01 X-19.96758 Y21.22885
G01 X-19.85181 Y21.05560
G01 X-19.70367 Y20.90747
G01 X-19.44492 Y20.72586
G01 X-19.36392 Y20.60429
G01 X-19.33522 Y20.46002
G01 X-19.36392 Y20.31575
G01 X-19.44492 Y20.19418
G01 X-19.70367 Y20.01255
G01 X-19.85181 Y19.86444
G01 X-19.96758 Y19.69116
G01 X-20.04733 Y19.49863
G01 X-20.08800 Y19.29421
G01 X-20.08800 Y19.08580
G01 X-20.04733 Y18.88141
G01 X-19.96758 Y18.68885
G01 X-19.85181 Y18.51557
G01 X-19.70367 Y18.36747
G01 X-19.44492 Y18.18586
G01 X-19.36392 Y18.06429
G01 X-19.33522 Y17.92002
G01 X-19.36392 Y17.77575
G01 X-19.44492 Y17.65418
G01 X-19.70367 Y17.47255
G01 X-19.85181 Y17.32444
G01 X-19.96758 Y17.15116
G01 X-20.04733 Y16.95863
G01 X-20.08800 Y16.75421
G01 X-20.08800 Y16.54580
G01 X-20.04733 Y16.34141
G01 X-19.96758 Y16.14885
G01 X-19.85181 Y15.97557
G01 X-19.70367 Y15.82747
G01 X-19.44492 Y15.64586
G01 X-19.36392 Y15.52429
G01 X-19.33522 Y15.38002
G01 X-19.36392 Y15.23575
G01 X-19.44492 Y15.11418
G01 X-19.70367 Y14.93255
G01 X-19.85181 Y14.78444
G01 X-19.96758 Y14.61119
G01 X-20.04733 Y14.41863
G01 X-20.08800 Y14.21421
G01 X-20.08800 Y14.00580
G01 X-20.04733 Y13.80138
G01 X-19.96758 Y13.60885
G01 X-19.85181 Y13.43560
G01 X-19.70367 Y13.28747
G01 X-19.44492 Y13.10586
G01 X-19.36392 Y12.98429
G01 X-19.33522 Y12.84002
G01 X-19.36392 Y12.69575
G01 X-19.44492 Y12.57418
G01 X-19.70367 Y12.39255
G01 X-19.85181 Y12.24444
G01 X-19.96758 Y12.07116
G01 X-20.04733 Y11.87863
G01 X-20.08800 Y11.67421
G01 X-20.08800 Y11.46580
G01 X-20.04733 Y11.26141
G01 X-19.96758 Y11.06885
G01 X-19.85181 Y10.89560
G01 X-19.70367 Y10.74747
G01 X-19.44492 Y10.56586
G01 X-19.36392 Y10.44429
G01 X-19.33522 Y10.30002
G01 X-19.36392 Y10.15575
G01 X-19.44492 Y10.03418
G01 X-19.70367 Y9.85255
G01 X-19.85181 Y9.70444
G01 X-19.96758 Y9.53119
G01 X-20.07647 Y9.23317
G01 X-20.15673 Y9.11432
G01 X-20.27903 Y9.03261
G01 X-20.37454 Y9.00871
G01 X-20.47207 Y9.00871
G01 X-20.56758 Y9.03261
G01 X-20.68988 Y9.11432
G01 X-29.72420 Y18.14864
G01 X-29.80594 Y18.27095
G01 X-29.83461 Y18.41522
G01 X-29.84198 Y33.14224
G01 X-29.91821 Y33.32626
G01 X-29.98280 Y33.40498
G01 X-33.10855 Y36.52699
G01 X-33.17855 Y36.62735
G01 X-33.21533 Y36.74429
G01 X-33.21889 Y37.15280
G01 X-33.19468 Y37.27926
G01 X-33.14845 Y37.36583
G01 X-31.35516 Y39.16641
G01 X-31.23268 Y39.24832
G01 X-31.08823 Y39.27700
G01 X-27.47457 Y39.27456
G01 X-27.37907 Y39.25554
G01 X-27.30043 Y39.22005
G01 X-27.03942 Y38.96321
G01 X-26.86612 Y38.84741
G01 X-26.67361 Y38.76768
G01 X-26.46919 Y38.72701
G01 X-26.26078 Y38.72701
G01 X-26.05636 Y38.76768
G01 X-25.86383 Y38.84744
G01 X-25.69055 Y38.96321
G01 X-25.54318 Y39.11058
G01 X-25.42741 Y39.28386
G01 X-25.34765 Y39.47639
G01 X-25.30699 Y39.68081
G01 X-25.30699 Y39.88922
G01 X-25.34765 Y40.09361
G01 X-25.42738 Y40.28614
G01 X-25.54318 Y40.45945
G01 X-25.69055 Y40.60682
G01 X-25.86383 Y40.72259
G01 X-26.05639 Y40.80235
G01 X-26.26078 Y40.84301
G01 X-26.46919 Y40.84301
G01 X-26.67361 Y40.80235
G01 X-26.86614 Y40.72259
G01 X-27.03942 Y40.60682
G01 X-27.27081 Y40.37235
G01 X-27.34402 Y40.32668
G01 X-27.43797 Y40.29818
G01 X-31.55455 Y40.28566
G01 X-31.73860 Y40.20943
G01 X-31.81729 Y40.14487
G01 X-32.60715 Y39.35805
G01 X-32.73852 Y39.29194
G01 X-32.90941 Y39.28597
G01 X-33.04530 Y39.34225
G01 X-33.16194 Y39.46732
G01 X-33.19798 Y39.55630
G01 X-33.25224 Y39.81764
G01 X-33.33240 Y40.01116
G01 X-33.44817 Y40.18444
G01 X-33.59486 Y40.33110
G01 X-33.85132 Y40.50489
G01 X-33.92965 Y40.60252
G01 X-33.96656 Y40.69628
G01 X-33.97258 Y40.84639
G01 X-33.93227 Y40.96491
G01 X-33.88995 Y41.02739
G01 X-33.81754 Y41.09274
G01 X-33.64164 Y41.20090
G01 X-33.48721 Y41.34095
G01 X-33.34561 Y41.54601
G01 X-33.42051 Y41.43282
G01 X-33.54891 Y41.28822
G01 X-33.74500 Y41.14067
G01 X-33.94553 Y41.05139
G01 X-34.18637 Y41.00440
G01 X-34.40560 Y41.00986
G01 X-34.56917 Y41.04464
G01 X-34.79498 Y41.14067
G01 X-34.99107 Y41.28822
G01 X-35.11947 Y41.43282
G01 X-35.19437 Y41.54601
G01 X-35.05277 Y41.34093
G01 X-34.89833 Y41.20090
G01 X-34.72244 Y41.09274
G01 X-34.65002 Y41.02739
G01 X-34.57870 Y40.89521
G01 X-34.56285 Y40.77103
G01 X-34.58030 Y40.67179
G01 X-34.65353 Y40.54062
G01 X-34.73087 Y40.47184
G01 X-34.94512 Y40.33110
G01 X-35.09180 Y40.18444
G01 X-35.20755 Y40.01119
G01 X-35.28733 Y39.81858
G01 X-35.32797 Y39.61421
G01 X-35.32797 Y39.40580
G01 X-35.28733 Y39.20143
G01 X-35.20758 Y39.00885
G01 X-35.09178 Y38.83557
G01 X-34.94367 Y38.68747
G01 X-34.69376 Y38.51434
G01 X-34.63219 Y38.43910
G01 X-34.58248 Y38.31355
G01 X-34.57766 Y38.21523
G01 X-34.59567 Y38.11884
G01 X-34.64583 Y38.02054
G01 X-34.70489 Y37.95765
G01 X-34.94441 Y37.79181
G01 X-35.09180 Y37.64444
G01 X-35.20758 Y37.47116
G01 X-35.28733 Y37.27860
G01 X-35.32797 Y37.07421
G01 X-35.32800 Y36.86461
G01 X-35.28043 Y36.59948
G01 X-35.29013 Y36.50286
G01 X-35.34367 Y36.37901
G01 X-37.74941 Y33.95263
G01 X-37.82563 Y33.76860
G01 X-37.84745 Y33.36215
G01 X-37.88479 Y33.27203
G01 X-37.93899 Y33.19748
G01 X-38.14770 Y32.99853
G01 X-38.30074 Y32.78255
G01 X-38.42215 Y32.70170
G01 X-38.56744 Y32.67303
G01 X-39.21438 Y32.68037
G01 X-39.30655 Y32.71344
G01 X-39.38872 Y32.76695
G01 X-39.59721 Y32.99604
G01 X-39.65382 Y33.08263
G01 X-39.68976 Y33.23254
G01 X-39.66261 Y33.38430
G01 X-39.59492 Y33.49352
G01 X-39.48626 Y33.57846
G01 X-39.34097 Y33.63944
G01 X-39.24547 Y33.75580
G01 X-39.22400 Y33.87251
G01 X-39.22581 Y34.20101
G01 X-39.23498 Y33.85501
G01 X-39.25403 Y33.75933
G01 X-39.34610 Y33.64714
G01 X-39.48499 Y33.60500
G01 X-41.18499 Y33.60500
G01 X-41.28067 Y33.62405
G01 X-41.36177 Y33.67823
G01 X-41.42451 Y33.75583
G01 X-41.44597 Y33.87251
G01 X-41.44417 Y34.20101
G01 X-41.43017 Y33.80625
G01 X-41.32903 Y33.63944
G01 X-41.15369 Y33.56070
G01 X-41.07505 Y33.49352
G01 X-41.00736 Y33.38430
G01 X-40.98021 Y33.23254
G01 X-40.99042 Y33.15573
G01 X-41.02814 Y33.05938
G01 X-41.19469 Y32.87272
G01 X-41.31689 Y32.68984
G01 X-41.40040 Y32.48821
G01 X-41.44300 Y32.27414
G01 X-41.44300 Y32.05588
G01 X-41.40040 Y31.84181
G01 X-41.31689 Y31.64021
G01 X-41.19563 Y31.45870
G01 X-41.04031 Y31.30338
G01 X-40.87625 Y31.19114
G01 X-40.80955 Y31.12370
G01 X-40.75893 Y31.03927
G01 X-40.73022 Y30.89500
G01 X-40.75893 Y30.75075
G01 X-40.80955 Y30.66632
G01 X-40.87625 Y30.59889
G01 X-41.04031 Y30.48664
G01 X-41.19563 Y30.33132
G01 X-41.31689 Y30.14984
G01 X-41.40040 Y29.94821
G01 X-41.44300 Y29.73414
G01 X-41.44300 Y29.51588
G01 X-41.40040 Y29.30181
G01 X-41.31689 Y29.10019
G01 X-41.19563 Y28.91870
G01 X-41.04031 Y28.76338
G01 X-40.87625 Y28.65114
G01 X-40.80955 Y28.58370
G01 X-40.75893 Y28.49927
G01 X-40.73022 Y28.35500
G01 X-40.75893 Y28.21075
G01 X-40.80955 Y28.12632
G01 X-40.87625 Y28.05889
G01 X-41.04031 Y27.94664
G01 X-41.19563 Y27.79132
G01 X-41.31689 Y27.60981
G01 X-41.40040 Y27.40821
G01 X-41.44300 Y27.19414
G01 X-41.44300 Y26.97588
G01 X-41.40040 Y26.76181
G01 X-41.31689 Y26.56019
G01 X-41.19563 Y26.37870
G01 X-41.04130 Y26.22437
G01 X-40.85984 Y26.10311
G01 X-40.65819 Y26.01960
G01 X-40.44414 Y25.97703
G01 X-40.22583 Y25.97703
G01 X-40.01178 Y26.01960
G01 X-39.81013 Y26.10314
G01 X-39.56457 Y26.26283
G01 X-39.39797 Y26.30202
G01 X-35.33090 Y26.29476
G01 X-35.17535 Y26.22386
G01 X-34.94367 Y25.98747
G01 X-34.68492 Y25.80586
G01 X-34.60392 Y25.68429
G01 X-34.57522 Y25.54002
G01 X-34.60392 Y25.39575
G01 X-34.68492 Y25.27418
G01 X-34.94367 Y25.09255
G01 X-35.09178 Y24.94444
G01 X-35.20758 Y24.77119
G01 X-35.28733 Y24.57860
G01 X-35.32797 Y24.37421
G01 X-35.32797 Y24.16580
G01 X-35.28733 Y23.96141
G01 X-35.20758 Y23.76885
G01 X-35.09178 Y23.59557
G01 X-34.94367 Y23.44747
G01 X-34.68492 Y23.26586
G01 X-34.60392 Y23.14429
G01 X-34.57522 Y23.00002
G01 X-34.60392 Y22.85575
G01 X-34.68492 Y22.73418
G01 X-34.94367 Y22.55255
G01 X-35.09178 Y22.40444
G01 X-35.20758 Y22.23119
G01 X-35.28733 Y22.03860
G01 X-35.32797 Y21.83421
G01 X-35.32797 Y21.62580
G01 X-35.28733 Y21.42143
G01 X-35.20758 Y21.22885
G01 X-35.09178 Y21.05557
G01 X-34.94367 Y20.90747
G01 X-34.72180 Y20.75651
G01 X-34.65457 Y20.68870
G01 X-34.58970 Y20.55738
G01 X-34.57888 Y20.41072
G01 X-34.61566 Y20.29378
G01 X-34.66917 Y20.21161
G01 X-34.94367 Y20.01255
G01 X-35.09180 Y19.86444
G01 X-35.20758 Y19.69116
G01 X-35.28774 Y19.49764
G01 X-35.35622 Y19.19048
G01 X-35.43755 Y19.06914
G01 X-35.54862 Y18.99238
G01 X-35.64265 Y18.96386
G01 X-35.76557 Y18.96386
G01 X-35.85960 Y18.99238
G01 X-35.97070 Y19.06914
G01 X-39.34956 Y22.44163
G01 X-39.51275 Y22.67901
G01 X-39.66055 Y22.82682
G01 X-39.83381 Y22.94259
G01 X-40.02639 Y23.02237
G01 X-40.23076 Y23.06301
G01 X-40.43922 Y23.06301
G01 X-40.64356 Y23.02237
G01 X-40.83617 Y22.94259
G01 X-41.00942 Y22.82682
G01 X-41.15679 Y22.67945
G01 X-41.27259 Y22.50614
G01 X-41.35232 Y22.31361
G01 X-41.39299 Y22.10922
G01 X-41.39299 Y21.90081
G01 X-41.35232 Y21.69639
G01 X-41.27256 Y21.50386
G01 X-41.15679 Y21.33058
G01 X-41.00942 Y21.18321
G01 X-40.83612 Y21.06741
G01 X-40.64361 Y20.98768
G01 X-40.43919 Y20.94701
G01 X-40.23078 Y20.94701
G01 X-40.02639 Y20.98768
G01 X-39.68651 Y21.12537
G01 X-39.55151 Y21.12326
G01 X-39.45883 Y21.09007
G01 X-39.37772 Y21.03589
G01 X-35.38454 Y17.03590
G01 X-35.32465 Y16.87572
G01 X-35.32800 Y16.54580
G01 X-35.28733 Y16.34143
G01 X-35.20758 Y16.14885
G01 X-35.09178 Y15.97557
G01 X-34.94367 Y15.82747
G01 X-34.68492 Y15.64586
G01 X-34.60392 Y15.52429
G01 X-34.58002 Y15.42879
G01 X-34.58970 Y15.28264
G01 X-34.65457 Y15.15132
G01 X-34.72180 Y15.08350
G01 X-34.94367 Y14.93255
G01 X-35.09178 Y14.78444
G01 X-35.20758 Y14.61119
G01 X-35.28733 Y14.41858
G01 X-35.32797 Y14.21421
G01 X-35.32797 Y14.00580
G01 X-35.28733 Y13.80143
G01 X-35.20758 Y13.60885
G01 X-35.09178 Y13.43557
G01 X-34.94367 Y13.28747
G01 X-34.69376 Y13.11434
G01 X-34.63219 Y13.03910
G01 X-34.59671 Y12.96047
G01 X-34.57766 Y12.86478
G01 X-34.58038 Y12.77855
G01 X-34.61441 Y12.67357
G01 X-34.70489 Y12.55765
G01 X-34.94441 Y12.39181
G01 X-35.14248 Y12.18401
G01 X-35.24903 Y12.11167
G01 X-35.34296 Y12.08318
G01 X-39.03427 Y12.07802
G01 X-39.17869 Y12.10672
G01 X-39.30102 Y12.18843
G01 X-39.51321 Y12.51947
G01 X-39.66055 Y12.66682
G01 X-39.83381 Y12.78259
G01 X-40.02639 Y12.86237
G01 X-40.23081 Y12.90301
G01 X-40.43917 Y12.90301
G01 X-40.64358 Y12.86235
G01 X-40.83617 Y12.78259
G01 X-41.00942 Y12.66682
G01 X-41.15679 Y12.51945
G01 X-41.27259 Y12.34614
G01 X-41.35232 Y12.15361
G01 X-41.39299 Y11.94922
G01 X-41.39299 Y11.74081
G01 X-41.35232 Y11.53639
G01 X-41.27259 Y11.34388
G01 X-41.15679 Y11.17058
G01 X-41.00942 Y11.02321
G01 X-40.83614 Y10.90744
G01 X-40.64356 Y10.82765
G01 X-40.43919 Y10.78701
G01 X-40.23078 Y10.78701
G01 X-40.02639 Y10.82765
G01 X-39.83383 Y10.90744
G01 X-39.65436 Y11.02158
G01 X-39.57363 Y11.05209
G01 X-39.48811 Y11.06202
G01 X-35.40450 Y11.06202
G01 X-35.26023 Y11.03332
G01 X-35.14248 Y10.95603
G01 X-34.94367 Y10.74747
G01 X-34.68492 Y10.56586
G01 X-34.60392 Y10.44429
G01 X-34.57522 Y10.30002
G01 X-34.60392 Y10.15575
G01 X-34.65457 Y10.07132
G01 X-34.72180 Y10.00350
G01 X-34.94367 Y9.85255
G01 X-35.09178 Y9.70447
G01 X-35.20758 Y9.53116
G01 X-35.28733 Y9.33860
G01 X-35.32797 Y9.13421
G01 X-35.32797 Y8.92580
G01 X-35.28733 Y8.72141
G01 X-35.20758 Y8.52885
G01 X-35.09178 Y8.35557
G01 X-34.94441 Y8.20820
G01 X-34.77116 Y8.09243
G01 X-34.57860 Y8.01267
G01 X-34.37420 Y7.97201
G01 X-34.16577 Y7.97201
G01 X-33.96138 Y8.01267
G01 X-33.76882 Y8.09243
G01 X-33.59557 Y8.20820
G01 X-33.44820 Y8.35557
G01 X-33.33240 Y8.52888
G01 X-33.25264 Y8.72141
G01 X-33.21198 Y8.92580
G01 X-33.21198 Y9.13421
G01 X-33.25264 Y9.33863
G01 X-33.33240 Y9.53116
G01 X-33.44820 Y9.70444
G01 X-33.59630 Y9.85255
G01 X-33.85505 Y10.03418
G01 X-33.93605 Y10.15575
G01 X-33.96476 Y10.30002
G01 X-33.93605 Y10.44429
G01 X-33.85505 Y10.56586
G01 X-33.59630 Y10.74747
G01 X-33.44817 Y10.89557
G01 X-33.33240 Y11.06885
G01 X-33.25264 Y11.26141
G01 X-33.21198 Y11.46580
G01 X-33.21198 Y11.67421
G01 X-33.25264 Y11.87863
G01 X-33.33240 Y12.07116
G01 X-33.44820 Y12.24447
G01 X-33.59630 Y12.39255
G01 X-33.85505 Y12.57418
G01 X-33.91294 Y12.65252
G01 X-33.95996 Y12.79125
G01 X-33.95028 Y12.93738
G01 X-33.91294 Y13.02750
G01 X-33.85505 Y13.10586
G01 X-33.59630 Y13.28747
G01 X-33.44817 Y13.43557
G01 X-33.33240 Y13.60885
G01 X-33.25264 Y13.80141
G01 X-33.19138 Y14.08475
G01 X-33.11891 Y14.21271
G01 X-32.98013 Y14.31261
G01 X-32.88462 Y14.33651
G01 X-32.78658 Y14.33765
G01 X-32.66964 Y14.30088
G01 X-32.56928 Y14.23087
G01 X-20.60730 Y2.26519
G01 X-20.44032 Y2.15340
G01 X-20.24322 Y2.11439
G01 X-4.59674 Y2.11439
G01 X-4.39966 Y2.15340
G01 X-4.23268 Y2.26519
G01 X-4.02054 Y2.49142
G01 X-3.94434 Y2.67542
G01 X-3.93436 Y2.77677
G01 X-3.93436 Y10.24325
G01 X-3.97338 Y10.44035
G01 X-4.08516 Y10.60731
G01 X-4.88808 Y11.41683
G01 X-4.94780 Y11.57678
G01 X-4.93698 Y11.95414
G01 X-4.97957 Y12.16819
G01 X-5.06311 Y12.36987
G01 X-5.18435 Y12.55132
G01 X-5.33868 Y12.70565
G01 X-5.52013 Y12.82691
G01 X-5.72179 Y12.91043
G01 X-5.93586 Y12.95302
G01 X-6.15412 Y12.95302
G01 X-6.36819 Y12.91043
G01 X-6.56984 Y12.82691
G01 X-6.75130 Y12.70565
G01 X-6.90563 Y12.55132
G01 X-7.02689 Y12.36984
G01 X-7.11040 Y12.16819
G01 X-7.15300 Y11.95414
G01 X-7.15300 Y11.73588
G01 X-7.11040 Y11.52184
G01 X-7.02689 Y11.32019
G01 X-6.90563 Y11.13870
G01 X-6.75031 Y10.98338
G01 X-6.54955 Y10.84279
G01 X-6.48114 Y10.75425
G01 X-6.45087 Y10.68480
G01 X-6.43319 Y10.58521
G01 X-6.45729 Y10.43642
G01 X-6.53786 Y10.30896
G01 X-6.69989 Y10.19677
G01 X-6.86258 Y10.05011
G01 X-6.99222 Y9.87630
G01 X-7.07814 Y9.69593
G01 X-7.06209 Y9.41038
G01 X-7.07289 Y9.68603
G01 X-7.03801 Y9.77574
G01 X-6.93192 Y9.95529
G01 X-6.77723 Y10.12555
G01 X-6.57167 Y10.26951
G01 X-6.38490 Y10.35118
G01 X-6.13382 Y10.40035
G01 X-5.90416 Y10.39489
G01 X-5.70507 Y10.35118
G01 X-5.51831 Y10.26951
G01 X-5.30893 Y10.12247
G01 X-5.15506 Y9.95158
G01 X-5.03070 Y9.72799
G01 X-4.96494 Y9.50787
G01 X-4.94566 Y9.29212
G01 X-4.96494 Y9.10216
G01 X-5.03070 Y8.88204
G01 X-5.15506 Y8.65844
G01 X-5.29044 Y8.50607
G01 X-5.47304 Y8.36665
G01 X-5.68064 Y8.26822
G01 X-5.95615 Y8.20968
G01 X-6.18582 Y8.21514
G01 X-6.38490 Y8.25885
G01 X-6.57167 Y8.34051
G01 X-6.76070 Y8.47109
G01 X-6.93491 Y8.65844
G01 X-7.03801 Y8.83429
G01 X-7.11419 Y9.05103
G01 X-7.12884 Y9.13904
G01 X-7.06209 Y9.41038
G04 P0 ( dwell for no time -- G64 should not smooth over this point )
G00 Z2.00000 ( retract )

G00 X-7.12884 Y9.13904 ( rapid move to begin. )
G01 F20.00000
G01 Z-0.05000
G04 P0 ( dwell for no time -- G64 should not smooth over this point )
G01 F40.00000
G01 X-7.12884 Y9.13904
G01 X-7.26331 Y9.06949
G01 X-7.49026 Y9.05750
G01 X-7.62663 Y9.09545
G01 X-7.72699 Y9.16543
G01 X-10.50656 Y11.94503
G01 X-10.58830 Y12.06733
G01 X-10.61700 Y12.21175
G01 X-10.61182 Y15.85203
G01 X-10.58332 Y15.94598
G01 X-10.53765 Y16.01919
G01 X-10.30318 Y16.25058
G01 X-10.18738 Y16.42388
G01 X-10.10765 Y16.61639
G01 X-10.06699 Y16.82081
G01 X-10.06699 Y17.02922
G01 X-10.10765 Y17.23361
G01 X-10.18741 Y17.42617
G01 X-10.30318 Y17.59945
G01 X-10.45055 Y17.74682
G01 X-10.62383 Y17.86259
G01 X-10.81639 Y17.94235
G01 X-11.02078 Y17.98301
G01 X-11.22919 Y17.98301
G01 X-11.43358 Y17.94235
G01 X-11.62614 Y17.86259
G01 X-11.79942 Y17.74682
G01 X-11.94679 Y17.59945
G01 X-12.06256 Y17.42617
G01 X-12.14232 Y17.23361
G01 X-12.18299 Y17.02922
G01 X-12.18299 Y16.82081
G01 X-12.14232 Y16.61639
G01 X-12.06256 Y16.42386
G01 X-11.94679 Y16.25058
G01 X-11.71113 Y16.01964
G01 X-11.67341 Y15.95673
G01 X-11.63663 Y15.83978
G01 X-11.63562 Y11.84678
G01 X-11.59660 Y11.64967
G01 X-11.48484 Y11.48272
G01 X-7.20205 Y7.19337
G01 X-7.14218 Y7.03325
G01 X-7.15300 Y6.65588
G01 X-7.11040 Y6.44184
G01 X-7.02689 Y6.24019
G01 X-6.90469 Y6.05728
G01 X-6.73814 Y5.87064
G01 X-6.70042 Y5.77430
G01 X-6.69021 Y5.69749
G01 X-6.71736 Y5.54572
G01 X-6.78505 Y5.43650
G01 X-6.86369 Y5.36932
G01 X-7.03903 Y5.29058
G01 X-7.13451 Y5.17422
G01 X-7.15595 Y5.05756
G01 X-7.15417 Y4.72901
G01 X-7.14500 Y5.07501
G01 X-7.12595 Y5.17069
G01 X-7.07177 Y5.25179
G01 X-6.94375 Y5.32020
G01 X-5.19499 Y5.32502
G01 X-5.05610 Y5.28288
G01 X-4.98712 Y5.21390
G01 X-4.94498 Y5.07501
G04 P0 ( dwell for no time -- G64 should not smooth over this point )
G00 Z2.00000 ( retract )

G00 X-4.94566 Y6.75212 ( rapid move to begin. )
G01 F20.00000
G01 Z-0.05000
G04 P0 ( dwell for no time -- G64 should not smooth over this point )
G01 F40.00000
G01 X-4.94566 Y6.75212
G01 X-4.97579 Y6.51103
G01 X-5.05196 Y6.29429
G01 X-5.14081 Y6.14039
G01 X-5.30893 Y5.94755
G01 X-5.51831 Y5.80051
G01 X-5.70507 Y5.71885
G01 X-5.90416 Y5.67514
G01 X-6.18582 Y5.67514
G01 X-6.40934 Y5.72822
G01 X-6.57167 Y5.80051
G01 X-6.76070 Y5.93109
G01 X-6.94916 Y6.14039
G01 X-7.03801 Y6.29429
G01 X-7.11419 Y6.51103
G01 X-7.14500 Y6.76500
G01 X-7.12503 Y6.96787
G01 X-7.08767 Y7.10058
G01 X-11.47854 Y11.49146
G01 X-11.55335 Y11.58828
G01 X-11.60943 Y11.72366
G01 X-11.62500 Y11.84500
G01 X-11.62500 Y16.00306
G01 X-11.82756 Y16.14471
G01 X-11.98870 Y16.32978
G01 X-12.09358 Y16.52236
G01 X-12.14527 Y16.68144
G01 X-12.17499 Y16.92500
G01 X-12.14527 Y17.16859
G01 X-12.09358 Y17.32767
G01 X-11.98870 Y17.52025
G01 X-11.82756 Y17.70531
G01 X-11.64999 Y17.83435
G01 X-11.44946 Y17.92363
G01 X-11.20862 Y17.97064
G01 X-11.04136 Y17.97064
G01 X-10.82579 Y17.93038
G01 X-10.62330 Y17.84621
G01 X-10.42241 Y17.70531
G01 X-10.27552 Y17.54219
G01 X-10.15640 Y17.32767
G01 X-10.09384 Y17.11748
G01 X-10.07499 Y16.92500
G01 X-10.09384 Y16.73254
G01 X-10.17766 Y16.47463
G01 X-10.27552 Y16.30783
G01 X-10.40389 Y16.16320
G01 X-10.62498 Y16.00306
G01 X-10.62498 Y12.05211
G01 X-6.38422 Y7.81135
G01 X-6.13382 Y7.86035
G01 X-5.90416 Y7.85489
G01 X-5.73034 Y7.81796
G01 X-5.51831 Y7.72951
G01 X-5.30893 Y7.58247
G01 X-5.15506 Y7.41158
G01 X-5.03070 Y7.18799
G01 X-4.96494 Y6.96787
G01 X-4.94566 Y6.75212
G04 P0 ( dwell for no time -- G64 should not smooth over this point )
G00 Z2.00000 ( retract )

G00 X-2.27498 Y18.32502 ( rapid move to begin. )
G01 F20.00000
G01 Z-0.05000
G04 P0 ( dwell for no time -- G64 should not smooth over this point )
G01 F40.00000
G01 X-2.27498 Y18.32502
G01 X-2.30470 Y18.56861
G01 X-2.37765 Y18.77539
G01 X-2.47549 Y18.94219
G01 X-2.64275 Y19.12180
G01 X-2.80000 Y19.23434
G01 X-2.97610 Y19.31425
G01 X-3.24137 Y19.37064
G01 X-3.46058 Y19.36518
G01 X-3.62418 Y19.33041
G01 X-3.84147 Y19.23861
G01 X-5.00230 Y20.39944
G01 X-4.96494 Y20.53216
G01 X-4.94635 Y20.76114
G01 X-4.97579 Y20.98900
G01 X-5.05196 Y21.20574
G01 X-5.15506 Y21.38158
G01 X-5.30893 Y21.55247
G01 X-5.51831 Y21.69951
G01 X-5.73034 Y21.78796
G01 X-5.90416 Y21.82489
G01 X-6.13382 Y21.83035
G01 X-6.35963 Y21.78796
G01 X-6.57167 Y21.69951
G01 X-6.76070 Y21.56893
G01 X-6.93491 Y21.38158
G01 X-7.03801 Y21.20574
G01 X-7.11419 Y20.98900
G01 X-7.14500 Y20.73500
G01 X-7.11419 Y20.48103
G01 X-7.03801 Y20.26429
G01 X-6.93491 Y20.08844
G01 X-6.78104 Y19.91755
G01 X-6.57167 Y19.77051
G01 X-6.35963 Y19.68207
G01 X-6.18582 Y19.64514
G01 X-5.95615 Y19.63968
G01 X-5.70576 Y19.68867
G01 X-4.94498 Y18.92792
G01 X-4.94498 Y17.63412
G01 X-5.48409 Y17.09500
G01 X-6.55689 Y17.09500
G01 X-10.12043 Y20.65857
G01 X-10.26046 Y20.75646
G01 X-10.35264 Y20.78943
G01 X-10.47400 Y20.80500
G01 X-13.23498 Y20.80500
G01 X-13.35634 Y20.78943
G01 X-13.49172 Y20.73335
G01 X-13.58855 Y20.65857
G01 X-14.96213 Y19.28329
G01 X-15.06230 Y19.11616
G01 X-15.09210 Y18.94791
G01 X-15.08608 Y13.79684
G01 X-15.04353 Y13.65660
G01 X-14.96213 Y13.53473
G01 X-13.83498 Y12.40591
G01 X-13.83498 Y8.74412
G01 X-14.73647 Y7.84262
G01 X-14.84615 Y7.86035
G01 X-15.07582 Y7.85489
G01 X-15.27490 Y7.81118
G01 X-15.46167 Y7.72951
G01 X-15.68953 Y7.56396
G01 X-15.82491 Y7.41158
G01 X-15.91110 Y7.26500
G01 X-18.85188 Y7.26502
G01 X-29.84262 Y18.25576
G01 X-29.84864 Y33.11593
G01 X-29.89118 Y33.25616
G01 X-29.98907 Y33.39621
G01 X-33.26676 Y36.67391
G01 X-33.23885 Y36.77754
G01 X-33.21998 Y36.97002
G01 X-33.23885 Y37.16248
G01 X-33.26676 Y37.26613
G01 X-31.24787 Y39.28503
G01 X-27.28369 Y39.28500
G01 X-27.21445 Y39.16783
G01 X-27.06756 Y39.00471
G01 X-26.88999 Y38.87568
G01 X-26.71389 Y38.79577
G01 X-26.50059 Y38.74487
G01 X-26.28136 Y38.73938
G01 X-26.01608 Y38.79577
G01 X-25.83998 Y38.87568
G01 X-25.64389 Y39.02320
G01 X-25.50127 Y39.18978
G01 X-25.39640 Y39.38236
G01 X-25.34471 Y39.54144
G01 X-25.31499 Y39.78500
G01 X-25.33384 Y39.97748
G01 X-25.39640 Y40.18767
G01 X-25.53198 Y40.42251
G01 X-25.66241 Y40.56531
G01 X-25.81804 Y40.68010
G01 X-26.01608 Y40.77425
G01 X-26.22939 Y40.82516
G01 X-26.44862 Y40.83064
G01 X-26.68946 Y40.78363
G01 X-26.91194 Y40.68010
G01 X-27.08608 Y40.54682
G01 X-27.21445 Y40.40219
G01 X-27.28369 Y40.28502
G01 X-31.45498 Y40.28502
G01 X-31.57634 Y40.26945
G01 X-31.66852 Y40.23646
G01 X-31.80855 Y40.13857
G01 X-33.97154 Y37.97555
G01 X-34.18637 Y38.01564
G01 X-34.35360 Y38.01564
G01 X-34.59445 Y37.96862
G01 X-34.81693 Y37.86509
G01 X-34.97258 Y37.75031
G01 X-35.10298 Y37.60753
G01 X-35.23859 Y37.37266
G01 X-35.29028 Y37.21361
G01 X-35.31863 Y36.99616
G01 X-35.29028 Y36.72643
G01 X-35.20423 Y36.49689
G01 X-37.72612 Y33.96649
G01 X-37.79520 Y33.83726
G01 X-37.81898 Y33.74229
G01 X-37.82500 Y33.24696
G01 X-38.02756 Y33.10531
G01 X-38.15799 Y32.96253
G01 X-38.27234 Y32.77541
G01 X-38.31395 Y32.66500
G01 X-39.35888 Y32.66500
G01 X-39.44506 Y32.81158
G01 X-39.58044 Y32.96396
G01 X-39.80831 Y33.12951
G01 X-40.02034 Y33.21796
G01 X-40.19416 Y33.25489
G01 X-40.42382 Y33.26035
G01 X-40.69934 Y33.20180
G01 X-40.86167 Y33.12951
G01 X-41.05070 Y32.99893
G01 X-41.22491 Y32.81158
G01 X-41.34927 Y32.58799
G01 X-41.41503 Y32.36787
G01 X-41.43500 Y32.16500
G01 X-41.40419 Y31.91103
G01 X-41.32801 Y31.69429
G01 X-41.22491 Y31.51844
G01 X-41.07104 Y31.34755
G01 X-40.86167 Y31.20051
G01 X-40.64963 Y31.11207
G01 X-40.47582 Y31.07514
G01 X-40.24615 Y31.06968
G01 X-39.97064 Y31.12822
G01 X-39.76304 Y31.22665
G01 X-39.59893 Y31.34755
G01 X-39.44506 Y31.51844
G01 X-39.35888 Y31.66500
G01 X-38.13775 Y31.66500
G01 X-38.02756 Y31.54471
G01 X-37.84999 Y31.41567
G01 X-37.64946 Y31.32639
G01 X-37.40862 Y31.27940
G01 X-37.18939 Y31.28486
G01 X-37.02579 Y31.31964
G01 X-36.82330 Y31.40381
G01 X-36.62241 Y31.54471
G01 X-36.46127 Y31.72980
G01 X-36.37765 Y31.87463
G01 X-36.30471 Y32.08143
G01 X-36.27499 Y32.32502
G01 X-36.30471 Y32.56861
G01 X-36.37765 Y32.77541
G01 X-36.47552 Y32.94219
G01 X-36.60389 Y33.08682
G01 X-36.82500 Y33.24696
G01 X-36.82500 Y33.46190
G01 X-34.36166 Y35.92524
G01 X-34.18637 Y35.92440
G01 X-33.97156 Y35.96446
G01 X-30.84264 Y32.83553
G01 X-30.84264 Y18.04865
G01 X-30.82707 Y17.92731
G01 X-30.79407 Y17.83513
G01 X-30.69618 Y17.69510
G01 X-19.41254 Y6.41146
G01 X-19.31574 Y6.33665
G01 X-19.22724 Y6.29480
G01 X-19.05899 Y6.26500
G01 X-15.91110 Y6.26500
G01 X-15.82491 Y6.11844
G01 X-15.67104 Y5.94755
G01 X-15.50693 Y5.82665
G01 X-15.29934 Y5.72822
G01 X-15.02382 Y5.66968
G01 X-14.79416 Y5.67514
G01 X-14.59507 Y5.71885
G01 X-14.40831 Y5.80051
G01 X-14.19893 Y5.94755
G01 X-14.04506 Y6.11844
G01 X-13.92070 Y6.34204
G01 X-13.85494 Y6.56216
G01 X-13.83498 Y6.76500
G01 X-13.86579 Y7.01900
G01 X-13.93767 Y7.22723
G01 X-12.98144 Y8.18346
G01 X-12.88354 Y8.32349
G01 X-12.85055 Y8.41567
G01 X-12.83498 Y8.53701
G01 X-12.83498 Y12.61302
G01 X-12.85055 Y12.73436
G01 X-12.90663 Y12.86976
G01 X-12.98144 Y12.96656
G01 X-14.09210 Y14.07723
G01 X-14.09210 Y18.74080
G01 X-13.02789 Y19.80500
G01 X-10.68108 Y19.80500
G01 X-7.11754 Y16.24146
G01 X-6.97751 Y16.14357
G01 X-6.83728 Y16.10102
G01 X-5.27698 Y16.09500
G01 X-5.15564 Y16.11057
G01 X-5.06347 Y16.14357
G01 X-4.92344 Y16.24146
G01 X-4.07495 Y17.09162
G01 X-3.97477 Y17.25878
G01 X-3.95100 Y17.35373
G01 X-3.94498 Y17.48301
G01 X-3.84998 Y17.41568
G01 X-3.64945 Y17.32640
G01 X-3.46058 Y17.28487
G01 X-3.24137 Y17.27941
G01 X-2.97610 Y17.33577
G01 X-2.80000 Y17.41568
G01 X-2.64275 Y17.52825
G01 X-2.47549 Y17.70783
G01 X-2.37765 Y17.87463
G01 X-2.30470 Y18.08144
G01 X-2.27498 Y18.32502
G04 P0 ( dwell for no time -- G64 should not smooth over this point )
G00 Z2.00000 ( retract )

G00 X-4.94566 Y18.18210 ( rapid move to begin. )
G01 F20.00000
G01 Z-0.05000
G04 P0 ( dwell for no time -- G64 should not smooth over this point )
G01 F40.00000
G01 X-4.94566 Y18.18210
G01 X-4.97579 Y17.94103
G01 X-5.05196 Y17.72429
G01 X-5.14081 Y17.57039
G01 X-5.30893 Y17.37755
G01 X-5.51831 Y17.23051
G01 X-5.70507 Y17.14885
G01 X-5.90416 Y17.10514
G01 X-6.18582 Y17.10514
G01 X-6.40934 Y17.15822
G01 X-6.57167 Y17.23051
G01 X-6.76070 Y17.36109
G01 X-6.94916 Y17.57039
G01 X-7.03801 Y17.72429
G01 X-7.11419 Y17.94103
G01 X-7.14500 Y18.19500
G01 X-7.12503 Y18.39787
G01 X-7.08767 Y18.53058
G01 X-10.67931 Y22.12222
G01 X-12.32672 Y22.12344
G01 X-12.47046 Y22.15202
G01 X-12.59970 Y22.22110
G01 X-18.73156 Y28.34446
G01 X-18.94637 Y28.30440
G01 X-19.11360 Y28.30440
G01 X-19.37888 Y28.36079
G01 X-19.55498 Y28.44067
G01 X-19.73258 Y28.56971
G01 X-19.87947 Y28.73282
G01 X-19.94868 Y28.85002
G01 X-25.65858 Y28.85002
G01 X-25.83998 Y28.71568
G01 X-26.04051 Y28.62640
G01 X-26.28136 Y28.57938
G01 X-26.50059 Y28.58487
G01 X-26.68946 Y28.62640
G01 X-26.91194 Y28.72993
G01 X-27.08608 Y28.86320
G01 X-27.21445 Y29.00783
G01 X-27.31232 Y29.17463
G01 X-27.38527 Y29.38144
G01 X-27.41499 Y29.62500
G01 X-27.38527 Y29.86859
G01 X-27.31232 Y30.07539
G01 X-27.21445 Y30.24219
G01 X-27.08608 Y30.38682
G01 X-26.91194 Y30.52010
G01 X-26.68946 Y30.62363
G01 X-26.44862 Y30.67064
G01 X-26.22939 Y30.66516
G01 X-26.04051 Y30.62363
G01 X-25.83998 Y30.53435
G01 X-25.68273 Y30.42177
G01 X-25.50127 Y30.22025
G01 X-25.39640 Y30.02767
G01 X-25.34075 Y29.85002
G01 X-19.94868 Y29.85002
G01 X-19.87947 Y29.96719
G01 X-19.73258 Y30.13031
G01 X-19.55498 Y30.25934
G01 X-19.35445 Y30.34862
G01 X-19.11360 Y30.39564
G01 X-18.89438 Y30.39017
G01 X-18.70553 Y30.34862
G01 X-18.50500 Y30.25934
G01 X-18.32740 Y30.13031
G01 X-18.19700 Y29.98753
G01 X-18.06138 Y29.75266
G01 X-17.99885 Y29.54248
G01 X-17.97998 Y29.35002
G01 X-17.99885 Y29.15754
G01 X-18.02676 Y29.05391
G01 X-12.09510 Y23.12224
G01 X-10.44771 Y23.12103
G01 X-10.30397 Y23.09245
G01 X-10.17471 Y23.02336
G01 X-6.38422 Y19.24135
G01 X-6.13382 Y19.29035
G01 X-5.90416 Y19.28489
G01 X-5.73034 Y19.24796
G01 X-5.51831 Y19.15951
G01 X-5.30893 Y19.01247
G01 X-5.15506 Y18.84158
G01 X-5.03070 Y18.61799
G01 X-4.96494 Y18.39787
G01 X-4.94566 Y18.18210
G04 P0 ( dwell for no time -- G64 should not smooth over this point )
G00 Z2.00000 ( retract )

G00 X-13.83566 Y9.29212 ( rapid move to begin. )
G01 F20.00000
G01 Z-0.05000
G04 P0 ( dwell for no time -- G64 should not smooth over this point )
G01 F40.00000
G01 X-13.83566 Y9.29212
G01 X-13.85494 Y9.50787
G01 X-13.92070 Y9.72799
G01 X-14.04506 Y9.95158
G01 X-14.19893 Y10.12247
G01 X-14.40831 Y10.26951
G01 X-14.59507 Y10.35118
G01 X-14.79416 Y10.39489
G01 X-15.02382 Y10.40035
G01 X-15.27490 Y10.35118
G01 X-15.50693 Y10.24338
G01 X-15.68953 Y10.10396
G01 X-15.82491 Y9.95158
G01 X-15.91110 Y9.80502
G01 X-18.32356 Y9.80502
G01 X-18.50500 Y9.93934
G01 X-18.73080 Y10.03540
G01 X-18.89438 Y10.07017
G01 X-19.11360 Y10.07564
G01 X-19.35445 Y10.02862
G01 X-19.55498 Y9.93934
G01 X-19.71223 Y9.82679
G01 X-19.87947 Y9.64719
G01 X-19.97733 Y9.48041
G01 X-20.05028 Y9.27361
G01 X-20.08000 Y9.03002
G01 X-20.05028 Y8.78643
G01 X-19.97733 Y8.57963
G01 X-19.87947 Y8.41282
G01 X-19.73258 Y8.24971
G01 X-19.55498 Y8.12067
G01 X-19.35445 Y8.03139
G01 X-19.16560 Y7.98986
G01 X-18.94637 Y7.98440
G01 X-18.68109 Y8.04079
G01 X-18.50500 Y8.12067
G01 X-18.32740 Y8.24971
G01 X-18.16626 Y8.43480
G01 X-18.06138 Y8.62738
G01 X-18.00576 Y8.80500
G01 X-15.91110 Y8.80503
G01 X-15.82491 Y8.65844
G01 X-15.67104 Y8.48755
G01 X-15.50693 Y8.36665
G01 X-15.29934 Y8.26822
G01 X-15.02382 Y8.20968
G01 X-14.79416 Y8.21514
G01 X-14.62034 Y8.25207
G01 X-14.36304 Y8.36665
G01 X-14.19893 Y8.48755
G01 X-14.04506 Y8.65844
G01 X-13.92070 Y8.88204
G01 X-13.85494 Y9.10216
G01 X-13.83566 Y9.29212
G04 P0 ( dwell for no time -- G64 should not smooth over this point )
G00 Z2.00000 ( retract )

G00 X-13.83566 Y11.83212 ( rapid move to begin. )
G01 F20.00000
G01 Z-0.05000
G04 P0 ( dwell for no time -- G64 should not smooth over this point )
G01 F40.00000
G01 X-13.83566 Y11.83212
G01 X-13.85494 Y11.64216
G01 X-13.92070 Y11.42204
G01 X-14.04506 Y11.19844
G01 X-14.19893 Y11.02755
G01 X-14.36304 Y10.90665
G01 X-14.62034 Y10.79207
G01 X-14.79416 Y10.75514
G01 X-15.02382 Y10.74968
G01 X-15.29934 Y10.80822
G01 X-15.50693 Y10.90665
G01 X-15.67104 Y11.02755
G01 X-15.82491 Y11.19844
G01 X-15.91110 Y11.34500
G01 X-18.00576 Y11.34500
G01 X-18.06138 Y11.16738
G01 X-18.16626 Y10.97480
G01 X-18.32740 Y10.78971
G01 X-18.50500 Y10.66067
G01 X-18.68109 Y10.58079
G01 X-18.94637 Y10.52440
G01 X-19.16560 Y10.52986
G01 X-19.35445 Y10.57139
G01 X-19.55498 Y10.66067
G01 X-19.73258 Y10.78971
G01 X-19.87947 Y10.95282
G01 X-19.97733 Y11.11963
G01 X-20.05028 Y11.32643
G01 X-20.08000 Y11.57002
G01 X-20.05028 Y11.81361
G01 X-19.97733 Y12.02041
G01 X-19.87947 Y12.18719
G01 X-19.71223 Y12.36679
G01 X-19.55498 Y12.47934
G01 X-19.35445 Y12.56862
G01 X-19.11360 Y12.61564
G01 X-18.89438 Y12.61017
G01 X-18.73080 Y12.57540
G01 X-18.50500 Y12.47934
G01 X-18.32356 Y12.34502
G01 X-15.91110 Y12.34502
G01 X-15.82491 Y12.49158
G01 X-15.68953 Y12.64396
G01 X-15.50693 Y12.78338
G01 X-15.27490 Y12.89118
G01 X-15.02382 Y12.94035
G01 X-14.79416 Y12.93489
G01 X-14.59507 Y12.89118
G01 X-14.40831 Y12.80951
G01 X-14.19893 Y12.66247
G01 X-14.04506 Y12.49158
G01 X-13.92070 Y12.26799
G01 X-13.85494 Y12.04787
G01 X-13.83566 Y11.83212
G04 P0 ( dwell for no time -- G64 should not smooth over this point )
G00 Z2.00000 ( retract )

G00 X-17.97998 Y14.11002 ( rapid move to begin. )
G01 F20.00000
G01 Z-0.05000
G04 P0 ( dwell for no time -- G64 should not smooth over this point )
G01 F40.00000
G01 X-17.97998 Y14.11002
G01 X-17.99885 Y13.91754
G01 X-18.06138 Y13.70738
G01 X-18.18051 Y13.49282
G01 X-18.30891 Y13.34822
G01 X-18.52831 Y13.18881
G01 X-18.70553 Y13.11139
G01 X-18.94637 Y13.06440
G01 X-19.16560 Y13.06986
G01 X-19.35445 Y13.11139
G01 X-19.55498 Y13.20067
G01 X-19.73258 Y13.32971
G01 X-19.87947 Y13.49282
G01 X-19.97733 Y13.65963
G01 X-20.05028 Y13.86643
G01 X-20.08000 Y14.11002
G01 X-20.06113 Y14.30248
G01 X-19.99859 Y14.51266
G01 X-19.87947 Y14.72719
G01 X-19.75107 Y14.87182
G01 X-19.53166 Y15.03123
G01 X-19.35445 Y15.10862
G01 X-19.11360 Y15.15564
G01 X-18.89438 Y15.15017
G01 X-18.70553 Y15.10862
G01 X-18.50500 Y15.01934
G01 X-18.32740 Y14.89031
G01 X-18.18051 Y14.72719
G01 X-18.08264 Y14.56041
G01 X-18.00970 Y14.35361
G01 X-17.97998 Y14.11002
G04 P0 ( dwell for no time -- G64 should not smooth over this point )
G00 Z2.00000 ( retract )

G00 X-17.97998 Y16.65002 ( rapid move to begin. )
G01 F20.00000
G01 Z-0.05000
G04 P0 ( dwell for no time -- G64 should not smooth over this point )
G01 F40.00000
G01 X-17.97998 Y16.65002
G01 X-17.99885 Y16.45754
G01 X-18.06138 Y16.24738
G01 X-18.18051 Y16.03282
G01 X-18.30891 Y15.88822
G01 X-18.52831 Y15.72881
G01 X-18.70553 Y15.65139
G01 X-18.94637 Y15.60440
G01 X-19.16560 Y15.60986
G01 X-19.35445 Y15.65139
G01 X-19.55498 Y15.74067
G01 X-19.73258 Y15.86971
G01 X-19.87947 Y16.03282
G01 X-19.97733 Y16.19963
G01 X-20.05028 Y16.40643
G01 X-20.08000 Y16.65002
G01 X-20.06113 Y16.84248
G01 X-19.99859 Y17.05266
G01 X-19.87947 Y17.26719
G01 X-19.75107 Y17.41182
G01 X-19.53166 Y17.57123
G01 X-19.35445 Y17.64862
G01 X-19.11360 Y17.69564
G01 X-18.89438 Y17.69017
G01 X-18.70553 Y17.64862
G01 X-18.50500 Y17.55934
G01 X-18.32740 Y17.43031
G01 X-18.18051 Y17.26719
G01 X-18.08264 Y17.10041
G01 X-18.00970 Y16.89361
G01 X-17.97998 Y16.65002
G04 P0 ( dwell for no time -- G64 should not smooth over this point )
G00 Z2.00000 ( retract )

G00 X-17.97998 Y19.19002 ( rapid move to begin. )
G01 F20.00000
G01 Z-0.05000
G04 P0 ( dwell for no time -- G64 should not smooth over this point )
G01 F40.00000
G01 X-17.97998 Y19.19002
G01 X-17.99885 Y18.99754
G01 X-18.06138 Y18.78738
G01 X-18.18051 Y18.57282
G01 X-18.30891 Y18.42822
G01 X-18.52831 Y18.26881
G01 X-18.70553 Y18.19139
G01 X-18.94637 Y18.14440
G01 X-19.16560 Y18.14986
G01 X-19.35445 Y18.19139
G01 X-19.55498 Y18.28067
G01 X-19.73258 Y18.40971
G01 X-19.87947 Y18.57282
G01 X-19.97733 Y18.73963
G01 X-20.05028 Y18.94643
G01 X-20.08000 Y19.19002
G01 X-20.06113 Y19.38248
G01 X-19.99859 Y19.59266
G01 X-19.87947 Y19.80719
G01 X-19.75107 Y19.95182
G01 X-19.53166 Y20.11123
G01 X-19.35445 Y20.18862
G01 X-19.11360 Y20.23564
G01 X-18.89438 Y20.23017
G01 X-18.70553 Y20.18862
G01 X-18.50500 Y20.09934
G01 X-18.32740 Y19.97031
G01 X-18.18051 Y19.80719
G01 X-18.08264 Y19.64041
G01 X-18.00970 Y19.43361
G01 X-17.97998 Y19.19002
G04 P0 ( dwell for no time -- G64 should not smooth over this point )
G00 Z2.00000 ( retract )

G00 X-17.97998 Y21.73002 ( rapid move to begin. )
G01 F20.00000
G01 Z-0.05000
G04 P0 ( dwell for no time -- G64 should not smooth over this point )
G01 F40.00000
G01 X-17.97998 Y21.73002
G01 X-17.99885 Y21.53754
G01 X-18.06138 Y21.32738
G01 X-18.18051 Y21.11282
G01 X-18.30891 Y20.96822
G01 X-18.52831 Y20.80881
G01 X-18.70553 Y20.73139
G01 X-18.94637 Y20.68440
G01 X-19.16560 Y20.68986
G01 X-19.35445 Y20.73139
G01 X-19.55498 Y20.82067
G01 X-19.73258 Y20.94971
G01 X-19.87947 Y21.11282
G01 X-19.97733 Y21.27963
G01 X-20.05028 Y21.48643
G01 X-20.08000 Y21.73002
G01 X-20.06113 Y21.92248
G01 X-19.99859 Y22.13266
G01 X-19.87947 Y22.34719
G01 X-19.75107 Y22.49182
G01 X-19.53166 Y22.65123
G01 X-19.35445 Y22.72862
G01 X-19.11360 Y22.77564
G01 X-18.89438 Y22.77017
G01 X-18.70553 Y22.72862
G01 X-18.50500 Y22.63934
G01 X-18.32740 Y22.51031
G01 X-18.18051 Y22.34719
G01 X-18.08264 Y22.18041
G01 X-18.00970 Y21.97361
G01 X-17.97998 Y21.73002
G04 P0 ( dwell for no time -- G64 should not smooth over this point )
G00 Z2.00000 ( retract )

G00 X-17.97998 Y24.27002 ( rapid move to begin. )
G01 F20.00000
G01 Z-0.05000
G04 P0 ( dwell for no time -- G64 should not smooth over this point )
G01 F40.00000
G01 X-17.97998 Y24.27002
G01 X-17.99885 Y24.07754
G01 X-18.06138 Y23.86738
G01 X-18.18051 Y23.65282
G01 X-18.30891 Y23.50822
G01 X-18.52831 Y23.34881
G01 X-18.70553 Y23.27139
G01 X-18.94637 Y23.22440
G01 X-19.16560 Y23.22986
G01 X-19.35445 Y23.27139
G01 X-19.55498 Y23.36067
G01 X-19.73258 Y23.48971
G01 X-19.87947 Y23.65282
G01 X-19.97733 Y23.81963
G01 X-20.05028 Y24.02643
G01 X-20.08000 Y24.27002
G01 X-20.06113 Y24.46248
G01 X-19.99859 Y24.67266
G01 X-19.87947 Y24.88719
G01 X-19.75107 Y25.03182
G01 X-19.53166 Y25.19123
G01 X-19.35445 Y25.26862
G01 X-19.11360 Y25.31564
G01 X-18.89438 Y25.31017
G01 X-18.70553 Y25.26862
G01 X-18.50500 Y25.17934
G01 X-18.32740 Y25.05031
G01 X-18.18051 Y24.88719
G01 X-18.08264 Y24.72041
G01 X-18.00970 Y24.51361
G01 X-17.97998 Y24.27002
G04 P0 ( dwell for no time -- G64 should not smooth over this point )
G00 Z2.00000 ( retract )

G00 X-17.97998 Y26.81002 ( rapid move to begin. )
G01 F20.00000
G01 Z-0.05000
G04 P0 ( dwell for no time -- G64 should not smooth over this point )
G01 F40.00000
G01 X-17.97998 Y26.81002
G01 X-17.99885 Y26.61754
G01 X-18.06138 Y26.40738
G01 X-18.18051 Y26.19282
G01 X-18.30891 Y26.04822
G01 X-18.52831 Y25.88881
G01 X-18.70553 Y25.81139
G01 X-18.94637 Y25.76440
G01 X-19.16560 Y25.76986
G01 X-19.35445 Y25.81139
G01 X-19.55498 Y25.90067
G01 X-19.73258 Y26.02971
G01 X-19.87947 Y26.19282
G01 X-19.97733 Y26.35963
G01 X-20.05028 Y26.56643
G01 X-20.08000 Y26.81002
G01 X-20.06113 Y27.00248
G01 X-19.99859 Y27.21266
G01 X-19.87947 Y27.42719
G01 X-19.75107 Y27.57182
G01 X-19.53166 Y27.73123
G01 X-19.35445 Y27.80862
G01 X-19.11360 Y27.85564
G01 X-18.89438 Y27.85017
G01 X-18.70553 Y27.80862
G01 X-18.50500 Y27.71934
G01 X-18.32740 Y27.59031
G01 X-18.18051 Y27.42719
G01 X-18.08264 Y27.26041
G01 X-18.00970 Y27.05361
G01 X-17.97998 Y26.81002
G04 P0 ( dwell for no time -- G64 should not smooth over this point )
G00 Z2.00000 ( retract )

G00 X-10.07499 Y27.08500 ( rapid move to begin. )
G01 F20.00000
G01 Z-0.05000
G04 P0 ( dwell for no time -- G64 should not smooth over this point )
G01 F40.00000
G01 X-10.07499 Y27.08500
G01 X-10.09384 Y27.27748
G01 X-10.15640 Y27.48767
G01 X-10.27552 Y27.70219
G01 X-10.42241 Y27.86531
G01 X-10.59998 Y27.99435
G01 X-10.82579 Y28.09038
G01 X-11.04136 Y28.13064
G01 X-11.20862 Y28.13064
G01 X-11.42342 Y28.09056
G01 X-18.01127 Y34.67841
G01 X-18.08264 Y34.88041
G01 X-18.16626 Y35.02524
G01 X-18.32740 Y35.21031
G01 X-18.50500 Y35.33934
G01 X-18.70553 Y35.42862
G01 X-18.89438 Y35.47017
G01 X-19.11360 Y35.47564
G01 X-19.35445 Y35.42862
G01 X-19.55498 Y35.33934
G01 X-19.73258 Y35.21031
G01 X-19.86298 Y35.06753
G01 X-19.97733 Y34.88041
G01 X-20.05028 Y34.67361
G01 X-20.07863 Y34.40388
G01 X-20.05028 Y34.18643
G01 X-19.97733 Y33.97963
G01 X-19.87947 Y33.81282
G01 X-19.75107 Y33.66822
G01 X-19.53166 Y33.50881
G01 X-19.35445 Y33.43139
G01 X-19.11360 Y33.38440
G01 X-18.89438 Y33.38986
G01 X-18.70553 Y33.43139
G01 X-18.50500 Y33.52067
G01 X-18.36662 Y33.61953
G01 X-12.12820 Y27.38111
G01 X-12.15614 Y27.27748
G01 X-12.17499 Y27.08500
G01 X-12.14527 Y26.84144
G01 X-12.09358 Y26.68236
G01 X-11.98870 Y26.48978
G01 X-11.82756 Y26.30471
G01 X-11.62668 Y26.16382
G01 X-11.44946 Y26.08640
G01 X-11.26059 Y26.04487
G01 X-11.04136 Y26.03938
G01 X-10.77608 Y26.09577
G01 X-10.59998 Y26.17568
G01 X-10.44273 Y26.28825
G01 X-10.27552 Y26.46783
G01 X-10.17766 Y26.63463
G01 X-10.10471 Y26.84144
G01 X-10.07499 Y27.08500
G04 P0 ( dwell for no time -- G64 should not smooth over this point )
G00 Z2.00000 ( retract )

G00 X-6.54899 Y24.37502 ( rapid move to begin. )
G01 F20.00000
G01 Z-0.05000
G04 P0 ( dwell for no time -- G64 should not smooth over this point )
G01 F40.00000
G01 X-6.54899 Y24.37502
G01 X-6.94375 Y24.37020
G01 X-7.07177 Y24.30179
G01 X-7.14017 Y24.17378
G01 X-7.15417 Y23.77901
G01 X-7.14926 Y24.17558
G01 X-7.07830 Y24.30832
G01 X-6.94556 Y24.37929
G01 X-6.54899 Y24.37502
G04 P0 ( dwell for no time -- G64 should not smooth over this point )
G00 Z2.00000 ( retract )

G00 X-4.93400 Y24.10751 ( rapid move to begin. )
G01 F20.00000
G01 Z-0.05000
G04 P0 ( dwell for no time -- G64 should not smooth over this point )
G01 F40.00000
G01 X-4.93400 Y24.10751
G01 X-4.94071 Y24.17558
G01 X-4.97942 Y24.26903
G01 X-5.09578 Y24.36453
G01 X-5.21244 Y24.38597
G01 X-5.54099 Y24.38419
G01 X-5.14622 Y24.37020
G01 X-5.01732 Y24.30012
G01 X-4.94980 Y24.17378
G01 X-4.94498 Y23.77901
G01 X-4.93400 Y24.10751
G04 P0 ( dwell for no time -- G64 should not smooth over this point )
G00 Z2.00000 ( retract )

G00 X-3.82898 Y24.90065 ( rapid move to begin. )
G01 F20.00000
G01 Z-0.05000
G04 P0 ( dwell for no time -- G64 should not smooth over this point )
G01 F40.00000
G01 X-3.82898 Y24.90065
G01 X-4.03406 Y25.04223
G01 X-4.17317 Y25.19562
G01 X-4.24836 Y25.32102
G01 X-4.17447 Y25.20784
G01 X-4.04607 Y25.06321
G01 X-3.82898 Y24.90065
G04 P0 ( dwell for no time -- G64 should not smooth over this point )
G00 Z2.00000 ( retract )

G00 X-2.40162 Y25.32102 ( rapid move to begin. )
G01 F20.00000
G01 Z-0.05000
G04 P0 ( dwell for no time -- G64 should not smooth over this point )
G01 F40.00000
G01 X-2.40162 Y25.32102
G01 X-2.47549 Y25.20784
G01 X-2.60388 Y25.06321
G01 X-2.82098 Y24.90065
G01 X-2.61590 Y25.04226
G01 X-2.47678 Y25.19562
G01 X-2.40162 Y25.32102
G04 P0 ( dwell for no time -- G64 should not smooth over this point )
G00 Z2.00000 ( retract )

G00 X-2.40162 Y26.32902 ( rapid move to begin. )
G01 F20.00000
G01 Z-0.05000
G04 P0 ( dwell for no time -- G64 should not smooth over this point )
G01 F40.00000
G01 X-2.40162 Y26.32902
G01 X-2.47549 Y26.44218
G01 X-2.60388 Y26.58680
G01 X-2.82098 Y26.74939
G01 X-2.61590 Y26.60778
G01 X-2.47678 Y26.45439
G01 X-2.40162 Y26.32902
G04 P0 ( dwell for no time -- G64 should not smooth over this point )
G00 Z2.00000 ( retract )

G00 X-3.82898 Y26.74505 ( rapid move to begin. )
G01 F20.00000
G01 Z-0.05000
G04 P0 ( dwell for no time -- G64 should not smooth over this point )
G01 F40.00000
G01 X-3.82898 Y26.74505
G01 X-4.02758 Y26.60532
G01 X-4.17447 Y26.44218
G01 X-4.24836 Y26.32902
G01 X-4.17315 Y26.45442
G01 X-4.03406 Y26.60778
G01 X-3.82898 Y26.74505
G04 P0 ( dwell for no time -- G64 should not smooth over this point )
G00 Z2.00000 ( retract )

G00 X-6.26499 Y29.62500 ( rapid move to begin. )
G01 F20.00000
G01 Z-0.05000
G04 P0 ( dwell for no time -- G64 should not smooth over this point )
G01 F40.00000
G01 X-6.26499 Y29.62500
G01 X-6.29471 Y29.38144
G01 X-6.34640 Y29.22236
G01 X-6.45127 Y29.02978
G01 X-6.61241 Y28.84471
G01 X-6.81498 Y28.70306
G01 X-6.81498 Y27.18152
G01 X-6.83055 Y27.06018
G01 X-6.88663 Y26.92480
G01 X-6.96143 Y26.82798
G01 X-9.49889 Y24.29052
G01 X-9.63892 Y24.19263
G01 X-9.82795 Y24.14528
G01 X-11.85733 Y24.15008
G01 X-11.99757 Y24.19263
G01 X-12.13760 Y24.29052
G01 X-18.73156 Y30.88446
G01 X-18.94637 Y30.84440
G01 X-19.11360 Y30.84440
G01 X-19.32917 Y30.88464
G01 X-19.55498 Y30.98067
G01 X-19.73258 Y31.10971
G01 X-19.87947 Y31.27282
G01 X-19.99859 Y31.48738
G01 X-20.05028 Y31.64643
G01 X-20.07863 Y31.86388
G01 X-20.06113 Y32.08248
G01 X-19.99859 Y32.29266
G01 X-19.86298 Y32.52753
G01 X-19.73258 Y32.67031
G01 X-19.57693 Y32.78509
G01 X-19.35445 Y32.88862
G01 X-19.11360 Y32.93564
G01 X-18.89438 Y32.93017
G01 X-18.70553 Y32.88862
G01 X-18.52831 Y32.81123
G01 X-18.32740 Y32.67031
G01 X-18.16626 Y32.48524
G01 X-18.08264 Y32.34041
G01 X-18.00970 Y32.13361
G01 X-17.97998 Y31.89002
G01 X-17.99885 Y31.69754
G01 X-18.02676 Y31.59391
G01 X-11.57694 Y25.14408
G01 X-10.05955 Y25.14408
G01 X-7.81500 Y27.38863
G01 X-7.81500 Y28.70306
G01 X-8.01756 Y28.84471
G01 X-8.17870 Y29.02978
G01 X-8.28358 Y29.22236
G01 X-8.33527 Y29.38144
G01 X-8.36361 Y29.59889
G01 X-8.34614 Y29.81748
G01 X-8.28358 Y30.02767
G01 X-8.16445 Y30.24219
G01 X-8.01756 Y30.40531
G01 X-7.81668 Y30.54621
G01 X-7.63946 Y30.62363
G01 X-7.45059 Y30.66516
G01 X-7.23136 Y30.67064
G01 X-6.96608 Y30.61425
G01 X-6.78998 Y30.53435
G01 X-6.63273 Y30.42177
G01 X-6.46552 Y30.24219
G01 X-6.36766 Y30.07539
G01 X-6.29471 Y29.86859
G01 X-6.26499 Y29.62500
G04 P0 ( dwell for no time -- G64 should not smooth over this point )
G00 Z2.00000 ( retract )

G00 X-6.25699 Y39.68081 ( rapid move to begin. )
G01 F20.00000
G01 Z-0.05000
G04 P0 ( dwell for no time -- G64 should not smooth over this point )
G01 F40.00000
G01 X-6.25699 Y39.68081
G01 X-6.29765 Y39.47639
G01 X-6.37741 Y39.28386
G01 X-6.49318 Y39.11058
G01 X-6.64055 Y38.96321
G01 X-6.81386 Y38.84741
G01 X-7.00639 Y38.76768
G01 X-7.21078 Y38.72701
G01 X-7.41919 Y38.72701
G01 X-7.62358 Y38.76768
G01 X-7.81612 Y38.84741
G01 X-7.98942 Y38.96321
G01 X-8.22036 Y39.19887
G01 X-8.31667 Y39.25274
G01 X-8.40072 Y39.27220
G01 X-11.16521 Y39.27456
G01 X-11.23755 Y39.26382
G01 X-11.32769 Y39.22521
G01 X-11.40503 Y39.16831
G01 X-11.57913 Y38.95450
G01 X-11.62833 Y38.85305
G01 X-11.64550 Y38.75104
G01 X-11.62728 Y38.62384
G01 X-11.58215 Y38.53077
G01 X-11.49353 Y38.43771
G01 X-11.31166 Y38.32834
G01 X-11.25548 Y38.24424
G01 X-11.23402 Y38.12747
G01 X-11.23590 Y37.74901
G01 X-11.24979 Y38.19379
G01 X-11.28713 Y38.28391
G01 X-11.39932 Y38.37599
G01 X-11.49498 Y38.39501
G01 X-13.29500 Y38.39501
G01 X-13.43389 Y38.35287
G01 X-13.52596 Y38.24068
G01 X-13.54498 Y38.14502
G01 X-13.55408 Y37.74901
G01 X-13.55596 Y38.12742
G01 X-13.53449 Y38.24424
G01 X-13.47831 Y38.32834
G01 X-13.29645 Y38.43771
G01 X-13.20783 Y38.53077
G01 X-13.16269 Y38.62384
G01 X-13.14448 Y38.75104
G01 X-13.16165 Y38.85305
G01 X-13.19238 Y38.92417
G01 X-13.42119 Y39.23649
G01 X-13.50849 Y39.44723
G01 X-13.55299 Y39.67095
G01 X-13.55299 Y39.89907
G01 X-13.50849 Y40.12279
G01 X-13.42121 Y40.33351
G01 X-13.29444 Y40.52323
G01 X-13.13317 Y40.68449
G01 X-12.94351 Y40.81121
G01 X-12.73277 Y40.89851
G01 X-12.50905 Y40.94301
G01 X-12.28093 Y40.94301
G01 X-12.05721 Y40.89851
G01 X-11.84644 Y40.81121
G01 X-11.65680 Y40.68449
G01 X-11.49376 Y40.52145
G01 X-11.41359 Y40.41053
G01 X-11.33927 Y40.34997
G01 X-11.26064 Y40.31449
G01 X-11.16521 Y40.29546
G01 X-8.40022 Y40.29666
G01 X-8.28327 Y40.33344
G01 X-8.22036 Y40.37116
G01 X-7.98942 Y40.60682
G01 X-7.81617 Y40.72259
G01 X-7.62358 Y40.80235
G01 X-7.41919 Y40.84301
G01 X-7.21078 Y40.84301
G01 X-7.00639 Y40.80235
G01 X-6.81381 Y40.72259
G01 X-6.64055 Y40.60682
G01 X-6.49318 Y40.45945
G01 X-6.37741 Y40.28617
G01 X-6.29765 Y40.09361
G01 X-6.25699 Y39.88922
G01 X-6.25699 Y39.68081
G04 P0 ( dwell for no time -- G64 should not smooth over this point )
G00 Z2.00000 ( retract )

G00 X-6.26499 Y39.78500 ( rapid move to begin. )
G01 F20.00000
G01 Z-0.05000
G04 P0 ( dwell for no time -- G64 should not smooth over this point )
G01 F40.00000
G01 X-6.26499 Y39.78500
G01 X-6.28384 Y39.97748
G01 X-6.34640 Y40.18767
G01 X-6.48198 Y40.42251
G01 X-6.61241 Y40.56531
G01 X-6.78998 Y40.69435
G01 X-6.99051 Y40.78363
G01 X-7.17939 Y40.82516
G01 X-7.45059 Y40.82516
G01 X-7.63946 Y40.78363
G01 X-7.83999 Y40.69435
G01 X-8.03608 Y40.54682
G01 X-8.16445 Y40.40219
G01 X-8.23369 Y40.28500
G01 X-11.36145 Y40.28502
G01 X-11.46462 Y40.46097
G01 X-11.60699 Y40.62112
G01 X-11.81999 Y40.78093
G01 X-12.06490 Y40.88551
G01 X-12.24892 Y40.92462
G01 X-12.48906 Y40.93008
G01 X-12.77478 Y40.86935
G01 X-12.96998 Y40.78093
G01 X-13.18298 Y40.62112
G01 X-13.32535 Y40.46097
G01 X-13.45494 Y40.22833
G01 X-13.52395 Y39.99826
G01 X-13.54498 Y39.78500
G01 X-13.52395 Y39.57177
G01 X-13.45494 Y39.34169
G01 X-13.32535 Y39.10906
G01 X-13.18298 Y38.94891
G01 X-12.96998 Y38.78909
G01 X-12.75035 Y38.69130
G01 X-12.54105 Y38.64540
G01 X-12.30092 Y38.63994
G01 X-12.03963 Y38.69130
G01 X-11.79805 Y38.80334
G01 X-11.60699 Y38.94891
G01 X-11.46462 Y39.10906
G01 X-11.36145 Y39.28500
G01 X-8.23369 Y39.28500
G01 X-8.16445 Y39.16783
G01 X-8.03608 Y39.02320
G01 X-7.83999 Y38.87568
G01 X-7.63946 Y38.78640
G01 X-7.45059 Y38.74487
G01 X-7.17939 Y38.74487
G01 X-6.99051 Y38.78640
G01 X-6.78998 Y38.87568
G01 X-6.61241 Y39.00471
G01 X-6.48198 Y39.14751
G01 X-6.34640 Y39.38236
G01 X-6.28384 Y39.59254
G01 X-6.26499 Y39.78500
G04 P0 ( dwell for no time -- G64 should not smooth over this point )
G00 Z2.00000 ( retract )

G00 X-11.23402 Y36.36255 ( rapid move to begin. )
G01 F20.00000
G01 Z-0.05000
G04 P0 ( dwell for no time -- G64 should not smooth over this point )
G01 F40.00000
G01 X-11.23402 Y36.36255
G01 X-11.24499 Y36.74101
G01 X-11.24979 Y36.29623
G01 X-11.31733 Y36.16984
G01 X-11.44621 Y36.09982
G01 X-11.89099 Y36.08592
G01 X-11.51253 Y36.08404
G01 X-11.39576 Y36.10551
G01 X-11.27943 Y36.20098
G01 X-11.24072 Y36.29443
G01 X-11.23402 Y36.36255
G04 P0 ( dwell for no time -- G64 should not smooth over this point )
G00 Z2.00000 ( retract )

G00 X-12.89899 Y36.08592 ( rapid move to begin. )
G01 F20.00000
G01 Z-0.05000
G04 P0 ( dwell for no time -- G64 should not smooth over this point )
G01 F40.00000
G01 X-12.89899 Y36.08592
G01 X-13.34554 Y36.09075
G01 X-13.47831 Y36.16169
G01 X-13.54925 Y36.29446
G01 X-13.55408 Y36.74101
G01 X-13.54018 Y36.29623
G01 X-13.47176 Y36.16824
G01 X-13.34377 Y36.09982
G01 X-12.89899 Y36.08592
G04 P0 ( dwell for no time -- G64 should not smooth over this point )
G00 Z2.00000 ( retract )

G00 X-17.97998 Y39.51002 ( rapid move to begin. )
G01 F20.00000
G01 Z-0.05000
G04 P0 ( dwell for no time -- G64 should not smooth over this point )
G01 F40.00000
G01 X-17.97998 Y39.51002
G01 X-18.00970 Y39.75361
G01 X-18.08264 Y39.96041
G01 X-18.18051 Y40.12719
G01 X-18.32740 Y40.29031
G01 X-18.50500 Y40.41934
G01 X-18.70553 Y40.50862
G01 X-18.89438 Y40.55017
G01 X-19.11360 Y40.55564
G01 X-19.35445 Y40.50862
G01 X-19.53166 Y40.43123
G01 X-19.75107 Y40.27182
G01 X-19.87947 Y40.12719
G01 X-19.99859 Y39.91266
G01 X-20.06113 Y39.70248
G01 X-20.08000 Y39.51002
G01 X-20.05028 Y39.26643
G01 X-19.97733 Y39.05963
G01 X-19.87947 Y38.89282
G01 X-19.73258 Y38.72971
G01 X-19.55498 Y38.60067
G01 X-19.35445 Y38.51139
G01 X-19.16560 Y38.46986
G01 X-18.94637 Y38.46440
G01 X-18.70553 Y38.51139
G01 X-18.52831 Y38.58881
G01 X-18.30891 Y38.74822
G01 X-18.18051 Y38.89282
G01 X-18.06138 Y39.10738
G01 X-17.99885 Y39.31754
G01 X-17.97998 Y39.51002
G04 P0 ( dwell for no time -- G64 should not smooth over this point )
G00 Z2.00000 ( retract )

G00 X-17.97998 Y42.05002 ( rapid move to begin. )
G01 F20.00000
G01 Z-0.05000
G04 P0 ( dwell for no time -- G64 should not smooth over this point )
G01 F40.00000
G01 X-17.97998 Y42.05002
G01 X-18.00970 Y42.29361
G01 X-18.08264 Y42.50041
G01 X-18.18051 Y42.66719
G01 X-18.32740 Y42.83031
G01 X-18.50500 Y42.95934
G01 X-18.70553 Y43.04862
G01 X-18.89438 Y43.09017
G01 X-19.11360 Y43.09564
G01 X-19.35445 Y43.04862
G01 X-19.53166 Y42.97123
G01 X-19.75107 Y42.81182
G01 X-19.87947 Y42.66719
G01 X-19.99859 Y42.45266
G01 X-20.06113 Y42.24248
G01 X-20.08000 Y42.05002
G01 X-20.05028 Y41.80643
G01 X-19.97733 Y41.59963
G01 X-19.87947 Y41.43282
G01 X-19.73258 Y41.26971
G01 X-19.55498 Y41.14067
G01 X-19.35445 Y41.05139
G01 X-19.16560 Y41.00986
G01 X-18.94637 Y41.00440
G01 X-18.70553 Y41.05139
G01 X-18.52831 Y41.12881
G01 X-18.30891 Y41.28822
G01 X-18.18051 Y41.43282
G01 X-18.06138 Y41.64738
G01 X-17.99885 Y41.85754
G01 X-17.97998 Y42.05002
G04 P0 ( dwell for no time -- G64 should not smooth over this point )
G00 Z2.00000 ( retract )

G00 X-17.97998 Y43.79002 ( rapid move to begin. )
G01 F20.00000
G01 Z-0.05000
G04 P0 ( dwell for no time -- G64 should not smooth over this point )
G01 F40.00000
G01 X-17.97998 Y43.79002
G01 X-17.99903 Y43.69434
G01 X-18.05321 Y43.61324
G01 X-18.13431 Y43.55903
G01 X-18.22999 Y43.54001
G01 X-19.82999 Y43.54001
G01 X-19.92567 Y43.55903
G01 X-20.00677 Y43.61324
G01 X-20.06095 Y43.69434
G01 X-20.08000 Y43.79002
G01 X-20.08000 Y45.39002
G01 X-20.06095 Y45.48567
G01 X-20.00677 Y45.56678
G01 X-19.92567 Y45.62098
G01 X-19.82999 Y45.64000
G01 X-18.22999 Y45.64000
G01 X-18.13431 Y45.62098
G01 X-18.05321 Y45.56678
G01 X-17.99903 Y45.48567
G01 X-17.97998 Y45.39002
G01 X-17.97998 Y43.79002
G04 P0 ( dwell for no time -- G64 should not smooth over this point )
G00 Z2.00000 ( retract )

G00 X-17.96893 Y43.80851 ( rapid move to begin. )
G01 F20.00000
G01 Z-0.05000
G04 P0 ( dwell for no time -- G64 should not smooth over this point )
G01 F40.00000
G01 X-17.96893 Y43.80851
G01 X-17.99047 Y43.69081
G01 X-18.04668 Y43.60668
G01 X-18.12928 Y43.55131
G01 X-18.27454 Y43.50397
G01 X-18.39715 Y43.41156
G01 X-18.46390 Y43.30242
G01 X-18.49031 Y43.15119
G01 X-18.47993 Y43.07473
G01 X-18.44221 Y42.97887
G01 X-18.20883 Y42.72541
G01 X-18.09240 Y42.55116
G01 X-18.01264 Y42.35863
G01 X-17.97198 Y42.15421
G01 X-17.97198 Y41.94580
G01 X-18.01264 Y41.74141
G01 X-18.09240 Y41.54888
G01 X-18.20820 Y41.37557
G01 X-18.35630 Y41.22747
G01 X-18.57817 Y41.07651
G01 X-18.64541 Y41.00870
G01 X-18.69605 Y40.92429
G01 X-18.72476 Y40.78002
G01 X-18.69605 Y40.63575
G01 X-18.61505 Y40.51418
G01 X-18.35630 Y40.33255
G01 X-18.20817 Y40.18444
G01 X-18.09240 Y40.01116
G01 X-18.01267 Y39.81863
G01 X-17.97198 Y39.61421
G01 X-17.97198 Y39.40580
G01 X-18.01264 Y39.20138
G01 X-18.09240 Y39.00885
G01 X-18.20817 Y38.83557
G01 X-18.35486 Y38.68891
G01 X-18.56910 Y38.54820
G01 X-18.64645 Y38.47939
G01 X-18.71968 Y38.34825
G01 X-18.73713 Y38.24899
G01 X-18.72128 Y38.12483
G01 X-18.64995 Y37.99262
G01 X-18.57754 Y37.92729
G01 X-18.40164 Y37.81912
G01 X-18.24724 Y37.67909
G01 X-18.10561 Y37.47401
G01 X-18.30891 Y37.73182
G01 X-18.50500 Y37.87934
G01 X-18.73080 Y37.97540
G01 X-18.89438 Y38.01017
G01 X-19.11360 Y38.01564
G01 X-19.35445 Y37.96862
G01 X-19.55498 Y37.87934
G01 X-19.75107 Y37.73182
G01 X-19.95437 Y37.47401
G01 X-19.81274 Y37.67909
G01 X-19.65833 Y37.81912
G01 X-19.48244 Y37.92729
G01 X-19.41002 Y37.99262
G01 X-19.33870 Y38.12483
G01 X-19.32285 Y38.24899
G01 X-19.34030 Y38.34825
G01 X-19.41353 Y38.47939
G01 X-19.49087 Y38.54820
G01 X-19.70512 Y38.68891
G01 X-19.85181 Y38.83560
G01 X-19.96758 Y39.00885
G01 X-20.04733 Y39.20138
G01 X-20.08800 Y39.40580
G01 X-20.08800 Y39.61421
G01 X-20.04733 Y39.81863
G01 X-19.96758 Y40.01119
G01 X-19.85181 Y40.18444
G01 X-19.70367 Y40.33255
G01 X-19.44492 Y40.51418
G01 X-19.36392 Y40.63575
G01 X-19.33522 Y40.78002
G01 X-19.36392 Y40.92429
G01 X-19.44492 Y41.04586
G01 X-19.70367 Y41.22747
G01 X-19.85181 Y41.37557
G01 X-19.96758 Y41.54885
G01 X-20.04733 Y41.74141
G01 X-20.08800 Y41.94580
G01 X-20.08800 Y42.15421
G01 X-20.04733 Y42.35863
G01 X-19.96758 Y42.55116
G01 X-19.85181 Y42.72444
G01 X-19.64584 Y42.93602
G01 X-19.58706 Y43.04966
G01 X-19.56966 Y43.15119
G01 X-19.59608 Y43.30242
G01 X-19.66283 Y43.41156
G01 X-19.78543 Y43.50397
G01 X-19.97403 Y43.57445
G01 X-20.04553 Y43.64598
G01 X-20.08424 Y43.73942
G01 X-20.09107 Y45.37150
G01 X-20.06951 Y45.48920
G01 X-20.01330 Y45.57333
G01 X-19.92920 Y45.62951
G01 X-19.81147 Y45.65108
G01 X-18.24851 Y45.65108
G01 X-18.13080 Y45.62954
G01 X-18.04665 Y45.57330
G01 X-17.99047 Y45.48923
G01 X-17.96893 Y45.37150
G01 X-17.96893 Y43.80851
G04 P0 ( dwell for no time -- G64 should not smooth over this point )
G00 Z2.00000 ( retract )

G00 X-33.21198 Y44.48580 ( rapid move to begin. )
G01 F20.00000
G01 Z-0.05000
G04 P0 ( dwell for no time -- G64 should not smooth over this point )
G01 F40.00000
G01 X-33.21198 Y44.48580
G01 X-33.21198 Y44.69421
G01 X-33.25264 Y44.89863
G01 X-33.33240 Y45.09116
G01 X-33.44820 Y45.26447
G01 X-33.59557 Y45.41181
G01 X-33.76882 Y45.52758
G01 X-33.96140 Y45.60737
G01 X-34.16577 Y45.64801
G01 X-34.37420 Y45.64801
G01 X-34.57857 Y45.60737
G01 X-34.77116 Y45.52758
G01 X-34.94441 Y45.41181
G01 X-35.09180 Y45.26444
G01 X-35.20758 Y45.09116
G01 X-35.28733 Y44.89860
G01 X-35.32800 Y44.69424
G01 X-35.32797 Y44.48580
G01 X-35.28733 Y44.28141
G01 X-35.20758 Y44.08885
G01 X-35.09178 Y43.91557
G01 X-34.94512 Y43.76891
G01 X-34.70821 Y43.61143
G01 X-34.63760 Y43.53955
G01 X-34.58030 Y43.42825
G01 X-34.56417 Y43.27890
G01 X-34.58690 Y43.18073
G01 X-34.65002 Y43.07262
G01 X-34.72244 Y43.00729
G01 X-34.89833 Y42.89912
G01 X-35.05274 Y42.75909
G01 X-35.19437 Y42.55401
G01 X-34.99107 Y42.81182
G01 X-34.79498 Y42.95934
G01 X-34.59445 Y43.04862
G01 X-34.35360 Y43.09564
G01 X-34.13438 Y43.09017
G01 X-33.97080 Y43.05540
G01 X-33.74500 Y42.95934
G01 X-33.54891 Y42.81182
G01 X-33.34561 Y42.55401
G01 X-33.48721 Y42.75909
G01 X-33.64164 Y42.89912
G01 X-33.81754 Y43.00729
G01 X-33.88995 Y43.07262
G01 X-33.96128 Y43.20483
G01 X-33.97713 Y43.32899
G01 X-33.95968 Y43.42825
G01 X-33.88645 Y43.55939
G01 X-33.80910 Y43.62820
G01 X-33.59486 Y43.76891
G01 X-33.44820 Y43.91557
G01 X-33.33240 Y44.08888
G01 X-33.25264 Y44.28141
G01 X-33.21198 Y44.48580
G04 P0 ( dwell for no time -- G64 should not smooth over this point )
G00 Z2.00000 ( retract )

G00 X-33.21998 Y44.59002 ( rapid move to begin. )
G01 F20.00000
G01 Z-0.05000
G04 P0 ( dwell for no time -- G64 should not smooth over this point )
G01 F40.00000
G01 X-33.21998 Y44.59002
G01 X-33.23885 Y44.39754
G01 X-33.30138 Y44.18738
G01 X-33.42051 Y43.97282
G01 X-33.54891 Y43.82822
G01 X-33.76831 Y43.66881
G01 X-33.94553 Y43.59139
G01 X-34.18637 Y43.54440
G01 X-34.40560 Y43.54986
G01 X-34.59445 Y43.59139
G01 X-34.79498 Y43.68067
G01 X-34.97258 Y43.80971
G01 X-35.11947 Y43.97282
G01 X-35.21733 Y44.13963
G01 X-35.29028 Y44.34643
G01 X-35.32000 Y44.59002
G01 X-35.30113 Y44.78248
G01 X-35.23859 Y44.99266
G01 X-35.11947 Y45.20719
G01 X-34.99107 Y45.35182
G01 X-34.77166 Y45.51123
G01 X-34.59445 Y45.58862
G01 X-34.35360 Y45.63564
G01 X-34.13438 Y45.63017
G01 X-33.94553 Y45.58862
G01 X-33.74500 Y45.49934
G01 X-33.56740 Y45.37031
G01 X-33.42051 Y45.20719
G01 X-33.32264 Y45.04041
G01 X-33.24970 Y44.83361
G01 X-33.21998 Y44.59002
G04 P0 ( dwell for no time -- G64 should not smooth over this point )
G00 Z2.00000 ( retract )

G00 X-37.82899 Y40.74489 ( rapid move to begin. )
G01 F20.00000
G01 Z-0.05000
G04 P0 ( dwell for no time -- G64 should not smooth over this point )
G01 F40.00000
G01 X-37.82899 Y40.74489
G01 X-38.02756 Y40.60532
G01 X-38.17445 Y40.44220
G01 X-38.24836 Y40.32902
G01 X-38.17316 Y40.45439
G01 X-38.03406 Y40.60778
G01 X-37.86772 Y40.73107
G01 X-37.82899 Y40.74489
G04 P0 ( dwell for no time -- G64 should not smooth over this point )
G00 Z2.00000 ( retract )

G00 X-37.82899 Y38.90065 ( rapid move to begin. )
G01 F20.00000
G01 Z-0.05000
G04 P0 ( dwell for no time -- G64 should not smooth over this point )
G01 F40.00000
G01 X-37.82899 Y38.90065
G01 X-38.04608 Y39.06321
G01 X-38.17445 Y39.20784
G01 X-38.24836 Y39.32102
G01 X-38.17318 Y39.19564
G01 X-38.03406 Y39.04225
G01 X-37.82899 Y38.90065
G04 P0 ( dwell for no time -- G64 should not smooth over this point )
G00 Z2.00000 ( retract )

G00 X-36.40161 Y39.32102 ( rapid move to begin. )
G01 F20.00000
G01 Z-0.05000
G04 P0 ( dwell for no time -- G64 should not smooth over this point )
G01 F40.00000
G01 X-36.40161 Y39.32102
G01 X-36.47682 Y39.19562
G01 X-36.61591 Y39.04225
G01 X-36.82099 Y38.90065
G01 X-36.60389 Y39.06321
G01 X-36.47552 Y39.20784
G01 X-36.40161 Y39.32102
G04 P0 ( dwell for no time -- G64 should not smooth over this point )
G00 Z2.00000 ( retract )

G00 X-36.40163 Y40.32902 ( rapid move to begin. )
G01 F20.00000
G01 Z-0.05000
G04 P0 ( dwell for no time -- G64 should not smooth over this point )
G01 F40.00000
G01 X-36.40163 Y40.32902
G01 X-36.47682 Y40.45439
G01 X-36.61591 Y40.60778
G01 X-36.82099 Y40.74939
G01 X-36.60389 Y40.58680
G01 X-36.47552 Y40.44220
G01 X-36.40163 Y40.32902
G04 P0 ( dwell for no time -- G64 should not smooth over this point )
G00 Z2.00000 ( retract )

G00 X-33.21998 Y39.51002 ( rapid move to begin. )
G01 F20.00000
G01 Z-0.05000
G04 P0 ( dwell for no time -- G64 should not smooth over this point )
G01 F40.00000
G01 X-33.21998 Y39.51002
G01 X-33.23885 Y39.31754
G01 X-33.30138 Y39.10738
G01 X-33.42051 Y38.89282
G01 X-33.54891 Y38.74822
G01 X-33.76831 Y38.58881
G01 X-33.94553 Y38.51139
G01 X-34.18637 Y38.46440
G01 X-34.40560 Y38.46986
G01 X-34.59445 Y38.51139
G01 X-34.79498 Y38.60067
G01 X-34.97258 Y38.72971
G01 X-35.11947 Y38.89282
G01 X-35.21733 Y39.05963
G01 X-35.29028 Y39.26643
G01 X-35.32000 Y39.51002
G01 X-35.30113 Y39.70248
G01 X-35.23859 Y39.91266
G01 X-35.11947 Y40.12719
G01 X-34.99107 Y40.27182
G01 X-34.77166 Y40.43123
G01 X-34.59445 Y40.50862
G01 X-34.35360 Y40.55564
G01 X-34.13438 Y40.55017
G01 X-33.94553 Y40.50862
G01 X-33.74500 Y40.41934
G01 X-33.56740 Y40.29031
G01 X-33.42051 Y40.12719
G01 X-33.32264 Y39.96041
G01 X-33.24970 Y39.75361
G01 X-33.21998 Y39.51002
G04 P0 ( dwell for no time -- G64 should not smooth over this point )
G00 Z2.00000 ( retract )

G00 X-33.21998 Y34.43002 ( rapid move to begin. )
G01 F20.00000
G01 Z-0.05000
G04 P0 ( dwell for no time -- G64 should not smooth over this point )
G01 F40.00000
G01 X-33.21998 Y34.43002
G01 X-33.23885 Y34.23754
G01 X-33.30138 Y34.02738
G01 X-33.42051 Y33.81282
G01 X-33.54891 Y33.66822
G01 X-33.76831 Y33.50881
G01 X-33.94553 Y33.43139
G01 X-34.18637 Y33.38440
G01 X-34.40560 Y33.38986
G01 X-34.59445 Y33.43139
G01 X-34.79498 Y33.52067
G01 X-34.97258 Y33.64971
G01 X-35.11947 Y33.81282
G01 X-35.21733 Y33.97963
G01 X-35.29028 Y34.18643
G01 X-35.32000 Y34.43002
G01 X-35.30113 Y34.62248
G01 X-35.23859 Y34.83266
G01 X-35.11947 Y35.04719
G01 X-34.99107 Y35.19182
G01 X-34.77166 Y35.35123
G01 X-34.59445 Y35.42862
G01 X-34.35360 Y35.47564
G01 X-34.13438 Y35.47017
G01 X-33.94553 Y35.42862
G01 X-33.74500 Y35.33934
G01 X-33.56740 Y35.21031
G01 X-33.42051 Y35.04719
G01 X-33.32264 Y34.88041
G01 X-33.24970 Y34.67361
G01 X-33.21998 Y34.43002
G04 P0 ( dwell for no time -- G64 should not smooth over this point )
G00 Z2.00000 ( retract )

G00 X-33.21998 Y31.89002 ( rapid move to begin. )
G01 F20.00000
G01 Z-0.05000
G04 P0 ( dwell for no time -- G64 should not smooth over this point )
G01 F40.00000
G01 X-33.21998 Y31.89002
G01 X-33.23885 Y31.69754
G01 X-33.30138 Y31.48738
G01 X-33.42051 Y31.27282
G01 X-33.54891 Y31.12822
G01 X-33.76831 Y30.96881
G01 X-33.94553 Y30.89139
G01 X-34.18637 Y30.84440
G01 X-34.40560 Y30.84986
G01 X-34.59445 Y30.89139
G01 X-34.79498 Y30.98067
G01 X-34.97258 Y31.10971
G01 X-35.11947 Y31.27282
G01 X-35.21733 Y31.43963
G01 X-35.29028 Y31.64643
G01 X-35.32000 Y31.89002
G01 X-35.30113 Y32.08248
G01 X-35.23859 Y32.29266
G01 X-35.11947 Y32.50719
G01 X-34.99107 Y32.65182
G01 X-34.77166 Y32.81123
G01 X-34.59445 Y32.88862
G01 X-34.35360 Y32.93564
G01 X-34.13438 Y32.93017
G01 X-33.94553 Y32.88862
G01 X-33.74500 Y32.79934
G01 X-33.56740 Y32.67031
G01 X-33.42051 Y32.50719
G01 X-33.32264 Y32.34041
G01 X-33.24970 Y32.13361
G01 X-33.21998 Y31.89002
G04 P0 ( dwell for no time -- G64 should not smooth over this point )
G00 Z2.00000 ( retract )

G00 X-33.21998 Y29.35002 ( rapid move to begin. )
G01 F20.00000
G01 Z-0.05000
G04 P0 ( dwell for no time -- G64 should not smooth over this point )
G01 F40.00000
G01 X-33.21998 Y29.35002
G01 X-33.23885 Y29.54248
G01 X-33.30138 Y29.75266
G01 X-33.43699 Y29.98753
G01 X-33.56740 Y30.13031
G01 X-33.74500 Y30.25934
G01 X-33.94553 Y30.34862
G01 X-34.13438 Y30.39017
G01 X-34.35360 Y30.39564
G01 X-34.59445 Y30.34862
G01 X-34.79498 Y30.25934
G01 X-34.97641 Y30.12502
G01 X-39.35888 Y30.12502
G01 X-39.44506 Y30.27158
G01 X-39.58044 Y30.42396
G01 X-39.76304 Y30.56338
G01 X-39.99507 Y30.67118
G01 X-40.24615 Y30.72035
G01 X-40.47582 Y30.71489
G01 X-40.67490 Y30.67118
G01 X-40.86167 Y30.58951
G01 X-41.07104 Y30.44247
G01 X-41.22491 Y30.27158
G01 X-41.32801 Y30.09574
G01 X-41.40419 Y29.87900
G01 X-41.43500 Y29.62500
G01 X-41.41503 Y29.42216
G01 X-41.34927 Y29.20204
G01 X-41.20843 Y28.95812
G01 X-41.07104 Y28.80755
G01 X-40.86167 Y28.66051
G01 X-40.67490 Y28.57885
G01 X-40.47582 Y28.53514
G01 X-40.19416 Y28.53514
G01 X-39.99507 Y28.57885
G01 X-39.80831 Y28.66051
G01 X-39.58044 Y28.82607
G01 X-39.44506 Y28.97844
G01 X-39.35888 Y29.12500
G01 X-35.29422 Y29.12500
G01 X-35.23859 Y28.94738
G01 X-35.13371 Y28.75480
G01 X-34.97258 Y28.56971
G01 X-34.79498 Y28.44067
G01 X-34.61888 Y28.36079
G01 X-34.35360 Y28.30440
G01 X-34.13438 Y28.30986
G01 X-33.94553 Y28.35139
G01 X-33.74500 Y28.44067
G01 X-33.56740 Y28.56971
G01 X-33.42051 Y28.73282
G01 X-33.32264 Y28.89963
G01 X-33.24970 Y29.10643
G01 X-33.21998 Y29.35002
G04 P0 ( dwell for no time -- G64 should not smooth over this point )
G00 Z2.00000 ( retract )

G00 X-33.21998 Y26.81002 ( rapid move to begin. )
G01 F20.00000
G01 Z-0.05000
G04 P0 ( dwell for no time -- G64 should not smooth over this point )
G01 F40.00000
G01 X-33.21998 Y26.81002
G01 X-33.23885 Y27.00248
G01 X-33.30138 Y27.21266
G01 X-33.43699 Y27.44753
G01 X-33.56740 Y27.59031
G01 X-33.74500 Y27.71934
G01 X-33.94553 Y27.80862
G01 X-34.13438 Y27.85017
G01 X-34.40560 Y27.85017
G01 X-34.59445 Y27.80862
G01 X-34.79498 Y27.71934
G01 X-34.99107 Y27.57182
G01 X-35.11947 Y27.42719
G01 X-35.18868 Y27.31002
G01 X-39.25964 Y27.31002
G01 X-39.34196 Y27.55574
G01 X-39.44506 Y27.73158
G01 X-39.59893 Y27.90247
G01 X-39.76304 Y28.02338
G01 X-39.97064 Y28.12180
G01 X-40.24615 Y28.18035
G01 X-40.47582 Y28.17489
G01 X-40.67490 Y28.13118
G01 X-40.86167 Y28.04951
G01 X-41.07104 Y27.90247
G01 X-41.22491 Y27.73158
G01 X-41.32801 Y27.55574
G01 X-41.40419 Y27.33900
G01 X-41.43500 Y27.08500
G01 X-41.41503 Y26.88216
G01 X-41.34927 Y26.66204
G01 X-41.20843 Y26.41812
G01 X-41.07104 Y26.26755
G01 X-40.86167 Y26.12051
G01 X-40.67490 Y26.03885
G01 X-40.47582 Y25.99514
G01 X-40.24615 Y25.98968
G01 X-39.99507 Y26.03885
G01 X-39.76304 Y26.14665
G01 X-39.55888 Y26.31002
G01 X-35.18868 Y26.31002
G01 X-35.11947 Y26.19282
G01 X-34.99107 Y26.04822
G01 X-34.81693 Y25.91495
G01 X-34.59445 Y25.81139
G01 X-34.35360 Y25.76440
G01 X-34.13438 Y25.76986
G01 X-33.94553 Y25.81139
G01 X-33.74500 Y25.90067
G01 X-33.56740 Y26.02971
G01 X-33.42051 Y26.19282
G01 X-33.32264 Y26.35963
G01 X-33.24970 Y26.56643
G01 X-33.21998 Y26.81002
G04 P0 ( dwell for no time -- G64 should not smooth over this point )
G00 Z2.00000 ( retract )

G00 X-33.21998 Y24.27002 ( rapid move to begin. )
G01 F20.00000
G01 Z-0.05000
G04 P0 ( dwell for no time -- G64 should not smooth over this point )
G01 F40.00000
G01 X-33.21998 Y24.27002
G01 X-33.23885 Y24.07754
G01 X-33.30138 Y23.86738
G01 X-33.42051 Y23.65282
G01 X-33.54891 Y23.50822
G01 X-33.76831 Y23.34881
G01 X-33.94553 Y23.27139
G01 X-34.18637 Y23.22440
G01 X-34.40560 Y23.22986
G01 X-34.59445 Y23.27139
G01 X-34.79498 Y23.36067
G01 X-34.97258 Y23.48971
G01 X-35.11947 Y23.65282
G01 X-35.21733 Y23.81963
G01 X-35.29028 Y24.02643
G01 X-35.32000 Y24.27002
G01 X-35.30113 Y24.46248
G01 X-35.23859 Y24.67266
G01 X-35.11947 Y24.88719
G01 X-34.99107 Y25.03182
G01 X-34.77166 Y25.19123
G01 X-34.59445 Y25.26862
G01 X-34.35360 Y25.31564
G01 X-34.13438 Y25.31017
G01 X-33.94553 Y25.26862
G01 X-33.74500 Y25.17934
G01 X-33.56740 Y25.05031
G01 X-33.42051 Y24.88719
G01 X-33.32264 Y24.72041
G01 X-33.24970 Y24.51361
G01 X-33.21998 Y24.27002
G04 P0 ( dwell for no time -- G64 should not smooth over this point )
G00 Z2.00000 ( retract )

G00 X-33.21998 Y21.73002 ( rapid move to begin. )
G01 F20.00000
G01 Z-0.05000
G04 P0 ( dwell for no time -- G64 should not smooth over this point )
G01 F40.00000
G01 X-33.21998 Y21.73002
G01 X-33.23885 Y21.53754
G01 X-33.30138 Y21.32738
G01 X-33.42051 Y21.11282
G01 X-33.54891 Y20.96822
G01 X-33.76831 Y20.80881
G01 X-33.94553 Y20.73139
G01 X-34.18637 Y20.68440
G01 X-34.40560 Y20.68986
G01 X-34.59445 Y20.73139
G01 X-34.79498 Y20.82067
G01 X-34.97258 Y20.94971
G01 X-35.11947 Y21.11282
G01 X-35.21733 Y21.27963
G01 X-35.29028 Y21.48643
G01 X-35.32000 Y21.73002
G01 X-35.30113 Y21.92248
G01 X-35.23859 Y22.13266
G01 X-35.11947 Y22.34719
G01 X-34.99107 Y22.49182
G01 X-34.77166 Y22.65123
G01 X-34.59445 Y22.72862
G01 X-34.35360 Y22.77564
G01 X-34.13438 Y22.77017
G01 X-33.94553 Y22.72862
G01 X-33.74500 Y22.63934
G01 X-33.56740 Y22.51031
G01 X-33.42051 Y22.34719
G01 X-33.32264 Y22.18041
G01 X-33.24970 Y21.97361
G01 X-33.21998 Y21.73002
G04 P0 ( dwell for no time -- G64 should not smooth over this point )
G00 Z2.00000 ( retract )

G00 X-33.21998 Y19.19002 ( rapid move to begin. )
G01 F20.00000
G01 Z-0.05000
G04 P0 ( dwell for no time -- G64 should not smooth over this point )
G01 F40.00000
G01 X-33.21998 Y19.19002
G01 X-33.23885 Y18.99754
G01 X-33.30138 Y18.78738
G01 X-33.42051 Y18.57282
G01 X-33.54891 Y18.42822
G01 X-33.76831 Y18.26881
G01 X-33.94553 Y18.19139
G01 X-34.18637 Y18.14440
G01 X-34.40560 Y18.14986
G01 X-34.59445 Y18.19139
G01 X-34.79498 Y18.28067
G01 X-34.97258 Y18.40971
G01 X-35.11947 Y18.57282
G01 X-35.21733 Y18.73963
G01 X-35.29028 Y18.94643
G01 X-35.32000 Y19.19002
G01 X-35.30113 Y19.38248
G01 X-35.23859 Y19.59266
G01 X-35.11947 Y19.80719
G01 X-34.99107 Y19.95182
G01 X-34.77166 Y20.11123
G01 X-34.59445 Y20.18862
G01 X-34.35360 Y20.23564
G01 X-34.13438 Y20.23017
G01 X-33.94553 Y20.18862
G01 X-33.74500 Y20.09934
G01 X-33.56740 Y19.97031
G01 X-33.42051 Y19.80719
G01 X-33.32264 Y19.64041
G01 X-33.24970 Y19.43361
G01 X-33.21998 Y19.19002
G04 P0 ( dwell for no time -- G64 should not smooth over this point )
G00 Z2.00000 ( retract )

G00 X-33.21998 Y14.11002 ( rapid move to begin. )
G01 F20.00000
G01 Z-0.05000
G04 P0 ( dwell for no time -- G64 should not smooth over this point )
G01 F40.00000
G01 X-33.21998 Y14.11002
G01 X-33.23885 Y13.91754
G01 X-33.30138 Y13.70738
G01 X-33.42051 Y13.49282
G01 X-33.54891 Y13.34822
G01 X-33.76831 Y13.18881
G01 X-33.94553 Y13.11139
G01 X-34.18637 Y13.06440
G01 X-34.40560 Y13.06986
G01 X-34.59445 Y13.11139
G01 X-34.79498 Y13.20067
G01 X-34.97258 Y13.32971
G01 X-35.11947 Y13.49282
G01 X-35.21733 Y13.65963
G01 X-35.29028 Y13.86643
G01 X-35.32000 Y14.11002
G01 X-35.30113 Y14.30248
G01 X-35.23859 Y14.51266
G01 X-35.11947 Y14.72719
G01 X-34.99107 Y14.87182
G01 X-34.77166 Y15.03123
G01 X-34.59445 Y15.10862
G01 X-34.35360 Y15.15564
G01 X-34.13438 Y15.15017
G01 X-33.94553 Y15.10862
G01 X-33.74500 Y15.01934
G01 X-33.56740 Y14.89031
G01 X-33.42051 Y14.72719
G01 X-33.32264 Y14.56041
G01 X-33.24970 Y14.35361
G01 X-33.21998 Y14.11002
G04 P0 ( dwell for no time -- G64 should not smooth over this point )
G00 Z2.00000 ( retract )

G00 X-33.21998 Y11.57002 ( rapid move to begin. )
G01 F20.00000
G01 Z-0.05000
G04 P0 ( dwell for no time -- G64 should not smooth over this point )
G01 F40.00000
G01 X-33.21998 Y11.57002
G01 X-33.23885 Y11.76248
G01 X-33.30138 Y11.97266
G01 X-33.43699 Y12.20753
G01 X-33.56740 Y12.35031
G01 X-33.74500 Y12.47934
G01 X-33.94553 Y12.56862
G01 X-34.13438 Y12.61017
G01 X-34.40560 Y12.61017
G01 X-34.59445 Y12.56862
G01 X-34.79498 Y12.47934
G01 X-34.99107 Y12.33182
G01 X-35.11947 Y12.18719
G01 X-35.18868 Y12.07002
G01 X-39.31074 Y12.07002
G01 X-39.36640 Y12.24767
G01 X-39.47127 Y12.44025
G01 X-39.63241 Y12.62531
G01 X-39.80998 Y12.75435
G01 X-39.98608 Y12.83425
G01 X-40.25136 Y12.89064
G01 X-40.47059 Y12.88516
G01 X-40.65946 Y12.84363
G01 X-40.85999 Y12.75435
G01 X-41.03756 Y12.62531
G01 X-41.18445 Y12.46219
G01 X-41.30358 Y12.24767
G01 X-41.36614 Y12.03748
G01 X-41.38499 Y11.84500
G01 X-41.36614 Y11.65254
G01 X-41.30358 Y11.44236
G01 X-41.16799 Y11.20751
G01 X-41.03756 Y11.06471
G01 X-40.85999 Y10.93568
G01 X-40.65946 Y10.84640
G01 X-40.47059 Y10.80487
G01 X-40.25136 Y10.79938
G01 X-40.01051 Y10.84640
G01 X-39.80998 Y10.93568
G01 X-39.62855 Y11.07002
G01 X-35.18868 Y11.07002
G01 X-35.11947 Y10.95282
G01 X-34.99107 Y10.80822
G01 X-34.81693 Y10.67495
G01 X-34.59445 Y10.57139
G01 X-34.35360 Y10.52440
G01 X-34.13438 Y10.52986
G01 X-33.94553 Y10.57139
G01 X-33.74500 Y10.66067
G01 X-33.56740 Y10.78971
G01 X-33.42051 Y10.95282
G01 X-33.32264 Y11.11963
G01 X-33.24970 Y11.32643
G01 X-33.21998 Y11.57002
G04 P0 ( dwell for no time -- G64 should not smooth over this point )
G00 Z2.00000 ( retract )

G00 X-33.21998 Y9.03002 ( rapid move to begin. )
G01 F20.00000
G01 Z-0.05000
G04 P0 ( dwell for no time -- G64 should not smooth over this point )
G01 F40.00000
G01 X-33.21998 Y9.03002
G01 X-33.23885 Y8.83754
G01 X-33.30138 Y8.62738
G01 X-33.42051 Y8.41282
G01 X-33.54891 Y8.26822
G01 X-33.76831 Y8.10881
G01 X-33.94553 Y8.03139
G01 X-34.18637 Y7.98440
G01 X-34.40560 Y7.98986
G01 X-34.59445 Y8.03139
G01 X-34.79498 Y8.12067
G01 X-34.97258 Y8.24971
G01 X-35.11947 Y8.41282
G01 X-35.21733 Y8.57963
G01 X-35.29028 Y8.78643
G01 X-35.32000 Y9.03002
G01 X-35.30113 Y9.22248
G01 X-35.23859 Y9.43266
G01 X-35.11947 Y9.64719
G01 X-34.99107 Y9.79182
G01 X-34.77166 Y9.95123
G01 X-34.59445 Y10.02862
G01 X-34.35360 Y10.07564
G01 X-34.13438 Y10.07017
G01 X-33.94553 Y10.02862
G01 X-33.74500 Y9.93934
G01 X-33.56740 Y9.81031
G01 X-33.42051 Y9.64719
G01 X-33.32264 Y9.48041
G01 X-33.24970 Y9.27361
G01 X-33.21998 Y9.03002
G04 P0 ( dwell for no time -- G64 should not smooth over this point )
G00 Z2.00000 ( retract )

G00 X-39.22400 Y35.53751 ( rapid move to begin. )
G01 F20.00000
G01 Z-0.05000
G04 P0 ( dwell for no time -- G64 should not smooth over this point )
G01 F40.00000
G01 X-39.22400 Y35.53751
G01 X-39.23071 Y35.60558
G01 X-39.26944 Y35.69905
G01 X-39.38578 Y35.79453
G01 X-39.50249 Y35.81600
G01 X-39.83099 Y35.81419
G01 X-39.43622 Y35.80020
G01 X-39.30732 Y35.73012
G01 X-39.23980 Y35.60378
G01 X-39.23498 Y35.20901
G01 X-39.22400 Y35.53751
G04 P0 ( dwell for no time -- G64 should not smooth over this point )
G00 Z2.00000 ( retract )

G00 X-40.83899 Y35.80502 ( rapid move to begin. )
G01 F20.00000
G01 Z-0.05000
G04 P0 ( dwell for no time -- G64 should not smooth over this point )
G01 F40.00000
G01 X-40.83899 Y35.80502
G01 X-41.23375 Y35.80020
G01 X-41.36177 Y35.73179
G01 X-41.43017 Y35.60378
G01 X-41.44417 Y35.20901
G01 X-41.43924 Y35.60561
G01 X-41.36830 Y35.73832
G01 X-41.23556 Y35.80929
G01 X-40.83899 Y35.80502

G04 P0 ( dwell for no time -- G64 should not smooth over this point )
G00 Z10.000 ( retract )

M5 ( Spindle off. )
G04 P1.000000
M9 ( Coolant off. )
M2 ( Program end. )

