( pcb2gcode 2.0.0 )
( Software-independent Gcode )
( This file uses a mill head of 1.00000mm to drill the 3 hole sizes. )
( Hole sizes: [0.8001 mm] [0.89916 mm] [1.00076 mm] )

G94       (Millimeters per minute feed rate.)
G21       (Units == Millimeters.)
G91.1     (Incremental arc distance mode.)
G90       (Absolute coordinates.)
S15000    (RPM spindle speed.)
G01 F20.00000 (Feedrate)
M3        (Spindle on clockwise.)
G04 P1.00000
G00 Z2.00000

G0 X-40.33500 Y11.84500
G1 Z-2.50000 F10.00000
G0 Z2.00000

G0 X-40.33500 Y22.00500
G1 Z-2.50000 F10.00000
G0 Z2.00000

G0 X-37.32510 Y32.32502
G1 Z-2.50000 F10.00000
G0 Z2.00000

G0 X-37.32510 Y39.82564
G1 Z-2.50000 F10.00000
G0 Z2.00000

G0 X-26.36500 Y39.78500
G1 Z-2.50000 F10.00000
G0 Z2.00000

G0 X-26.36500 Y29.62500
G1 Z-2.50000 F10.00000
G0 Z2.00000

G0 X-11.12500 Y16.92500
G1 Z-2.50000 F10.00000
G0 Z2.00000

G0 X-3.32466 Y18.32454
G1 Z-2.50000 F10.00000
G0 Z2.00000

G0 X-3.32466 Y25.82516
G1 Z-2.50000 F10.00000
G0 Z2.00000

G0 X-7.31500 Y29.62500
G1 Z-2.50000 F10.00000
G0 Z2.00000

G0 X-11.12500 Y27.08500
G1 Z-2.50000 F10.00000
G0 Z2.00000

G0 X-7.31500 Y39.78500
G1 Z-2.50000 F10.00000
G0 Z2.00000

G0 X-12.39500 Y39.78500
G1 Z-2.50000 F10.00000
G0 Z2.00000

G0 X-12.39500 Y37.24500
G1 Z-2.50000 F10.00000
G0 Z2.00000

G0 X-40.33500 Y34.70500
G1 Z-2.50000 F10.00000
G0 Z2.00000

G0 X-40.33500 Y32.16500
G1 Z-2.50000 F10.00000
G0 Z2.00000

G0 X-40.33500 Y29.62500
G1 Z-2.50000 F10.00000
G0 Z2.00000

G0 X-40.33500 Y27.08500
G1 Z-2.50000 F10.00000
G0 Z2.00000

G0 X-34.26948 Y31.89068
G1 Z-2.50000 F10.00000
G0 Z2.00000

G0 X-34.26948 Y34.43068
G1 Z-2.50000 F10.00000
G0 Z2.00000

G0 X-34.26948 Y36.97068
G1 Z-2.50000 F10.00000
G0 Z2.00000

G0 X-34.26948 Y39.51068
G1 Z-2.50000 F10.00000
G0 Z2.00000

G0 X-34.26948 Y42.05068
G1 Z-2.50000 F10.00000
G0 Z2.00000

G0 X-34.26948 Y44.59068
G1 Z-2.50000 F10.00000
G0 Z2.00000

G0 X-19.02948 Y44.59068
G1 Z-2.50000 F10.00000
G0 Z2.00000

G0 X-19.02948 Y42.05068
G1 Z-2.50000 F10.00000
G0 Z2.00000

G0 X-19.02948 Y39.51068
G1 Z-2.50000 F10.00000
G0 Z2.00000

G0 X-19.02948 Y36.97068
G1 Z-2.50000 F10.00000
G0 Z2.00000

G0 X-6.04500 Y23.27500
G1 Z-2.50000 F10.00000
G0 Z2.00000

G0 X-6.04500 Y20.73500
G1 Z-2.50000 F10.00000
G0 Z2.00000

G0 X-6.04500 Y18.19500
G1 Z-2.50000 F10.00000
G0 Z2.00000

G0 X-6.04500 Y11.84500
G1 Z-2.50000 F10.00000
G0 Z2.00000

G0 X-6.04500 Y9.30500
G1 Z-2.50000 F10.00000
G0 Z2.00000

G0 X-6.04500 Y6.76500
G1 Z-2.50000 F10.00000
G0 Z2.00000

G0 X-6.04500 Y4.22500
G1 Z-2.50000 F10.00000
G0 Z2.00000

G0 X-14.93500 Y4.22500
G1 Z-2.50000 F10.00000
G0 Z2.00000

G0 X-14.93500 Y6.76500
G1 Z-2.50000 F10.00000
G0 Z2.00000

G0 X-14.93500 Y9.30500
G1 Z-2.50000 F10.00000
G0 Z2.00000

G0 X-14.93500 Y11.84500
G1 Z-2.50000 F10.00000
G0 Z2.00000

G0 X-19.02948 Y9.03068
G1 Z-2.50000 F10.00000
G0 Z2.00000

G0 X-19.02948 Y11.57068
G1 Z-2.50000 F10.00000
G0 Z2.00000

G0 X-19.02948 Y14.11068
G1 Z-2.50000 F10.00000
G0 Z2.00000

G0 X-19.02948 Y16.65068
G1 Z-2.50000 F10.00000
G0 Z2.00000

G0 X-19.02948 Y19.19068
G1 Z-2.50000 F10.00000
G0 Z2.00000

G0 X-19.02948 Y21.73068
G1 Z-2.50000 F10.00000
G0 Z2.00000

G0 X-19.02948 Y24.27068
G1 Z-2.50000 F10.00000
G0 Z2.00000

G0 X-19.02948 Y26.81068
G1 Z-2.50000 F10.00000
G0 Z2.00000

G0 X-19.02948 Y29.35068
G1 Z-2.50000 F10.00000
G0 Z2.00000

G0 X-19.02948 Y31.89068
G1 Z-2.50000 F10.00000
G0 Z2.00000

G0 X-19.02948 Y34.43068
G1 Z-2.50000 F10.00000
G0 Z2.00000

G0 X-34.26948 Y29.35068
G1 Z-2.50000 F10.00000
G0 Z2.00000

G0 X-34.26948 Y26.81068
G1 Z-2.50000 F10.00000
G0 Z2.00000

G0 X-34.26948 Y24.27068
G1 Z-2.50000 F10.00000
G0 Z2.00000

G0 X-34.26948 Y21.73068
G1 Z-2.50000 F10.00000
G0 Z2.00000

G0 X-34.26948 Y19.19068
G1 Z-2.50000 F10.00000
G0 Z2.00000

G0 X-34.26948 Y16.65068
G1 Z-2.50000 F10.00000
G0 Z2.00000

G0 X-34.26948 Y14.11068
G1 Z-2.50000 F10.00000
G0 Z2.00000

G0 X-34.26948 Y11.57068
G1 Z-2.50000 F10.00000
G0 Z2.00000

G0 X-34.26948 Y9.03068
G1 Z-2.50000 F10.00000
G0 Z2.00000

G00 Z10.000 ( All done -- retract )

M5      (Spindle off.)
G04 P1.000000
M9      (Coolant off.)
M2      (Program end.)

